(G-CODE GENERATED BY FLATCAM v8.994 - www.flatcam.org - Version Date: 2020/11/7)

(Name: zvire-vetrnik-current-sensor-opamp-B_Cu.gbr_iso_combined_cnc)
(Type: G-code from Geometry)
(Units: MM)

(Created on Sobota, 04 února 2023 at 20:23)

(This preprocessor is the default preprocessor used by FlatCAM.)
(It is made to work with MACH3 compatible motion controllers.)

(TOOL DIAMETER: 0.399 mm)
(Feedrate_XY: 240.0 mm/min)
(Feedrate_Z: 80.0 mm/min)
(Feedrate rapids 1500.0 mm/min)

(Z_Cut: -0.1008 mm)
(Z_Move: 2.0 mm)
(Z Start: None mm)
(Z End: 5.0 mm)
(X,Y End: None mm)
(Steps per circle: 64)
(Preprocessor Geometry: default)

(X range:    1.4955 ...   56.0795  mm)
(Y range:    0.3403 ...   23.2995  mm)

(Spindle Speed: 10000.0 RPM)
G21
G90
G94

G01 F240.00

M5
G00 Z15.0000
G00 X0.0000 Y0.0000
T2
M6    
(MSG, Change to Tool Dia = 0.3990)
M0
G00 Z15.0000

M03 S10000.0
G4 P1.0
G01 F240.00
G00 X3.4430 Y3.2398
G01 F80.00
G01 Z-0.1008
G01 F240.00
G01 X3.3725 Y3.3175
G01 X3.2925 Y3.3899
G01 X3.2058 Y3.4542
G01 X3.1133 Y3.5097
G01 X3.0158 Y3.5558
G01 X2.9142 Y3.5922
G01 X2.8095 Y3.6184
G01 X2.7028 Y3.6342
G01 X2.5950 Y3.6395
G01 X2.4872 Y3.6342
G01 X2.3805 Y3.6184
G01 X2.2758 Y3.5922
G01 X2.1742 Y3.5558
G01 X2.0767 Y3.5097
G01 X1.9842 Y3.4542
G01 X1.8975 Y3.3899
G01 X1.8175 Y3.3175
G01 X1.7451 Y3.2375
G01 X1.6808 Y3.1508
G01 X1.6253 Y3.0583
G01 X1.5792 Y2.9608
G01 X1.5428 Y2.8592
G01 X1.5166 Y2.7545
G01 X1.5008 Y2.6478
G01 X1.4955 Y2.5400
G01 X1.5008 Y2.4322
G01 X1.5166 Y2.3255
G01 X1.5428 Y2.2208
G01 X1.5792 Y2.1192
G01 X1.6253 Y2.0217
G01 X1.6808 Y1.9292
G01 X1.7451 Y1.8425
G01 X1.8175 Y1.7625
G01 X1.8975 Y1.6901
G01 X1.9842 Y1.6258
G01 X2.0767 Y1.5703
G01 X2.1742 Y1.5242
G01 X2.2758 Y1.4878
G01 X2.3805 Y1.4616
G01 X2.4775 Y1.4470
G01 X2.4921 Y1.4454
G01 X2.5852 Y1.4407
G01 X2.6048 Y1.4407
G01 X2.7028 Y1.4458
G01 X2.7999 Y1.4600
G01 X2.8191 Y1.4638
G01 X2.9142 Y1.4878
G01 X3.0158 Y1.5242
G01 X3.1133 Y1.5703
G01 X3.1976 Y1.6206
G01 X3.2139 Y1.6314
G01 X3.2925 Y1.6901
G01 X3.3654 Y1.7558
G01 X3.3792 Y1.7696
G01 X3.4430 Y1.8402
G01 X3.6769 Y1.8402
G01 X3.6791 Y1.8279
G01 X3.6853 Y1.8009
G01 X3.6904 Y1.7832
G01 X3.7009 Y1.7526
G01 X3.7176 Y1.7146
G01 X3.7378 Y1.6784
G01 X3.7559 Y1.6516
G01 X3.7670 Y1.6369
G01 X3.7848 Y1.6156
G01 X3.7942 Y1.6055
G01 X3.8172 Y1.5828
G01 X3.8491 Y1.5563
G01 X3.8834 Y1.5328
G01 X3.9155 Y1.5147
G01 X3.9280 Y1.5087
G01 X3.9533 Y1.4976
G01 X3.9619 Y1.4942
G01 X3.9882 Y1.4854
G01 X4.0059 Y1.4803
G01 X4.0329 Y1.4741
G01 X4.0419 Y1.4724
G01 X4.0785 Y1.4674
G01 X4.1200 Y1.4655
G01 X4.9200 Y1.4655
G01 X4.9592 Y1.4672
G01 X4.9738 Y1.4689
G01 X5.0029 Y1.4732
G01 X5.0125 Y1.4752
G01 X5.0505 Y1.4849
G01 X5.0829 Y1.4962
G01 X5.0965 Y1.5016
G01 X5.1319 Y1.5186
G01 X5.1656 Y1.5386
G01 X5.1777 Y1.5469
G01 X5.2052 Y1.5675
G01 X5.2378 Y1.5972
G01 X5.2675 Y1.6298
G01 X5.2937 Y1.6653
G01 X5.3164 Y1.7031
G01 X5.3353 Y1.7430
G01 X5.3501 Y1.7845
G01 X5.3609 Y1.8273
G01 X5.3673 Y1.8709
G01 X5.3695 Y1.9150
G01 X5.3695 Y2.5414
G01 X6.8003 Y3.9722
G01 X6.8105 Y3.9715
G01 X6.8350 Y3.9705
G01 X7.1396 Y3.9706
G01 X7.1672 Y3.9720
G01 X7.1901 Y3.9750
G01 X7.2037 Y3.9774
G01 X7.2306 Y3.9838
G01 X7.2613 Y3.9941
G01 X7.2824 Y4.0032
G01 X7.2949 Y4.0092
G01 X7.3150 Y4.0205
G01 X7.3229 Y4.0253
G01 X7.3419 Y4.0384
G01 X7.3528 Y4.0468
G01 X7.3705 Y4.0617
G01 X7.3869 Y4.0779
G01 X7.3963 Y4.0880
G01 X7.4111 Y4.1057
G01 X7.4193 Y4.1169
G01 X7.4322 Y4.1360
G01 X7.4479 Y4.1642
G01 X7.4609 Y4.1937
G01 X7.4712 Y4.2244
G01 X7.4785 Y4.2558
G01 X7.4819 Y4.2786
G01 X7.4834 Y4.2923
G01 X7.4845 Y4.3200
G01 X7.4845 Y4.6732
G01 X7.5139 Y4.7223
G01 X7.5391 Y4.7755
G01 X7.5589 Y4.8309
G01 X7.5732 Y4.8880
G01 X7.5818 Y4.9462
G01 X7.5845 Y4.9952
G01 X7.5846 Y5.1499
G01 X7.5818 Y5.2038
G01 X7.5749 Y5.2523
G01 X7.5710 Y5.2715
G01 X7.5589 Y5.3191
G01 X7.5426 Y5.3654
G01 X7.5351 Y5.3834
G01 X7.5139 Y5.4277
G01 X7.4845 Y5.4768
G01 X7.4845 Y5.9700
G01 X7.4828 Y6.0043
G01 X7.4787 Y6.0334
G01 X7.4756 Y6.0477
G01 X7.4695 Y6.0715
G01 X7.4597 Y6.0992
G01 X7.4539 Y6.1127
G01 X7.4432 Y6.1348
G01 X7.4283 Y6.1601
G01 X7.4200 Y6.1722
G01 X7.4052 Y6.1917
G01 X7.3889 Y6.2100
G01 X7.3786 Y6.2206
G01 X7.3641 Y6.2338
G01 X7.3529 Y6.2432
G01 X7.3332 Y6.2578
G01 X7.3251 Y6.2633
G01 X7.3040 Y6.2759
G01 X7.2910 Y6.2826
G01 X7.2687 Y6.2929
G01 X7.2365 Y6.3045
G01 X7.2032 Y6.3128
G01 X7.1693 Y6.3178
G01 X7.1350 Y6.3195
G01 X6.8350 Y6.3195
G01 X6.8119 Y6.3186
G01 X6.7982 Y6.3175
G01 X6.7708 Y6.3135
G01 X6.7483 Y6.3085
G01 X6.7349 Y6.3048
G01 X6.7087 Y6.2959
G01 X6.6792 Y6.2829
G01 X6.6590 Y6.2718
G01 X6.6471 Y6.2647
G01 X6.6244 Y6.2489
G01 X6.5995 Y6.2283
G01 X6.5767 Y6.2055
G01 X6.5561 Y6.1806
G01 X6.5403 Y6.1579
G01 X6.5355 Y6.1500
G01 X6.5242 Y6.1299
G01 X6.5201 Y6.1216
G01 X6.5108 Y6.1005
G01 X6.5075 Y6.0919
G01 X6.5002 Y6.0701
G01 X6.4976 Y6.0612
G01 X6.4934 Y6.0432
G01 X6.4907 Y6.0297
G01 X6.4875 Y6.0068
G01 X6.4866 Y5.9977
G01 X6.4856 Y5.9746
G01 X6.4855 Y5.4768
G01 X6.4561 Y5.4277
G01 X6.4309 Y5.3745
G01 X6.4111 Y5.3191
G01 X6.3976 Y5.2657
G01 X4.7464 Y3.6145
G01 X4.1151 Y3.6144
G01 X4.0759 Y3.6123
G01 X4.0420 Y3.6075
G01 X4.0275 Y3.6048
G01 X3.9942 Y3.5965
G01 X3.9848 Y3.5937
G01 X3.9571 Y3.5838
G01 X3.9390 Y3.5763
G01 X3.9081 Y3.5614
G01 X3.8744 Y3.5414
G01 X3.8623 Y3.5331
G01 X3.8387 Y3.5155
G01 X3.8311 Y3.5093
G01 X3.8022 Y3.4828
G01 X3.7789 Y3.4576
G01 X3.7665 Y3.4424
G01 X3.7490 Y3.4188
G01 X3.7436 Y3.4106
G01 X3.7236 Y3.3769
G01 X3.7087 Y3.3460
G01 X3.7029 Y3.3325
G01 X3.6899 Y3.2955
G01 X3.6802 Y3.2575
G01 X3.6770 Y3.2398
G01 X3.4430 Y3.2398
G00 Z2.0000
G00 X3.8102 Y5.2207
G01 F80.00
G01 Z-0.1008
G01 F240.00
G01 X5.0798 Y5.2207
G01 X5.1141 Y5.2227
G01 X5.1480 Y5.2275
G01 X5.1625 Y5.2302
G01 X5.2005 Y5.2399
G01 X5.2375 Y5.2529
G01 X5.2510 Y5.2587
G01 X5.2819 Y5.2736
G01 X5.3156 Y5.2936
G01 X5.3277 Y5.3019
G01 X5.3552 Y5.3225
G01 X5.3878 Y5.3522
G01 X5.4175 Y5.3848
G01 X5.4437 Y5.4203
G01 X5.4664 Y5.4581
G01 X5.4853 Y5.4980
G01 X5.5001 Y5.5395
G01 X5.5098 Y5.5775
G01 X5.5125 Y5.5920
G01 X5.5173 Y5.6259
G01 X5.5194 Y5.6651
G01 X5.5195 Y6.2964
G01 X5.5434 Y6.3203
G01 X7.2801 Y6.3203
G01 X7.6553 Y5.9451
G01 X7.6553 Y3.9533
G01 X7.3165 Y3.6145
G01 X7.2102 Y3.6143
G01 X7.1759 Y3.6123
G01 X7.1371 Y3.6068
G01 X7.1275 Y3.6048
G01 X7.0990 Y3.5978
G01 X7.0802 Y3.5921
G01 X7.0480 Y3.5803
G01 X7.0081 Y3.5614
G01 X6.9703 Y3.5387
G01 X6.9426 Y3.5185
G01 X6.9311 Y3.5093
G01 X6.9092 Y3.4896
G01 X6.8954 Y3.4758
G01 X6.8725 Y3.4502
G01 X6.8463 Y3.4147
G01 X6.8236 Y3.3769
G01 X6.8047 Y3.3370
G01 X6.7899 Y3.2955
G01 X6.7791 Y3.2527
G01 X6.7727 Y3.2091
G01 X6.7706 Y3.1699
G01 X6.7705 Y1.9150
G01 X6.7727 Y1.8709
G01 X6.7775 Y1.8370
G01 X6.7802 Y1.8225
G01 X6.7899 Y1.7845
G01 X6.8012 Y1.7521
G01 X6.8087 Y1.7340
G01 X6.8213 Y1.7075
G01 X6.8259 Y1.6988
G01 X6.8463 Y1.6653
G01 X6.8695 Y1.6337
G01 X6.8757 Y1.6261
G01 X6.8954 Y1.6042
G01 X6.9092 Y1.5904
G01 X6.9348 Y1.5675
G01 X6.9703 Y1.5413
G01 X7.0081 Y1.5186
G01 X7.0390 Y1.5037
G01 X7.0571 Y1.4962
G01 X7.0848 Y1.4863
G01 X7.0942 Y1.4835
G01 X7.1323 Y1.4741
G01 X7.1711 Y1.4682
G01 X7.1857 Y1.4669
G01 X7.2200 Y1.4655
G01 X8.0200 Y1.4655
G01 X8.0592 Y1.4672
G01 X8.0738 Y1.4689
G01 X8.1029 Y1.4732
G01 X8.1125 Y1.4752
G01 X8.1410 Y1.4822
G01 X8.1552 Y1.4863
G01 X8.1920 Y1.4997
G01 X8.2231 Y1.5142
G01 X8.2362 Y1.5209
G01 X8.2697 Y1.5413
G01 X8.3052 Y1.5675
G01 X8.3378 Y1.5972
G01 X8.3611 Y1.6224
G01 X8.3705 Y1.6337
G01 X8.3937 Y1.6653
G01 X8.4116 Y1.6946
G01 X8.4187 Y1.7075
G01 X8.4353 Y1.7430
G01 X8.4501 Y1.7845
G01 X8.4587 Y1.8178
G01 X8.4625 Y1.8370
G01 X8.4668 Y1.8661
G01 X8.4678 Y1.8758
G01 X8.4695 Y1.9150
G01 X8.4695 Y3.0713
G01 X8.6825 Y3.2844
G01 X8.7186 Y3.3245
G01 X8.7536 Y3.3718
G01 X8.7791 Y3.4137
G01 X8.7883 Y3.4310
G01 X8.8091 Y3.4754
G01 X8.8258 Y3.5216
G01 X8.8315 Y3.5403
G01 X8.8432 Y3.5879
G01 X8.8518 Y3.6462
G01 X8.8547 Y3.7049
G01 X8.8547 Y6.1935
G01 X8.8522 Y6.2474
G01 X8.8506 Y6.2620
G01 X8.8449 Y6.3009
G01 X8.8410 Y6.3201
G01 X8.8289 Y6.3676
G01 X8.8091 Y6.4230
G01 X8.7883 Y6.4675
G01 X8.7791 Y6.4847
G01 X8.7536 Y6.5267
G01 X8.7186 Y6.5740
G01 X8.6791 Y6.6176
G01 X7.9526 Y7.3441
G01 X7.9164 Y7.3772
G01 X7.9051 Y7.3866
G01 X7.8617 Y7.4186
G01 X7.8155 Y7.4465
G01 X7.8025 Y7.4533
G01 X7.7670 Y7.4701
G01 X7.7489 Y7.4776
G01 X7.7026 Y7.4939
G01 X7.6455 Y7.5082
G01 X7.5873 Y7.5168
G01 X7.5383 Y7.5195
G01 X5.2950 Y7.5197
G01 X5.2460 Y7.5175
G01 X5.2314 Y7.5163
G01 X5.1780 Y7.5082
G01 X5.1304 Y7.4965
G01 X5.1116 Y7.4908
G01 X5.0655 Y7.4741
G01 X5.0211 Y7.4533
G01 X5.0038 Y7.4441
G01 X4.9618 Y7.4186
G01 X4.9223 Y7.3896
G01 X4.9071 Y7.3772
G01 X4.8710 Y7.3441
G01 X4.4464 Y6.9195
G01 X3.8200 Y6.9195
G01 X3.7808 Y6.9178
G01 X3.7662 Y6.9161
G01 X3.7323 Y6.9109
G01 X3.6895 Y6.9001
G01 X3.6480 Y6.8853
G01 X3.6081 Y6.8664
G01 X3.5703 Y6.8437
G01 X3.5387 Y6.8205
G01 X3.5274 Y6.8111
G01 X3.5057 Y6.7913
G01 X3.4954 Y6.7808
G01 X3.4725 Y6.7552
G01 X3.4519 Y6.7277
G01 X3.4436 Y6.7156
G01 X3.4236 Y6.6819
G01 X3.4047 Y6.6420
G01 X3.3899 Y6.6005
G01 X3.3791 Y6.5577
G01 X3.3727 Y6.5141
G01 X3.3705 Y6.4700
G01 X3.3705 Y5.6700
G01 X3.3719 Y5.6357
G01 X3.3732 Y5.6211
G01 X3.3791 Y5.5823
G01 X3.3899 Y5.5395
G01 X3.4047 Y5.4980
G01 X3.4213 Y5.4625
G01 X3.4284 Y5.4496
G01 X3.4436 Y5.4244
G01 X3.4490 Y5.4162
G01 X3.4665 Y5.3926
G01 X3.4757 Y5.3811
G01 X3.4954 Y5.3592
G01 X3.5092 Y5.3454
G01 X3.5348 Y5.3225
G01 X3.5703 Y5.2963
G01 X3.6081 Y5.2736
G01 X3.6480 Y5.2547
G01 X3.6895 Y5.2399
G01 X3.7323 Y5.2291
G01 X3.7759 Y5.2227
G01 X3.8102 Y5.2207
G00 Z2.0000
G00 X3.8102 Y8.3207
G01 F80.00
G01 Z-0.1008
G01 F240.00
G01 X4.4464 Y8.3205
G01 X4.8710 Y7.8959
G01 X4.9071 Y7.8628
G01 X4.9184 Y7.8534
G01 X4.9618 Y7.8214
G01 X5.0038 Y7.7959
G01 X5.0211 Y7.7867
G01 X5.0655 Y7.7659
G01 X5.1116 Y7.7492
G01 X5.1304 Y7.7435
G01 X5.1780 Y7.7318
G01 X5.2265 Y7.7244
G01 X5.2460 Y7.7225
G01 X5.2950 Y7.7203
G01 X7.5334 Y7.7204
G01 X7.5873 Y7.7232
G01 X7.6455 Y7.7318
G01 X7.7026 Y7.7461
G01 X7.7489 Y7.7624
G01 X7.7625 Y7.7679
G01 X7.8112 Y7.7911
G01 X7.8617 Y7.8214
G01 X7.9090 Y7.8564
G01 X7.9491 Y7.8925
G01 X8.6791 Y8.6224
G01 X8.7186 Y8.6660
G01 X8.7480 Y8.7053
G01 X8.7563 Y8.7174
G01 X8.7815 Y8.7595
G01 X8.7883 Y8.7725
G01 X8.8091 Y8.8170
G01 X8.8258 Y8.8631
G01 X8.8302 Y8.8771
G01 X8.8422 Y8.9247
G01 X8.8449 Y8.9391
G01 X8.8513 Y8.9828
G01 X8.8525 Y8.9975
G01 X8.8547 Y9.0465
G01 X8.8547 Y9.4953
G01 X9.0255 Y9.4953
G01 X9.0255 Y9.2700
G01 X9.0268 Y9.2406
G01 X9.0277 Y9.2309
G01 X9.0305 Y9.2115
G01 X9.0344 Y9.1923
G01 X9.0405 Y9.1685
G01 X9.0521 Y9.1363
G01 X9.0668 Y9.1052
G01 X9.0844 Y9.0758
G01 X9.1048 Y9.0483
G01 X9.1279 Y9.0229
G01 X9.1533 Y8.9998
G01 X9.1808 Y8.9794
G01 X9.2102 Y8.9618
G01 X9.2323 Y8.9511
G01 X9.2458 Y8.9453
G01 X9.2735 Y8.9355
G01 X9.3068 Y8.9272
G01 X9.3407 Y8.9222
G01 X9.3652 Y8.9207
G01 X9.6799 Y8.9206
G01 X9.7093 Y8.9222
G01 X9.7384 Y8.9263
G01 X9.7527 Y8.9294
G01 X9.7765 Y8.9355
G01 X9.8087 Y8.9471
G01 X9.8398 Y8.9618
G01 X9.8692 Y8.9794
G01 X9.8967 Y8.9998
G01 X9.9221 Y9.0229
G01 X9.9452 Y9.0483
G01 X9.9656 Y9.0758
G01 X9.9784 Y9.0967
G01 X9.9855 Y9.1096
G01 X9.9979 Y9.1363
G01 X10.0064 Y9.1592
G01 X10.0108 Y9.1732
G01 X10.0178 Y9.2018
G01 X10.0216 Y9.2260
G01 X10.0232 Y9.2406
G01 X10.0245 Y9.2700
G01 X10.0245 Y9.7632
G01 X10.0539 Y9.8123
G01 X10.0751 Y9.8566
G01 X10.0826 Y9.8746
G01 X10.0989 Y9.9209
G01 X10.1110 Y9.9685
G01 X10.1149 Y9.9877
G01 X10.1218 Y10.0362
G01 X10.1246 Y10.0901
G01 X10.1245 Y10.1048
G01 X10.1225 Y10.1440
G01 X10.1206 Y10.1635
G01 X10.1132 Y10.2120
G01 X10.0989 Y10.2691
G01 X10.0826 Y10.3154
G01 X10.0751 Y10.3334
G01 X10.0539 Y10.3777
G01 X10.0245 Y10.4268
G01 X10.0243 Y10.9298
G01 X10.0232 Y10.9494
G01 X10.0223 Y10.9591
G01 X10.0187 Y10.9834
G01 X10.0168 Y10.9930
G01 X10.0108 Y11.0168
G01 X10.0080 Y11.0261
G01 X9.9997 Y11.0492
G01 X9.9960 Y11.0582
G01 X9.9855 Y11.0804
G01 X9.9784 Y11.0933
G01 X9.9656 Y11.1142
G01 X9.9512 Y11.1340
G01 X9.9420 Y11.1455
G01 X9.9256 Y11.1636
G01 X9.9186 Y11.1706
G01 X9.9005 Y11.1870
G01 X9.8890 Y11.1962
G01 X9.8692 Y11.2106
G01 X9.8398 Y11.2282
G01 X9.8087 Y11.2429
G01 X9.7858 Y11.2514
G01 X9.7718 Y11.2558
G01 X9.7432 Y11.2628
G01 X9.7190 Y11.2666
G01 X9.7044 Y11.2682
G01 X9.6799 Y11.2694
G01 X9.3750 Y11.2695
G01 X9.3407 Y11.2678
G01 X9.3165 Y11.2645
G01 X9.3020 Y11.2618
G01 X9.2735 Y11.2545
G01 X9.2413 Y11.2429
G01 X9.2190 Y11.2326
G01 X9.2060 Y11.2259
G01 X9.1849 Y11.2133
G01 X9.1768 Y11.2078
G01 X9.1571 Y11.1932
G01 X9.1459 Y11.1838
G01 X9.1314 Y11.1706
G01 X9.1211 Y11.1600
G01 X9.1048 Y11.1417
G01 X9.0900 Y11.1222
G01 X9.0817 Y11.1101
G01 X9.0691 Y11.0890
G01 X9.0645 Y11.0804
G01 X9.0540 Y11.0582
G01 X9.0503 Y11.0492
G01 X9.0420 Y11.0261
G01 X9.0392 Y11.0168
G01 X9.0344 Y10.9977
G01 X9.0305 Y10.9785
G01 X9.0277 Y10.9591
G01 X9.0268 Y10.9494
G01 X9.0255 Y10.9200
G01 X9.0255 Y10.6947
G01 X8.7545 Y10.6947
G01 X8.7545 Y10.9200
G01 X8.7535 Y10.9445
G01 X8.7523 Y10.9591
G01 X8.7478 Y10.9882
G01 X8.7421 Y11.0120
G01 X8.7380 Y11.0261
G01 X8.7279 Y11.0537
G01 X8.7132 Y11.0848
G01 X8.6956 Y11.1142
G01 X8.6752 Y11.1417
G01 X8.6521 Y11.1671
G01 X8.6267 Y11.1902
G01 X8.5992 Y11.2106
G01 X8.5740 Y11.2259
G01 X8.5610 Y11.2326
G01 X8.5387 Y11.2429
G01 X8.5065 Y11.2545
G01 X8.4732 Y11.2628
G01 X8.4393 Y11.2678
G01 X8.4050 Y11.2695
G01 X8.0952 Y11.2693
G01 X8.0707 Y11.2678
G01 X8.0368 Y11.2628
G01 X8.0035 Y11.2545
G01 X7.9804 Y11.2464
G01 X7.9623 Y11.2389
G01 X7.9446 Y11.2305
G01 X7.9360 Y11.2259
G01 X7.9108 Y11.2106
G01 X7.8871 Y11.1932
G01 X7.8795 Y11.1870
G01 X7.8650 Y11.1739
G01 X7.8511 Y11.1600
G01 X7.8380 Y11.1455
G01 X7.8318 Y11.1379
G01 X7.8172 Y11.1182
G01 X7.8117 Y11.1101
G01 X7.7968 Y11.0848
G01 X7.7821 Y11.0537
G01 X7.7705 Y11.0215
G01 X7.7632 Y10.9930
G01 X7.7613 Y10.9834
G01 X7.7577 Y10.9591
G01 X7.7568 Y10.9494
G01 X7.7556 Y10.9249
G01 X7.7555 Y10.4268
G01 X7.7261 Y10.3777
G01 X7.7049 Y10.3334
G01 X7.6974 Y10.3154
G01 X7.6811 Y10.2691
G01 X7.6690 Y10.2215
G01 X7.6659 Y10.2072
G01 X7.6587 Y10.1586
G01 X7.6575 Y10.1440
G01 X7.6553 Y10.0950
G01 X7.6553 Y9.2949
G01 X7.2801 Y8.9197
G01 X5.5434 Y8.9197
G01 X5.5195 Y8.9436
G01 X5.5194 Y9.5749
G01 X5.5181 Y9.6043
G01 X5.5168 Y9.6189
G01 X5.5118 Y9.6529
G01 X5.5087 Y9.6672
G01 X5.5001 Y9.7005
G01 X5.4888 Y9.7329
G01 X5.4834 Y9.7465
G01 X5.4708 Y9.7731
G01 X5.4641 Y9.7862
G01 X5.4464 Y9.8156
G01 X5.4410 Y9.8238
G01 X5.4235 Y9.8474
G01 X5.4143 Y9.8589
G01 X5.3913 Y9.8843
G01 X5.3808 Y9.8946
G01 X5.3589 Y9.9143
G01 X5.3474 Y9.9235
G01 X5.3197 Y9.9437
G01 X5.2862 Y9.9641
G01 X5.2731 Y9.9708
G01 X5.2420 Y9.9853
G01 X5.2052 Y9.9987
G01 X5.1910 Y10.0028
G01 X5.1577 Y10.0109
G01 X5.1238 Y10.0161
G01 X5.1092 Y10.0178
G01 X5.0700 Y10.0195
G01 X3.8151 Y10.0194
G01 X3.7759 Y10.0173
G01 X3.7323 Y10.0109
G01 X3.6895 Y10.0001
G01 X3.6571 Y9.9888
G01 X3.6435 Y9.9834
G01 X3.6125 Y9.9687
G01 X3.5996 Y9.9616
G01 X3.5703 Y9.9437
G01 X3.5426 Y9.9235
G01 X3.5311 Y9.9143
G01 X3.5022 Y9.8878
G01 X3.4725 Y9.8552
G01 X3.4463 Y9.8197
G01 X3.4259 Y9.7862
G01 X3.4192 Y9.7731
G01 X3.4047 Y9.7420
G01 X3.3929 Y9.7098
G01 X3.3885 Y9.6958
G01 X3.3802 Y9.6625
G01 X3.3775 Y9.6480
G01 X3.3727 Y9.6141
G01 X3.3705 Y9.5700
G01 X3.3705 Y8.7700
G01 X3.3727 Y8.7259
G01 X3.3791 Y8.6823
G01 X3.3899 Y8.6395
G01 X3.4047 Y8.5980
G01 X3.4192 Y8.5669
G01 X3.4259 Y8.5538
G01 X3.4410 Y8.5285
G01 X3.4519 Y8.5123
G01 X3.4695 Y8.4887
G01 X3.4757 Y8.4811
G01 X3.4987 Y8.4557
G01 X3.5092 Y8.4454
G01 X3.5348 Y8.4225
G01 X3.5703 Y8.3963
G01 X3.6081 Y8.3736
G01 X3.6480 Y8.3547
G01 X3.6895 Y8.3399
G01 X3.7323 Y8.3291
G01 X3.7759 Y8.3227
G01 X3.8102 Y8.3207
G00 Z2.0000
G00 X6.3855 Y11.1533
G01 F80.00
G01 Z-0.1008
G01 F240.00
G01 X6.3853 Y10.0950
G01 X6.3875 Y10.0460
G01 X6.3894 Y10.0265
G01 X6.3968 Y9.9780
G01 X6.4085 Y9.9304
G01 X6.4142 Y9.9116
G01 X6.4309 Y9.8655
G01 X6.4517 Y9.8210
G01 X6.4609 Y9.8038
G01 X6.4855 Y9.7632
G01 X6.4856 Y9.2651
G01 X6.4872 Y9.2357
G01 X6.4913 Y9.2066
G01 X6.4932 Y9.1970
G01 X6.4979 Y9.1780
G01 X6.5036 Y9.1592
G01 X6.5121 Y9.1363
G01 X6.5224 Y9.1140
G01 X6.5291 Y9.1010
G01 X6.5417 Y9.0799
G01 X6.5500 Y9.0678
G01 X6.5648 Y9.0483
G01 X6.5879 Y9.0229
G01 X6.6133 Y8.9998
G01 X6.6328 Y8.9850
G01 X6.6449 Y8.9767
G01 X6.6660 Y8.9641
G01 X6.6790 Y8.9574
G01 X6.7013 Y8.9471
G01 X6.7242 Y8.9386
G01 X6.7430 Y8.9329
G01 X6.7620 Y8.9282
G01 X6.7716 Y8.9263
G01 X6.8007 Y8.9222
G01 X6.8301 Y8.9206
G01 X7.1350 Y8.9205
G01 X7.1644 Y8.9218
G01 X7.1790 Y8.9234
G01 X7.2032 Y8.9272
G01 X7.2365 Y8.9355
G01 X7.2687 Y8.9471
G01 X7.2910 Y8.9574
G01 X7.3083 Y8.9666
G01 X7.3251 Y8.9767
G01 X7.3332 Y8.9822
G01 X7.3567 Y8.9998
G01 X7.3786 Y9.0194
G01 X7.3856 Y9.0264
G01 X7.3988 Y9.0409
G01 X7.4112 Y9.0560
G01 X7.4256 Y9.0758
G01 X7.4432 Y9.1052
G01 X7.4579 Y9.1363
G01 X7.4664 Y9.1592
G01 X7.4708 Y9.1732
G01 X7.4778 Y9.2018
G01 X7.4828 Y9.2357
G01 X7.4845 Y9.2700
G01 X7.4845 Y9.7632
G01 X7.5091 Y9.8038
G01 X7.5183 Y9.8210
G01 X7.5391 Y9.8655
G01 X7.5558 Y9.9116
G01 X7.5615 Y9.9304
G01 X7.5732 Y9.9780
G01 X7.5806 Y10.0265
G01 X7.5822 Y10.0411
G01 X7.5847 Y10.0950
G01 X7.5847 Y10.8951
G01 X7.9599 Y11.2703
G01 X11.6273 Y11.2703
G01 X11.6282 Y11.2611
G01 X11.6325 Y11.2320
G01 X11.6363 Y11.2128
G01 X11.6449 Y11.1795
G01 X11.6597 Y11.1380
G01 X11.6786 Y11.0981
G01 X11.6960 Y11.0685
G01 X11.7069 Y11.0523
G01 X11.7245 Y11.0287
G01 X11.7339 Y11.0174
G01 X11.7572 Y10.9922
G01 X11.7898 Y10.9625
G01 X11.8253 Y10.9363
G01 X11.8546 Y10.9184
G01 X11.8719 Y10.9092
G01 X11.8985 Y10.8966
G01 X11.9075 Y10.8929
G01 X11.9445 Y10.8799
G01 X11.9825 Y10.8702
G01 X11.9970 Y10.8675
G01 X12.0309 Y10.8627
G01 X12.0750 Y10.8605
G01 X13.3250 Y10.8605
G01 X13.3691 Y10.8627
G01 X13.4030 Y10.8675
G01 X13.4222 Y10.8713
G01 X13.4508 Y10.8785
G01 X13.4602 Y10.8813
G01 X13.4970 Y10.8947
G01 X13.5281 Y10.9092
G01 X13.5412 Y10.9159
G01 X13.5747 Y10.9363
G01 X13.6063 Y10.9595
G01 X13.6176 Y10.9689
G01 X13.6428 Y10.9922
G01 X13.6693 Y11.0211
G01 X13.6755 Y11.0287
G01 X13.6931 Y11.0523
G01 X13.7014 Y11.0644
G01 X13.7214 Y11.0981
G01 X13.7363 Y11.1290
G01 X13.7438 Y11.1471
G01 X13.7537 Y11.1748
G01 X13.7565 Y11.1842
G01 X13.7659 Y11.2223
G01 X13.7711 Y11.2562
G01 X13.7728 Y11.2708
G01 X13.7744 Y11.3051
G01 X13.7745 Y12.1100
G01 X13.7728 Y12.1492
G01 X13.7711 Y12.1638
G01 X13.7659 Y12.1977
G01 X13.7551 Y12.2405
G01 X13.7403 Y12.2820
G01 X13.7237 Y12.3175
G01 X13.7191 Y12.3262
G01 X13.7040 Y12.3515
G01 X13.6931 Y12.3677
G01 X13.6755 Y12.3913
G01 X13.6693 Y12.3989
G01 X13.6496 Y12.4208
G01 X13.6393 Y12.4313
G01 X13.6102 Y12.4575
G01 X13.5747 Y12.4837
G01 X13.5369 Y12.5064
G01 X13.5015 Y12.5234
G01 X13.4879 Y12.5288
G01 X13.4602 Y12.5387
G01 X13.4508 Y12.5415
G01 X13.4222 Y12.5487
G01 X13.4079 Y12.5518
G01 X13.3788 Y12.5561
G01 X13.3593 Y12.5581
G01 X13.3250 Y12.5595
G01 X12.0750 Y12.5595
G01 X12.0407 Y12.5581
G01 X12.0212 Y12.5561
G01 X11.9921 Y12.5518
G01 X11.9825 Y12.5498
G01 X11.9445 Y12.5401
G01 X11.9075 Y12.5271
G01 X11.8940 Y12.5213
G01 X11.8675 Y12.5087
G01 X11.8588 Y12.5041
G01 X11.8294 Y12.4864
G01 X11.8212 Y12.4810
G01 X11.8059 Y12.4697
G01 X7.7115 Y12.4697
G01 X7.6625 Y12.4675
G01 X7.6430 Y12.4656
G01 X7.5945 Y12.4582
G01 X7.5468 Y12.4465
G01 X7.5281 Y12.4408
G01 X7.4820 Y12.4241
G01 X7.4375 Y12.4033
G01 X7.4203 Y12.3941
G01 X7.3783 Y12.3686
G01 X7.3310 Y12.3336
G01 X7.2874 Y12.2941
G01 X6.5575 Y11.5641
G01 X6.5214 Y11.5240
G01 X6.4864 Y11.4767
G01 X6.4561 Y11.4262
G01 X6.4309 Y11.3730
G01 X6.4111 Y11.3176
G01 X6.3968 Y11.2605
G01 X6.3882 Y11.2023
G01 X6.3855 Y11.1533
G00 Z2.0000
G00 X5.5000 Y15.0195
G01 F80.00
G01 Z-0.1008
G01 F240.00
G01 X5.4804 Y15.0185
G01 X5.4611 Y15.0157
G01 X5.4468 Y15.0123
G01 X5.4282 Y15.0061
G01 X5.4103 Y14.9982
G01 X5.3933 Y14.9885
G01 X5.3773 Y14.9773
G01 X5.3624 Y14.9645
G01 X5.3489 Y14.9503
G01 X5.3369 Y14.9349
G01 X5.3264 Y14.9183
G01 X5.3176 Y14.9008
G01 X5.3106 Y14.8826
G01 X5.3053 Y14.8637
G01 X5.3020 Y14.8444
G01 X5.3006 Y14.8249
G01 X5.3005 Y13.1200
G01 X5.3010 Y13.1053
G01 X5.3020 Y13.0956
G01 X5.3043 Y13.0811
G01 X5.3077 Y13.0668
G01 X5.3122 Y13.0528
G01 X5.3176 Y13.0392
G01 X5.3241 Y13.0260
G01 X5.3315 Y13.0133
G01 X5.3398 Y13.0012
G01 X5.3489 Y12.9897
G01 X5.3589 Y12.9789
G01 X5.3697 Y12.9689
G01 X5.3812 Y12.9598
G01 X5.3892 Y12.9541
G01 X5.4017 Y12.9464
G01 X5.4147 Y12.9397
G01 X5.4282 Y12.9339
G01 X5.4468 Y12.9277
G01 X5.4659 Y12.9234
G01 X5.4853 Y12.9210
G01 X5.5000 Y12.9205
G01 X7.2000 Y12.9205
G01 X7.2147 Y12.9210
G01 X7.2293 Y12.9227
G01 X7.2437 Y12.9253
G01 X7.2579 Y12.9291
G01 X7.2718 Y12.9339
G01 X7.2897 Y12.9418
G01 X7.3026 Y12.9489
G01 X7.3149 Y12.9569
G01 X7.3303 Y12.9689
G01 X7.3411 Y12.9789
G01 X7.3478 Y12.9860
G01 X7.3602 Y13.0012
G01 X7.3659 Y13.0092
G01 X7.3736 Y13.0217
G01 X7.3782 Y13.0303
G01 X7.3843 Y13.0437
G01 X7.3909 Y13.0621
G01 X7.3935 Y13.0715
G01 X7.3966 Y13.0859
G01 X7.3990 Y13.1053
G01 X7.3995 Y13.1200
G01 X7.3995 Y14.0299
G01 X8.2550 Y14.8854
G01 X10.3752 Y12.7652
G01 X10.4261 Y12.7191
G01 X10.4732 Y12.6838
G01 X10.4895 Y12.6730
G01 X10.5401 Y12.6429
G01 X10.6022 Y12.6135
G01 X10.6576 Y12.5935
G01 X10.6763 Y12.5878
G01 X10.7335 Y12.5737
G01 X10.7917 Y12.5648
G01 X10.8112 Y12.5629
G01 X10.8651 Y12.5603
G01 X13.5115 Y12.5603
G01 X14.5402 Y11.5315
G01 X14.5402 Y10.8734
G01 X14.5265 Y10.8597
G01 X14.4705 Y10.7978
G01 X14.4614 Y10.7864
G01 X14.4416 Y10.7597
G01 X11.2945 Y10.7597
G01 X11.2945 Y10.9200
G01 X11.2932 Y10.9494
G01 X11.2923 Y10.9591
G01 X11.2895 Y10.9785
G01 X11.2868 Y10.9930
G01 X11.2795 Y11.0215
G01 X11.2697 Y11.0492
G01 X11.2660 Y11.0582
G01 X11.2555 Y11.0804
G01 X11.2509 Y11.0890
G01 X11.2408 Y11.1059
G01 X11.2300 Y11.1222
G01 X11.2182 Y11.1379
G01 X11.2088 Y11.1491
G01 X11.1956 Y11.1636
G01 X11.1886 Y11.1706
G01 X11.1705 Y11.1870
G01 X11.1629 Y11.1932
G01 X11.1392 Y11.2106
G01 X11.1098 Y11.2282
G01 X11.0787 Y11.2429
G01 X11.0465 Y11.2545
G01 X11.0132 Y11.2628
G01 X10.9793 Y11.2678
G01 X10.9450 Y11.2695
G01 X10.6401 Y11.2694
G01 X10.6107 Y11.2678
G01 X10.5865 Y11.2645
G01 X10.5720 Y11.2618
G01 X10.5435 Y11.2545
G01 X10.5158 Y11.2447
G01 X10.5023 Y11.2389
G01 X10.4802 Y11.2282
G01 X10.4549 Y11.2133
G01 X10.4468 Y11.2078
G01 X10.4271 Y11.1932
G01 X10.4195 Y11.1870
G01 X10.4014 Y11.1706
G01 X10.3944 Y11.1636
G01 X10.3780 Y11.1455
G01 X10.3718 Y11.1379
G01 X10.3572 Y11.1182
G01 X10.3517 Y11.1101
G01 X10.3391 Y11.0890
G01 X10.3345 Y11.0804
G01 X10.3240 Y11.0582
G01 X10.3203 Y11.0492
G01 X10.3120 Y11.0261
G01 X10.3092 Y11.0168
G01 X10.3032 Y10.9930
G01 X10.3013 Y10.9834
G01 X10.2977 Y10.9591
G01 X10.2968 Y10.9494
G01 X10.2956 Y10.9249
G01 X10.2955 Y10.4268
G01 X10.2661 Y10.3777
G01 X10.2449 Y10.3334
G01 X10.2374 Y10.3154
G01 X10.2211 Y10.2691
G01 X10.2068 Y10.2120
G01 X10.1994 Y10.1635
G01 X10.1975 Y10.1440
G01 X10.1955 Y10.1048
G01 X10.1954 Y10.0901
G01 X10.1982 Y10.0362
G01 X10.2051 Y9.9877
G01 X10.2090 Y9.9685
G01 X10.2211 Y9.9209
G01 X10.2374 Y9.8746
G01 X10.2449 Y9.8566
G01 X10.2661 Y9.8123
G01 X10.2955 Y9.7632
G01 X10.2956 Y9.2651
G01 X10.2968 Y9.2406
G01 X10.2984 Y9.2260
G01 X10.3022 Y9.2018
G01 X10.3079 Y9.1780
G01 X10.3120 Y9.1639
G01 X10.3203 Y9.1408
G01 X10.3240 Y9.1318
G01 X10.3345 Y9.1096
G01 X10.3416 Y9.0967
G01 X10.3544 Y9.0758
G01 X10.3748 Y9.0483
G01 X10.3979 Y9.0229
G01 X10.4233 Y8.9998
G01 X10.4508 Y8.9794
G01 X10.4717 Y8.9666
G01 X10.4846 Y8.9595
G01 X10.5068 Y8.9490
G01 X10.5158 Y8.9453
G01 X10.5389 Y8.9370
G01 X10.5482 Y8.9342
G01 X10.5720 Y8.9282
G01 X10.5816 Y8.9263
G01 X10.6059 Y8.9227
G01 X10.6156 Y8.9218
G01 X10.6450 Y8.9205
G01 X10.9450 Y8.9205
G01 X10.9695 Y8.9215
G01 X10.9890 Y8.9234
G01 X11.0084 Y8.9263
G01 X11.0180 Y8.9282
G01 X11.0465 Y8.9355
G01 X11.0742 Y8.9453
G01 X11.0877 Y8.9511
G01 X11.1054 Y8.9595
G01 X11.1140 Y8.9641
G01 X11.1392 Y8.9794
G01 X11.1590 Y8.9938
G01 X11.1705 Y9.0030
G01 X11.1850 Y9.0161
G01 X11.1989 Y9.0300
G01 X11.2120 Y9.0445
G01 X11.2182 Y9.0521
G01 X11.2328 Y9.0718
G01 X11.2383 Y9.0799
G01 X11.2532 Y9.1052
G01 X11.2679 Y9.1363
G01 X11.2795 Y9.1685
G01 X11.2856 Y9.1923
G01 X11.2887 Y9.2066
G01 X11.2923 Y9.2309
G01 X11.2932 Y9.2406
G01 X11.2944 Y9.2651
G01 X11.2945 Y9.5603
G01 X14.4416 Y9.5603
G01 X14.4614 Y9.5336
G01 X14.4705 Y9.5222
G01 X14.5298 Y9.4568
G01 X14.5403 Y9.4465
G01 X14.6022 Y9.3905
G01 X14.6136 Y9.3814
G01 X14.6847 Y9.3289
G01 X14.7603 Y9.2833
G01 X14.7732 Y9.2763
G01 X14.8486 Y9.2406
G01 X14.8666 Y9.2331
G01 X14.9499 Y9.2035
G01 X15.0355 Y9.1819
G01 X15.0547 Y9.1780
G01 X15.1420 Y9.1653
G01 X15.2302 Y9.1607
G01 X15.2449 Y9.1606
G01 X15.3380 Y9.1653
G01 X15.4253 Y9.1780
G01 X15.4445 Y9.1819
G01 X15.5301 Y9.2035
G01 X15.6134 Y9.2331
G01 X15.6314 Y9.2406
G01 X15.7112 Y9.2785
G01 X15.7870 Y9.3237
G01 X15.8033 Y9.3346
G01 X15.8741 Y9.3874
G01 X15.9397 Y9.4465
G01 X15.9535 Y9.4603
G01 X16.0126 Y9.5259
G01 X16.0654 Y9.5967
G01 X16.0763 Y9.6130
G01 X16.1167 Y9.6803
G01 X16.1237 Y9.6932
G01 X16.1634 Y9.7775
G01 X16.1934 Y9.8606
G01 X16.1991 Y9.8793
G01 X16.2203 Y9.9650
G01 X16.2347 Y10.0620
G01 X16.2393 Y10.1502
G01 X16.2393 Y10.1698
G01 X16.2347 Y10.2580
G01 X16.2203 Y10.3550
G01 X16.1965 Y10.4501
G01 X16.1634 Y10.5425
G01 X16.1259 Y10.6224
G01 X16.1167 Y10.6397
G01 X16.0763 Y10.7070
G01 X16.0654 Y10.7233
G01 X16.0126 Y10.7941
G01 X15.9535 Y10.8597
G01 X15.9398 Y10.8734
G01 X15.9395 Y11.8312
G01 X15.9364 Y11.8899
G01 X15.9263 Y11.9579
G01 X15.9096 Y12.0245
G01 X15.8900 Y12.0800
G01 X15.8846 Y12.0936
G01 X15.8571 Y12.1512
G01 X15.8218 Y12.2101
G01 X15.7809 Y12.2653
G01 X15.7382 Y12.3127
G01 X14.2961 Y13.7548
G01 X14.2527 Y13.7945
G01 X14.2375 Y13.8069
G01 X14.1941 Y13.8391
G01 X14.1818 Y13.8471
G01 X14.1312 Y13.8771
G01 X14.0691 Y13.9065
G01 X14.0045 Y13.9296
G01 X13.9474 Y13.9442
G01 X13.9282 Y13.9480
G01 X13.8748 Y13.9559
G01 X13.8602 Y13.9571
G01 X13.8014 Y13.9598
G01 X11.1598 Y13.9598
G01 X9.2446 Y15.8750
G01 X11.5035 Y18.1339
G01 X11.5250 Y18.1355
G01 X11.6094 Y18.1482
G01 X11.6969 Y18.1701
G01 X11.7819 Y18.2005
G01 X11.8547 Y18.2347
G01 X11.8720 Y18.2439
G01 X11.9326 Y18.2802
G01 X11.9489 Y18.2911
G01 X12.0133 Y18.3392
G01 X12.0731 Y18.3931
G01 X12.0869 Y18.4069
G01 X12.1408 Y18.4667
G01 X12.1945 Y18.5392
G01 X12.2409 Y18.6166
G01 X12.2795 Y18.6981
G01 X12.3099 Y18.7831
G01 X12.3297 Y18.8611
G01 X12.3335 Y18.8803
G01 X12.3451 Y18.9599
G01 X12.3493 Y19.0402
G01 X12.3493 Y19.0598
G01 X12.3458 Y19.1304
G01 X12.3439 Y19.1498
G01 X12.3318 Y19.2294
G01 X12.3125 Y19.3075
G01 X12.3068 Y19.3262
G01 X12.2795 Y19.4019
G01 X12.2409 Y19.4834
G01 X12.1945 Y19.5608
G01 X12.1408 Y19.6333
G01 X12.0802 Y19.7002
G01 X12.0133 Y19.7608
G01 X11.9408 Y19.8145
G01 X11.8720 Y19.8561
G01 X11.8591 Y19.8632
G01 X11.7819 Y19.8995
G01 X11.7062 Y19.9268
G01 X11.6875 Y19.9325
G01 X11.6094 Y19.9518
G01 X11.5201 Y19.9651
G01 X11.4398 Y19.9693
G01 X11.4202 Y19.9693
G01 X11.3399 Y19.9651
G01 X11.2603 Y19.9535
G01 X11.2411 Y19.9497
G01 X11.1631 Y19.9299
G01 X11.0781 Y19.8995
G01 X10.9966 Y19.8609
G01 X10.9274 Y19.8198
G01 X10.9111 Y19.8089
G01 X10.8544 Y19.7668
G01 X10.8393 Y19.7544
G01 X10.7798 Y19.7002
G01 X10.7192 Y19.6333
G01 X10.6655 Y19.5608
G01 X10.6239 Y19.4920
G01 X10.6168 Y19.4791
G01 X10.5805 Y19.4019
G01 X10.5532 Y19.3262
G01 X10.5487 Y19.3122
G01 X10.5303 Y19.2389
G01 X10.5273 Y19.2246
G01 X10.5155 Y19.1450
G01 X10.5139 Y19.1235
G01 X6.4099 Y15.0195
G01 X5.5000 Y15.0195
G00 Z2.0000
G00 X11.3565 Y15.5939
G01 F80.00
G01 Z-0.1008
G01 F240.00
G01 X11.6587 Y15.2918
G01 X11.7061 Y15.2491
G01 X11.7572 Y15.2110
G01 X11.7695 Y15.2029
G01 X11.8201 Y15.1729
G01 X11.8733 Y15.1475
G01 X11.8914 Y15.1400
G01 X11.9469 Y15.1204
G01 X12.0039 Y15.1058
G01 X12.0231 Y15.1020
G01 X12.0717 Y15.0948
G01 X12.0863 Y15.0932
G01 X12.1500 Y15.0903
G01 X17.5603 Y15.0903
G01 X17.5603 Y11.1343
G01 X17.4899 Y11.1165
G01 X17.3975 Y11.0834
G01 X17.3088 Y11.0415
G01 X17.2247 Y10.9911
G01 X17.1459 Y10.9326
G01 X17.0732 Y10.8668
G01 X17.0074 Y10.7941
G01 X16.9489 Y10.7153
G01 X16.8985 Y10.6312
G01 X16.8566 Y10.5425
G01 X16.8235 Y10.4501
G01 X16.7997 Y10.3550
G01 X16.7853 Y10.2580
G01 X16.7805 Y10.1600
G01 X16.7853 Y10.0620
G01 X16.7988 Y9.9698
G01 X16.8019 Y9.9555
G01 X16.8209 Y9.8793
G01 X16.8266 Y9.8606
G01 X16.8566 Y9.7775
G01 X16.8985 Y9.6888
G01 X16.9437 Y9.6130
G01 X16.9546 Y9.5967
G01 X17.0074 Y9.5259
G01 X17.0665 Y9.4603
G01 X17.0803 Y9.4465
G01 X17.1385 Y9.3938
G01 X17.1536 Y9.3814
G01 X17.2247 Y9.3289
G01 X17.3003 Y9.2833
G01 X17.3176 Y9.2741
G01 X17.3975 Y9.2366
G01 X17.4806 Y9.2066
G01 X17.4993 Y9.2009
G01 X17.5850 Y9.1797
G01 X17.6723 Y9.1665
G01 X17.6918 Y9.1646
G01 X17.7800 Y9.1605
G01 X17.8780 Y9.1653
G01 X17.9653 Y9.1780
G01 X17.9845 Y9.1819
G01 X18.0701 Y9.2035
G01 X18.1625 Y9.2366
G01 X18.2424 Y9.2741
G01 X18.2597 Y9.2833
G01 X18.3353 Y9.3289
G01 X18.4064 Y9.3814
G01 X18.4215 Y9.3938
G01 X18.4868 Y9.4532
G01 X18.5495 Y9.5222
G01 X18.5586 Y9.5336
G01 X18.6111 Y9.6047
G01 X18.6567 Y9.6803
G01 X18.6659 Y9.6976
G01 X18.6994 Y9.7686
G01 X18.7052 Y9.7821
G01 X18.7365 Y9.8699
G01 X18.7603 Y9.9650
G01 X18.7747 Y10.0620
G01 X18.7793 Y10.1502
G01 X18.7795 Y10.1600
G01 X18.7792 Y10.1717
G01 X18.7978 Y10.1923
G01 X18.8040 Y10.1999
G01 X18.8362 Y10.2432
G01 X18.8445 Y10.2553
G01 X18.8771 Y10.3101
G01 X18.9046 Y10.3677
G01 X18.9100 Y10.3814
G01 X18.9296 Y10.4369
G01 X18.9442 Y10.4939
G01 X18.9480 Y10.5131
G01 X18.9552 Y10.5617
G01 X18.9568 Y10.5763
G01 X18.9598 Y10.6400
G01 X18.9597 Y15.5449
G01 X18.9564 Y15.6086
G01 X18.9480 Y15.6669
G01 X18.9442 Y15.6861
G01 X18.9296 Y15.7431
G01 X18.9100 Y15.7986
G01 X18.9025 Y15.8167
G01 X18.8771 Y15.8699
G01 X18.8445 Y15.9247
G01 X18.8362 Y15.9368
G01 X18.8009 Y15.9839
G01 X18.7582 Y16.0313
G01 X18.5048 Y16.2848
G01 X18.4577 Y16.3278
G01 X18.4462 Y16.3369
G01 X18.3988 Y16.3718
G01 X18.3484 Y16.4023
G01 X18.3311 Y16.4115
G01 X18.2823 Y16.4346
G01 X18.2686 Y16.4400
G01 X18.2131 Y16.4596
G01 X18.1465 Y16.4763
G01 X18.0786 Y16.4864
G01 X18.0149 Y16.4897
G01 X12.4398 Y16.4898
G01 X12.3461 Y16.5835
G01 X12.3445 Y16.6050
G01 X12.3318 Y16.6894
G01 X12.3099 Y16.7769
G01 X12.2795 Y16.8619
G01 X12.2453 Y16.9347
G01 X12.2386 Y16.9477
G01 X12.1945 Y17.0208
G01 X12.1408 Y17.0933
G01 X12.0802 Y17.1602
G01 X12.0171 Y17.2176
G01 X12.0056 Y17.2268
G01 X11.9408 Y17.2745
G01 X11.8634 Y17.3209
G01 X11.7819 Y17.3595
G01 X11.6969 Y17.3899
G01 X11.6094 Y17.4118
G01 X11.5201 Y17.4251
G01 X11.4300 Y17.4295
G01 X11.3399 Y17.4251
G01 X11.2506 Y17.4118
G01 X11.1631 Y17.3899
G01 X11.0781 Y17.3595
G01 X11.0053 Y17.3253
G01 X10.9880 Y17.3161
G01 X10.9274 Y17.2798
G01 X10.9111 Y17.2689
G01 X10.8467 Y17.2208
G01 X10.7869 Y17.1669
G01 X10.7731 Y17.1531
G01 X10.7192 Y17.0933
G01 X10.6655 Y17.0208
G01 X10.6191 Y16.9434
G01 X10.5805 Y16.8619
G01 X10.5501 Y16.7769
G01 X10.5282 Y16.6894
G01 X10.5149 Y16.6001
G01 X10.5105 Y16.5100
G01 X10.5149 Y16.4199
G01 X10.5282 Y16.3306
G01 X10.5501 Y16.2431
G01 X10.5805 Y16.1581
G01 X10.6191 Y16.0766
G01 X10.6655 Y15.9992
G01 X10.7192 Y15.9267
G01 X10.7731 Y15.8669
G01 X10.7869 Y15.8531
G01 X10.8467 Y15.7992
G01 X10.9192 Y15.7455
G01 X10.9966 Y15.6991
G01 X11.0692 Y15.6645
G01 X11.0873 Y15.6570
G01 X11.1631 Y15.6301
G01 X11.2411 Y15.6103
G01 X11.2603 Y15.6065
G01 X11.3302 Y15.5961
G01 X11.3448 Y15.5945
G01 X11.3565 Y15.5939
G00 Z2.0000
G00 X11.4268 Y22.5095
G01 F80.00
G01 Z-0.1008
G01 F240.00
G01 X11.3399 Y22.5051
G01 X11.2506 Y22.4918
G01 X11.1631 Y22.4699
G01 X11.0873 Y22.4430
G01 X11.0692 Y22.4355
G01 X11.0053 Y22.4053
G01 X10.9880 Y22.3961
G01 X10.9192 Y22.3545
G01 X10.8467 Y22.3008
G01 X10.7798 Y22.2402
G01 X10.7192 Y22.1733
G01 X10.6655 Y22.1008
G01 X10.6239 Y22.0320
G01 X10.6147 Y22.0147
G01 X10.5845 Y21.9508
G01 X10.5770 Y21.9327
G01 X10.5501 Y21.8569
G01 X10.5303 Y21.7789
G01 X10.5265 Y21.7597
G01 X10.5149 Y21.6801
G01 X10.5105 Y21.5900
G01 X10.5149 Y21.4999
G01 X10.5282 Y21.4106
G01 X10.5501 Y21.3231
G01 X10.5805 Y21.2381
G01 X10.6191 Y21.1566
G01 X10.6602 Y21.0874
G01 X10.6711 Y21.0711
G01 X10.7192 Y21.0067
G01 X10.7731 Y20.9469
G01 X10.7869 Y20.9331
G01 X10.8393 Y20.8856
G01 X10.8544 Y20.8732
G01 X10.9192 Y20.8255
G01 X10.9966 Y20.7791
G01 X11.0781 Y20.7405
G01 X11.1584 Y20.7116
G01 X11.1725 Y20.7075
G01 X11.2506 Y20.6882
G01 X11.3302 Y20.6761
G01 X11.3496 Y20.6742
G01 X11.4202 Y20.6707
G01 X11.4398 Y20.6707
G01 X11.5201 Y20.6749
G01 X11.6094 Y20.6882
G01 X11.6969 Y20.7101
G01 X11.7819 Y20.7405
G01 X11.8634 Y20.7791
G01 X11.9408 Y20.8255
G01 X12.0133 Y20.8792
G01 X12.0731 Y20.9331
G01 X12.0869 Y20.9469
G01 X12.1408 Y21.0067
G01 X12.1889 Y21.0711
G01 X12.1998 Y21.0874
G01 X12.2361 Y21.1480
G01 X12.2409 Y21.1566
G01 X12.2477 Y21.1702
G01 X13.0104 Y21.1702
G01 X13.0237 Y21.1557
G01 X13.0307 Y21.1487
G01 X13.0524 Y21.1289
G01 X13.0637 Y21.1195
G01 X13.0953 Y21.0963
G01 X13.1246 Y21.0784
G01 X13.1375 Y21.0713
G01 X13.1730 Y21.0547
G01 X13.2145 Y21.0399
G01 X13.2573 Y21.0291
G01 X13.2912 Y21.0239
G01 X13.3058 Y21.0222
G01 X13.3450 Y21.0205
G01 X14.5950 Y21.0205
G01 X14.6293 Y21.0219
G01 X14.6488 Y21.0239
G01 X14.6779 Y21.0282
G01 X14.6875 Y21.0302
G01 X14.7255 Y21.0399
G01 X14.7625 Y21.0529
G01 X14.7715 Y21.0566
G01 X14.7981 Y21.0692
G01 X14.8154 Y21.0784
G01 X14.8447 Y21.0963
G01 X14.8763 Y21.1195
G01 X14.8839 Y21.1257
G01 X14.9058 Y21.1454
G01 X14.9196 Y21.1592
G01 X14.9425 Y21.1848
G01 X14.9687 Y21.2203
G01 X14.9891 Y21.2538
G01 X14.9958 Y21.2669
G01 X15.0103 Y21.2980
G01 X15.0237 Y21.3348
G01 X15.0265 Y21.3442
G01 X15.0337 Y21.3728
G01 X15.0375 Y21.3920
G01 X15.0423 Y21.4259
G01 X15.0445 Y21.4700
G01 X15.0445 Y22.2700
G01 X15.0423 Y22.3141
G01 X15.0375 Y22.3480
G01 X15.0348 Y22.3625
G01 X15.0251 Y22.4005
G01 X15.0138 Y22.4329
G01 X15.0084 Y22.4465
G01 X14.9914 Y22.4819
G01 X14.9714 Y22.5156
G01 X14.9631 Y22.5277
G01 X14.9425 Y22.5552
G01 X14.9196 Y22.5808
G01 X14.9093 Y22.5913
G01 X14.8802 Y22.6175
G01 X14.8527 Y22.6381
G01 X14.8406 Y22.6464
G01 X14.8112 Y22.6641
G01 X14.7981 Y22.6708
G01 X14.7670 Y22.6853
G01 X14.7302 Y22.6987
G01 X14.7208 Y22.7015
G01 X14.6922 Y22.7087
G01 X14.6730 Y22.7125
G01 X14.6391 Y22.7173
G01 X14.5999 Y22.7194
G01 X13.3450 Y22.7195
G01 X13.3107 Y22.7181
G01 X13.2961 Y22.7168
G01 X13.2621 Y22.7118
G01 X13.2478 Y22.7087
G01 X13.2192 Y22.7015
G01 X13.2052 Y22.6971
G01 X13.1730 Y22.6853
G01 X13.1375 Y22.6687
G01 X13.1246 Y22.6616
G01 X13.0953 Y22.6437
G01 X13.0637 Y22.6205
G01 X13.0524 Y22.6111
G01 X13.0307 Y22.5913
G01 X13.0237 Y22.5843
G01 X13.0104 Y22.5698
G01 X11.7002 Y22.5695
G01 X11.6414 Y22.5664
G01 X11.5831 Y22.5580
G01 X11.5687 Y22.5553
G01 X11.5163 Y22.5422
G01 X11.5022 Y22.5381
G01 X11.4468 Y22.5183
G01 X11.4268 Y22.5095
G00 Z2.0000
G00 X18.7638 Y19.0652
G01 F80.00
G01 Z-0.1008
G01 F240.00
G01 X19.9989 Y17.8302
G01 X20.0497 Y17.7841
G01 X20.1049 Y17.7432
G01 X20.1638 Y17.7079
G01 X20.2169 Y17.6825
G01 X20.2350 Y17.6750
G01 X20.2905 Y17.6554
G01 X20.3476 Y17.6408
G01 X20.3668 Y17.6370
G01 X20.4251 Y17.6286
G01 X20.4936 Y17.6252
G01 X21.3002 Y17.6252
G01 X22.1602 Y16.7651
G01 X22.1602 Y15.0195
G01 X22.0100 Y15.0195
G01 X21.9904 Y15.0185
G01 X21.9711 Y15.0157
G01 X21.9521 Y15.0109
G01 X21.9337 Y15.0043
G01 X21.9160 Y14.9959
G01 X21.9033 Y14.9885
G01 X21.8951 Y14.9831
G01 X21.8834 Y14.9742
G01 X21.8760 Y14.9678
G01 X21.8689 Y14.9611
G01 X21.8589 Y14.9503
G01 X21.8527 Y14.9427
G01 X21.8441 Y14.9308
G01 X21.8389 Y14.9226
G01 X21.8318 Y14.9097
G01 X21.8257 Y14.8963
G01 X21.8206 Y14.8826
G01 X21.8165 Y14.8685
G01 X21.8143 Y14.8589
G01 X21.8120 Y14.8444
G01 X21.8110 Y14.8347
G01 X21.8105 Y14.8200
G01 X21.8106 Y13.1151
G01 X21.8120 Y13.0956
G01 X21.8153 Y13.0763
G01 X21.8206 Y13.0574
G01 X21.8276 Y13.0392
G01 X21.8364 Y13.0217
G01 X21.8469 Y13.0051
G01 X21.8589 Y12.9897
G01 X21.8724 Y12.9755
G01 X21.8834 Y12.9658
G01 X21.8951 Y12.9569
G01 X21.9074 Y12.9489
G01 X21.9203 Y12.9418
G01 X21.9337 Y12.9357
G01 X21.9474 Y12.9306
G01 X21.9615 Y12.9265
G01 X21.9759 Y12.9234
G01 X21.9904 Y12.9215
G01 X22.0051 Y12.9206
G01 X22.2143 Y12.9205
G01 X22.2429 Y12.8601
G01 X22.2782 Y12.8012
G01 X22.3191 Y12.7461
G01 X22.3618 Y12.6987
G01 X23.3387 Y11.7218
G01 X23.3861 Y11.6791
G01 X23.4332 Y11.6438
G01 X23.4495 Y11.6329
G01 X23.5001 Y11.6029
G01 X23.5533 Y11.5775
G01 X23.5714 Y11.5700
G01 X23.6269 Y11.5504
G01 X23.6887 Y11.5347
G01 X23.7031 Y11.5320
G01 X23.7614 Y11.5236
G01 X23.8300 Y11.5202
G01 X28.1062 Y11.5202
G01 X29.7802 Y9.8462
G01 X29.7802 Y8.7430
G01 X29.7673 Y8.7409
G01 X29.7578 Y8.7387
G01 X29.7292 Y8.7315
G01 X29.7198 Y8.7287
G01 X29.6830 Y8.7153
G01 X29.6431 Y8.6964
G01 X29.6053 Y8.6737
G01 X29.5776 Y8.6535
G01 X29.5624 Y8.6411
G01 X29.5407 Y8.6213
G01 X29.5337 Y8.6143
G01 X29.5075 Y8.5852
G01 X29.4813 Y8.5497
G01 X29.4586 Y8.5119
G01 X29.4437 Y8.4810
G01 X29.4379 Y8.4675
G01 X29.4279 Y8.4398
G01 X29.4222 Y8.4210
G01 X29.4141 Y8.3877
G01 X29.4077 Y8.3441
G01 X29.4055 Y8.3000
G01 X29.4055 Y7.5000
G01 X29.4072 Y7.4608
G01 X29.4082 Y7.4511
G01 X29.4125 Y7.4220
G01 X29.4163 Y7.4028
G01 X29.4249 Y7.3695
G01 X29.4397 Y7.3280
G01 X29.4563 Y7.2925
G01 X29.4634 Y7.2796
G01 X29.4813 Y7.2503
G01 X29.5045 Y7.2187
G01 X29.5139 Y7.2074
G01 X29.5372 Y7.1822
G01 X29.5698 Y7.1525
G01 X29.6053 Y7.1263
G01 X29.6388 Y7.1059
G01 X29.6519 Y7.0992
G01 X29.6830 Y7.0847
G01 X29.7152 Y7.0729
G01 X29.7292 Y7.0685
G01 X29.7578 Y7.0613
G01 X29.7721 Y7.0582
G01 X29.8061 Y7.0532
G01 X29.8207 Y7.0519
G01 X29.8501 Y7.0506
G01 X31.1050 Y7.0505
G01 X31.1442 Y7.0522
G01 X31.1588 Y7.0539
G01 X31.1927 Y7.0591
G01 X31.2308 Y7.0685
G01 X31.2448 Y7.0729
G01 X31.2725 Y7.0829
G01 X31.2815 Y7.0866
G01 X31.3081 Y7.0992
G01 X31.3212 Y7.1059
G01 X31.3465 Y7.1210
G01 X31.3627 Y7.1319
G01 X31.3863 Y7.1495
G01 X31.3939 Y7.1557
G01 X31.4158 Y7.1754
G01 X31.4263 Y7.1857
G01 X31.4525 Y7.2148
G01 X31.4787 Y7.2503
G01 X31.5014 Y7.2881
G01 X31.5163 Y7.3190
G01 X31.5221 Y7.3325
G01 X31.5321 Y7.3602
G01 X31.5378 Y7.3790
G01 X31.5459 Y7.4123
G01 X31.5523 Y7.4559
G01 X31.5545 Y7.5000
G01 X31.5545 Y8.3000
G01 X31.5523 Y8.3441
G01 X31.5459 Y8.3877
G01 X31.5378 Y8.4210
G01 X31.5337 Y8.4352
G01 X31.5238 Y8.4629
G01 X31.5163 Y8.4810
G01 X31.5014 Y8.5119
G01 X31.4787 Y8.5497
G01 X31.4525 Y8.5852
G01 X31.4263 Y8.6143
G01 X31.4193 Y8.6213
G01 X31.3976 Y8.6411
G01 X31.3824 Y8.6535
G01 X31.3547 Y8.6737
G01 X31.3169 Y8.6964
G01 X31.2770 Y8.7153
G01 X31.2402 Y8.7287
G01 X31.2308 Y8.7315
G01 X31.2022 Y8.7387
G01 X31.1927 Y8.7409
G01 X31.1798 Y8.7430
G01 X31.1797 Y10.1409
G01 X31.1764 Y10.2046
G01 X31.1663 Y10.2725
G01 X31.1496 Y10.3391
G01 X31.1300 Y10.3946
G01 X31.1225 Y10.4127
G01 X31.0971 Y10.4659
G01 X31.0618 Y10.5248
G01 X31.0209 Y10.5799
G01 X30.9782 Y10.6273
G01 X28.8908 Y12.7148
G01 X28.8473 Y12.7545
G01 X28.8361 Y12.7640
G01 X28.7848 Y12.8018
G01 X28.7259 Y12.8371
G01 X28.6638 Y12.8665
G01 X28.6084 Y12.8865
G01 X28.5944 Y12.8910
G01 X28.5421 Y12.9042
G01 X28.5229 Y12.9080
G01 X28.4646 Y12.9164
G01 X28.4009 Y12.9197
G01 X24.1198 Y12.9197
G01 X23.9095 Y13.1301
G01 X23.9095 Y14.8200
G01 X23.9085 Y14.8396
G01 X23.9073 Y14.8493
G01 X23.9047 Y14.8637
G01 X23.9023 Y14.8732
G01 X23.8978 Y14.8872
G01 X23.8943 Y14.8963
G01 X23.8882 Y14.9097
G01 X23.8811 Y14.9226
G01 X23.8731 Y14.9349
G01 X23.8642 Y14.9466
G01 X23.8578 Y14.9540
G01 X23.8476 Y14.9645
G01 X23.8403 Y14.9711
G01 X23.8288 Y14.9802
G01 X23.8208 Y14.9859
G01 X23.8083 Y14.9936
G01 X23.7997 Y14.9982
G01 X23.7863 Y15.0043
G01 X23.7679 Y15.0109
G01 X23.7489 Y15.0157
G01 X23.7296 Y15.0185
G01 X23.7100 Y15.0195
G01 X23.5598 Y15.0195
G01 X23.5597 Y17.0599
G01 X23.5571 Y17.1138
G01 X23.5552 Y17.1333
G01 X23.5463 Y17.1915
G01 X23.5322 Y17.2487
G01 X23.5265 Y17.2674
G01 X23.5065 Y17.3228
G01 X23.4771 Y17.3848
G01 X23.4418 Y17.4438
G01 X23.4069 Y17.4912
G01 X23.3945 Y17.5063
G01 X23.3548 Y17.5498
G01 X22.0848 Y18.8198
G01 X22.0339 Y18.8659
G01 X21.9868 Y18.9012
G01 X21.9705 Y18.9120
G01 X21.9241 Y18.9398
G01 X21.9111 Y18.9465
G01 X21.8578 Y18.9715
G01 X21.8024 Y18.9915
G01 X21.7837 Y18.9972
G01 X21.7265 Y19.0113
G01 X21.6586 Y19.0214
G01 X21.5900 Y19.0247
G01 X20.7835 Y19.0247
G01 X20.0605 Y19.7477
G01 X20.0720 Y19.7799
G01 X20.0748 Y19.7892
G01 X20.0979 Y19.8816
G01 X20.1006 Y19.8960
G01 X20.1132 Y19.9805
G01 X20.1151 Y19.9999
G01 X20.1195 Y20.0950
G01 X20.1195 Y20.5450
G01 X20.1151 Y20.6401
G01 X20.1132 Y20.6595
G01 X20.0989 Y20.7536
G01 X20.0734 Y20.8555
G01 X20.0381 Y20.9543
G01 X19.9976 Y21.0404
G01 X19.9884 Y21.0577
G01 X19.9393 Y21.1392
G01 X19.8828 Y21.2158
G01 X19.8703 Y21.2309
G01 X19.8063 Y21.3013
G01 X19.7359 Y21.3653
G01 X19.7208 Y21.3778
G01 X19.6522 Y21.4286
G01 X19.6359 Y21.4395
G01 X19.5542 Y21.4882
G01 X19.4593 Y21.5331
G01 X19.3605 Y21.5684
G01 X19.2586 Y21.5939
G01 X19.1548 Y21.6093
G01 X19.0500 Y21.6145
G01 X18.9452 Y21.6093
G01 X18.8414 Y21.5939
G01 X18.7395 Y21.5684
G01 X18.6407 Y21.5331
G01 X18.5458 Y21.4882
G01 X18.4558 Y21.4343
G01 X18.3715 Y21.3717
G01 X18.2937 Y21.3013
G01 X18.2233 Y21.2235
G01 X18.1607 Y21.1392
G01 X18.1068 Y21.0492
G01 X18.0619 Y20.9543
G01 X18.0266 Y20.8555
G01 X18.0011 Y20.7536
G01 X17.9857 Y20.6498
G01 X17.9806 Y20.5499
G01 X17.9805 Y20.0950
G01 X17.9849 Y19.9999
G01 X17.9868 Y19.9805
G01 X17.9994 Y19.8960
G01 X18.0032 Y19.8768
G01 X18.0266 Y19.7845
G01 X18.0584 Y19.6949
G01 X18.0638 Y19.6812
G01 X18.1024 Y19.5996
G01 X18.1116 Y19.5823
G01 X18.1607 Y19.5008
G01 X18.2172 Y19.4242
G01 X18.2297 Y19.4091
G01 X18.2937 Y19.3387
G01 X18.3678 Y19.2714
G01 X18.3792 Y19.2622
G01 X18.4558 Y19.2057
G01 X18.5458 Y19.1518
G01 X18.6318 Y19.1109
G01 X18.6453 Y19.1051
G01 X18.7349 Y19.0730
G01 X18.7442 Y19.0702
G01 X18.7638 Y19.0652
G00 Z2.0000
G00 X27.2402 Y19.2872
G01 F80.00
G01 Z-0.1008
G01 F240.00
G01 X27.2402 Y17.3580
G01 X27.1696 Y17.2942
G01 X27.1558 Y17.2804
G01 X27.0901 Y17.2075
G01 X27.0314 Y17.1289
G01 X27.0206 Y17.1126
G01 X26.9703 Y17.0283
G01 X26.9242 Y16.9308
G01 X26.8878 Y16.8292
G01 X26.8638 Y16.7341
G01 X26.8600 Y16.7149
G01 X26.8458 Y16.6178
G01 X26.8407 Y16.5198
G01 X26.8407 Y16.5002
G01 X26.8458 Y16.4022
G01 X26.8600 Y16.3051
G01 X26.8638 Y16.2859
G01 X26.8878 Y16.1908
G01 X26.9242 Y16.0892
G01 X26.9703 Y15.9917
G01 X27.0206 Y15.9074
G01 X27.0314 Y15.8911
G01 X27.0901 Y15.8125
G01 X27.1558 Y15.7396
G01 X27.1696 Y15.7258
G01 X27.2425 Y15.6601
G01 X27.3292 Y15.5958
G01 X27.4217 Y15.5403
G01 X27.5103 Y15.4982
G01 X27.5284 Y15.4907
G01 X27.6115 Y15.4609
G01 X27.6255 Y15.4565
G01 X27.7255 Y15.4316
G01 X27.8322 Y15.4158
G01 X27.9400 Y15.4105
G01 X28.0380 Y15.4151
G01 X28.0575 Y15.4170
G01 X28.1449 Y15.4300
G01 X28.1641 Y15.4338
G01 X28.2592 Y15.4578
G01 X28.3516 Y15.4907
G01 X28.3697 Y15.4982
G01 X28.4583 Y15.5403
G01 X28.5508 Y15.5958
G01 X28.6375 Y15.6601
G01 X28.7175 Y15.7325
G01 X28.7899 Y15.8125
G01 X28.8542 Y15.8992
G01 X28.9097 Y15.9917
G01 X28.9518 Y16.0803
G01 X28.9593 Y16.0984
G01 X28.9891 Y16.1815
G01 X28.9948 Y16.2003
G01 X29.0184 Y16.2955
G01 X29.0342 Y16.4022
G01 X29.0393 Y16.5002
G01 X29.0393 Y16.5198
G01 X29.0342 Y16.6178
G01 X29.0184 Y16.7245
G01 X28.9922 Y16.8292
G01 X28.9593 Y16.9216
G01 X28.9518 Y16.9397
G01 X28.9141 Y17.0196
G01 X28.9048 Y17.0368
G01 X28.8542 Y17.1208
G01 X28.7899 Y17.2075
G01 X28.7175 Y17.2875
G01 X28.6398 Y17.3580
G01 X28.6398 Y17.6262
G01 X28.6650 Y17.6252
G01 X32.6549 Y17.6253
G01 X32.7186 Y17.6286
G01 X32.7769 Y17.6370
G01 X32.7961 Y17.6408
G01 X32.8531 Y17.6554
G01 X32.9086 Y17.6750
G01 X32.9267 Y17.6825
G01 X32.9755 Y17.7056
G01 X32.9884 Y17.7127
G01 X33.0305 Y17.7379
G01 X33.0468 Y17.7488
G01 X33.0939 Y17.7841
G01 X33.1413 Y17.8268
G01 X33.9251 Y18.6105
G01 X34.4149 Y18.6106
G01 X34.4541 Y18.6127
G01 X34.4929 Y18.6182
G01 X34.5025 Y18.6202
G01 X34.5310 Y18.6272
G01 X34.5498 Y18.6329
G01 X34.5775 Y18.6429
G01 X34.5910 Y18.6487
G01 X34.6219 Y18.6636
G01 X34.6515 Y18.6810
G01 X34.6638 Y18.6890
G01 X34.6952 Y18.7125
G01 X34.7278 Y18.7422
G01 X34.7575 Y18.7748
G01 X34.7810 Y18.8062
G01 X34.7890 Y18.8185
G01 X34.8064 Y18.8481
G01 X34.8213 Y18.8790
G01 X34.8271 Y18.8925
G01 X34.8387 Y18.9248
G01 X34.8415 Y18.9342
G01 X34.8487 Y18.9628
G01 X34.8525 Y18.9820
G01 X34.8573 Y19.0159
G01 X34.8594 Y19.0551
G01 X34.8595 Y20.3100
G01 X34.8578 Y20.3492
G01 X34.8561 Y20.3638
G01 X34.8509 Y20.3977
G01 X34.8401 Y20.4405
G01 X34.8253 Y20.4820
G01 X34.8087 Y20.5175
G01 X34.8016 Y20.5304
G01 X34.7837 Y20.5597
G01 X34.7605 Y20.5913
G01 X34.7511 Y20.6026
G01 X34.7313 Y20.6243
G01 X34.7243 Y20.6313
G01 X34.7098 Y20.6446
G01 X34.7098 Y21.2654
G01 X34.7278 Y21.2822
G01 X34.7511 Y21.3074
G01 X34.7605 Y21.3187
G01 X34.7781 Y21.3423
G01 X34.7864 Y21.3544
G01 X34.8041 Y21.3838
G01 X34.8087 Y21.3925
G01 X34.8213 Y21.4190
G01 X34.8271 Y21.4325
G01 X34.8387 Y21.4648
G01 X34.8428 Y21.4790
G01 X34.8498 Y21.5075
G01 X34.8525 Y21.5220
G01 X34.8568 Y21.5511
G01 X34.8578 Y21.5608
G01 X34.8593 Y21.5902
G01 X34.8594 Y22.8549
G01 X34.8581 Y22.8843
G01 X34.8568 Y22.8989
G01 X34.8518 Y22.9329
G01 X34.8487 Y22.9472
G01 X34.8401 Y22.9805
G01 X34.8288 Y23.0129
G01 X34.8234 Y23.0265
G01 X34.8087 Y23.0575
G01 X34.8041 Y23.0662
G01 X34.7890 Y23.0915
G01 X34.7810 Y23.1038
G01 X34.7575 Y23.1352
G01 X34.7346 Y23.1608
G01 X34.7243 Y23.1713
G01 X34.6952 Y23.1975
G01 X34.6638 Y23.2210
G01 X34.6515 Y23.2290
G01 X34.6219 Y23.2464
G01 X34.5910 Y23.2613
G01 X34.5775 Y23.2671
G01 X34.5405 Y23.2801
G01 X34.5025 Y23.2898
G01 X34.4880 Y23.2925
G01 X34.4541 Y23.2973
G01 X34.4149 Y23.2994
G01 X33.6100 Y23.2995
G01 X33.5659 Y23.2973
G01 X33.5271 Y23.2918
G01 X33.5128 Y23.2887
G01 X33.4795 Y23.2801
G01 X33.4380 Y23.2653
G01 X33.3981 Y23.2464
G01 X33.3603 Y23.2237
G01 X33.3248 Y23.1975
G01 X33.2922 Y23.1678
G01 X33.2625 Y23.1352
G01 X33.2390 Y23.1038
G01 X33.2310 Y23.0915
G01 X33.2136 Y23.0619
G01 X33.1987 Y23.0310
G01 X33.1929 Y23.0175
G01 X33.1799 Y22.9805
G01 X33.1702 Y22.9425
G01 X33.1675 Y22.9280
G01 X33.1627 Y22.8941
G01 X33.1607 Y22.8598
G01 X33.1606 Y21.5951
G01 X33.1627 Y21.5559
G01 X33.1691 Y21.5123
G01 X33.1799 Y21.4695
G01 X33.1912 Y21.4371
G01 X33.1966 Y21.4235
G01 X33.2136 Y21.3881
G01 X33.2310 Y21.3585
G01 X33.2390 Y21.3462
G01 X33.2565 Y21.3226
G01 X33.2657 Y21.3111
G01 X33.2922 Y21.2822
G01 X33.3102 Y21.2654
G01 X33.3102 Y20.6446
G01 X33.2957 Y20.6313
G01 X33.2887 Y20.6243
G01 X33.2689 Y20.6026
G01 X33.2595 Y20.5913
G01 X33.2363 Y20.5597
G01 X33.2159 Y20.5262
G01 X33.2092 Y20.5131
G01 X33.1966 Y20.4865
G01 X33.1929 Y20.4775
G01 X33.1829 Y20.4498
G01 X33.1772 Y20.4310
G01 X33.1702 Y20.4025
G01 X33.1682 Y20.3929
G01 X33.1627 Y20.3541
G01 X33.1606 Y20.3149
G01 X33.1605 Y19.8251
G01 X32.3601 Y19.0247
G01 X28.9549 Y19.0247
G01 X28.6674 Y19.3122
G01 X28.6892 Y19.3320
G01 X28.6997 Y19.3423
G01 X28.7603 Y19.4091
G01 X28.7698 Y19.4203
G01 X28.8293 Y19.5008
G01 X28.8809 Y19.5866
G01 X28.8876 Y19.5996
G01 X28.9241 Y19.6768
G01 X28.9316 Y19.6949
G01 X28.9634 Y19.7845
G01 X28.9889 Y19.8864
G01 X29.0043 Y19.9902
G01 X29.0094 Y20.0901
G01 X29.0094 Y20.5499
G01 X29.0043 Y20.6498
G01 X28.9906 Y20.7440
G01 X28.9868 Y20.7632
G01 X28.9661 Y20.8460
G01 X28.9604 Y20.8648
G01 X28.9281 Y20.9543
G01 X28.8876 Y21.0404
G01 X28.8784 Y21.0577
G01 X28.8293 Y21.1392
G01 X28.7728 Y21.2158
G01 X28.7603 Y21.2309
G01 X28.6963 Y21.3013
G01 X28.6185 Y21.3717
G01 X28.5342 Y21.4343
G01 X28.4527 Y21.4834
G01 X28.4354 Y21.4926
G01 X28.3493 Y21.5331
G01 X28.2505 Y21.5684
G01 X28.1582 Y21.5918
G01 X28.1390 Y21.5956
G01 X28.0545 Y21.6082
G01 X28.0351 Y21.6101
G01 X27.9400 Y21.6145
G01 X27.8352 Y21.6093
G01 X27.7314 Y21.5939
G01 X27.6390 Y21.5711
G01 X27.6202 Y21.5654
G01 X27.5399 Y21.5366
G01 X27.5218 Y21.5291
G01 X27.4358 Y21.4882
G01 X27.3458 Y21.4343
G01 X27.2615 Y21.3717
G01 X27.1908 Y21.3080
G01 X27.1770 Y21.2942
G01 X27.1197 Y21.2309
G01 X27.1072 Y21.2158
G01 X27.0507 Y21.1392
G01 X26.9968 Y21.0492
G01 X26.9519 Y20.9543
G01 X26.9180 Y20.8601
G01 X26.9139 Y20.8460
G01 X26.8932 Y20.7632
G01 X26.8894 Y20.7440
G01 X26.8757 Y20.6498
G01 X26.8706 Y20.5499
G01 X26.8706 Y20.0901
G01 X26.8757 Y19.9902
G01 X26.8911 Y19.8864
G01 X26.9166 Y19.7845
G01 X26.9484 Y19.6949
G01 X26.9559 Y19.6768
G01 X26.9924 Y19.5996
G01 X27.0016 Y19.5823
G01 X27.0507 Y19.5008
G01 X27.1133 Y19.4165
G01 X27.1837 Y19.3387
G01 X27.2402 Y19.2872
G00 Z2.0000
G00 X36.4102 Y18.7254
G01 F80.00
G01 Z-0.1008
G01 F240.00
G01 X36.4102 Y16.5721
G01 X36.3645 Y16.5885
G01 X36.3505 Y16.5929
G01 X36.0992 Y16.6558
G01 X36.0848 Y16.6585
G01 X35.8334 Y16.6958
G01 X35.8188 Y16.6970
G01 X35.5600 Y16.7095
G01 X35.2915 Y16.6963
G01 X35.0256 Y16.6569
G01 X34.7648 Y16.5915
G01 X34.5116 Y16.5010
G01 X34.2774 Y16.3904
G01 X34.2601 Y16.3812
G01 X34.0380 Y16.2478
G01 X33.8298 Y16.0937
G01 X33.8147 Y16.0813
G01 X33.6229 Y15.9071
G01 X33.4487 Y15.7153
G01 X33.4363 Y15.7002
G01 X33.2878 Y15.5000
G01 X33.2770 Y15.4837
G01 X33.1440 Y15.2614
G01 X33.0290 Y15.0184
G01 X32.9385 Y14.7652
G01 X32.8753 Y14.5140
G01 X32.8722 Y14.4996
G01 X32.8337 Y14.2385
G01 X32.8205 Y13.9700
G01 X32.8337 Y13.7015
G01 X32.8731 Y13.4356
G01 X32.9385 Y13.1748
G01 X33.0290 Y12.9216
G01 X33.1440 Y12.6786
G01 X33.2822 Y12.4480
G01 X33.4423 Y12.2321
G01 X33.6229 Y12.0329
G01 X33.8221 Y11.8523
G01 X34.0380 Y11.6922
G01 X34.2686 Y11.5540
G01 X34.5116 Y11.4390
G01 X34.7648 Y11.3485
G01 X35.0160 Y11.2853
G01 X35.0304 Y11.2822
G01 X35.2915 Y11.2437
G01 X35.5600 Y11.2305
G01 X35.8285 Y11.2437
G01 X36.0944 Y11.2831
G01 X36.3552 Y11.3485
G01 X36.6084 Y11.4390
G01 X36.8514 Y11.5540
G01 X37.0820 Y11.6922
G01 X37.2979 Y11.8523
G01 X37.4971 Y12.0329
G01 X37.6777 Y12.2321
G01 X37.8378 Y12.4480
G01 X37.9760 Y12.6786
G01 X38.0910 Y12.9216
G01 X38.1815 Y13.1748
G01 X38.2458 Y13.4308
G01 X38.2485 Y13.4452
G01 X38.2863 Y13.7015
G01 X38.2995 Y13.9700
G01 X38.2863 Y14.2385
G01 X38.2469 Y14.5044
G01 X38.1815 Y14.7652
G01 X38.0910 Y15.0184
G01 X37.9760 Y15.2614
G01 X37.8405 Y15.4879
G01 X37.8322 Y15.5000
G01 X37.8098 Y15.5302
G01 X37.8098 Y18.7254
G01 X37.8278 Y18.7422
G01 X37.8543 Y18.7711
G01 X37.8635 Y18.7826
G01 X37.8810 Y18.8062
G01 X37.8890 Y18.8185
G01 X37.9064 Y18.8481
G01 X37.9234 Y18.8835
G01 X37.9288 Y18.8971
G01 X37.9401 Y18.9295
G01 X37.9509 Y18.9723
G01 X37.9573 Y19.0159
G01 X37.9595 Y19.0600
G01 X37.9595 Y20.3100
G01 X37.9578 Y20.3492
G01 X37.9561 Y20.3638
G01 X37.9509 Y20.3977
G01 X37.9401 Y20.4405
G01 X37.9253 Y20.4820
G01 X37.9087 Y20.5175
G01 X37.9016 Y20.5304
G01 X37.8837 Y20.5597
G01 X37.8605 Y20.5913
G01 X37.8511 Y20.6026
G01 X37.8313 Y20.6243
G01 X37.8243 Y20.6313
G01 X37.8098 Y20.6446
G01 X37.8098 Y21.2654
G01 X37.8243 Y21.2787
G01 X37.8313 Y21.2857
G01 X37.8511 Y21.3074
G01 X37.8605 Y21.3187
G01 X37.8837 Y21.3503
G01 X37.9016 Y21.3796
G01 X37.9087 Y21.3925
G01 X37.9253 Y21.4280
G01 X37.9401 Y21.4695
G01 X37.9509 Y21.5123
G01 X37.9573 Y21.5559
G01 X37.9595 Y21.6000
G01 X37.9594 Y22.8549
G01 X37.9573 Y22.8941
G01 X37.9518 Y22.9329
G01 X37.9498 Y22.9425
G01 X37.9428 Y22.9710
G01 X37.9371 Y22.9898
G01 X37.9253 Y23.0220
G01 X37.9064 Y23.0619
G01 X37.8837 Y23.0997
G01 X37.8635 Y23.1274
G01 X37.8543 Y23.1389
G01 X37.8346 Y23.1608
G01 X37.8208 Y23.1746
G01 X37.7952 Y23.1975
G01 X37.7597 Y23.2237
G01 X37.7219 Y23.2464
G01 X37.6910 Y23.2613
G01 X37.6729 Y23.2688
G01 X37.6452 Y23.2787
G01 X37.6358 Y23.2815
G01 X37.5977 Y23.2909
G01 X37.5638 Y23.2961
G01 X37.5492 Y23.2978
G01 X37.5100 Y23.2995
G01 X36.7100 Y23.2995
G01 X36.6659 Y23.2973
G01 X36.6320 Y23.2925
G01 X36.6175 Y23.2898
G01 X36.5795 Y23.2801
G01 X36.5471 Y23.2688
G01 X36.5335 Y23.2634
G01 X36.4981 Y23.2464
G01 X36.4644 Y23.2264
G01 X36.4523 Y23.2181
G01 X36.4248 Y23.1975
G01 X36.3992 Y23.1746
G01 X36.3887 Y23.1643
G01 X36.3625 Y23.1352
G01 X36.3390 Y23.1038
G01 X36.3310 Y23.0915
G01 X36.3136 Y23.0619
G01 X36.2966 Y23.0265
G01 X36.2929 Y23.0175
G01 X36.2829 Y22.9898
G01 X36.2785 Y22.9758
G01 X36.2691 Y22.9377
G01 X36.2639 Y22.9038
G01 X36.2622 Y22.8892
G01 X36.2605 Y22.8500
G01 X36.2605 Y21.6000
G01 X36.2619 Y21.5657
G01 X36.2632 Y21.5511
G01 X36.2682 Y21.5171
G01 X36.2713 Y21.5028
G01 X36.2785 Y21.4742
G01 X36.2829 Y21.4602
G01 X36.2947 Y21.4280
G01 X36.3113 Y21.3925
G01 X36.3184 Y21.3796
G01 X36.3363 Y21.3503
G01 X36.3595 Y21.3187
G01 X36.3689 Y21.3074
G01 X36.3887 Y21.2857
G01 X36.3957 Y21.2787
G01 X36.4102 Y21.2654
G01 X36.4102 Y20.6446
G01 X36.3957 Y20.6313
G01 X36.3887 Y20.6243
G01 X36.3689 Y20.6026
G01 X36.3595 Y20.5913
G01 X36.3363 Y20.5597
G01 X36.3184 Y20.5304
G01 X36.3113 Y20.5175
G01 X36.2947 Y20.4820
G01 X36.2799 Y20.4405
G01 X36.2691 Y20.3977
G01 X36.2627 Y20.3541
G01 X36.2605 Y20.3100
G01 X36.2606 Y19.0551
G01 X36.2627 Y19.0159
G01 X36.2691 Y18.9723
G01 X36.2799 Y18.9295
G01 X36.2912 Y18.8971
G01 X36.2966 Y18.8835
G01 X36.3136 Y18.8481
G01 X36.3310 Y18.8185
G01 X36.3390 Y18.8062
G01 X36.3565 Y18.7826
G01 X36.3657 Y18.7711
G01 X36.3922 Y18.7422
G01 X36.4102 Y18.7254
G00 Z2.0000
G00 X27.2402 Y9.4466
G01 F80.00
G01 Z-0.1008
G01 F240.00
G01 X27.2402 Y8.7717
G01 X27.2023 Y8.7659
G01 X27.1595 Y8.7551
G01 X27.1180 Y8.7403
G01 X27.0869 Y8.7258
G01 X27.0696 Y8.7166
G01 X27.0444 Y8.7014
G01 X27.0323 Y8.6931
G01 X27.0048 Y8.6725
G01 X26.9722 Y8.6428
G01 X26.9425 Y8.6102
G01 X26.9219 Y8.5827
G01 X26.9136 Y8.5706
G01 X26.8984 Y8.5454
G01 X26.8892 Y8.5281
G01 X26.8747 Y8.4970
G01 X26.8599 Y8.4555
G01 X26.8491 Y8.4127
G01 X26.8439 Y8.3788
G01 X26.8422 Y8.3642
G01 X26.8405 Y8.3250
G01 X26.8405 Y7.5000
G01 X26.8422 Y7.4608
G01 X26.8439 Y7.4462
G01 X26.8491 Y7.4123
G01 X26.8585 Y7.3742
G01 X26.8629 Y7.3602
G01 X26.8747 Y7.3280
G01 X26.8913 Y7.2925
G01 X26.8984 Y7.2796
G01 X26.9136 Y7.2544
G01 X26.9190 Y7.2462
G01 X26.9365 Y7.2226
G01 X26.9457 Y7.2111
G01 X26.9687 Y7.1857
G01 X26.9792 Y7.1754
G01 X27.0048 Y7.1525
G01 X27.0323 Y7.1319
G01 X27.0444 Y7.1236
G01 X27.0738 Y7.1059
G01 X27.0869 Y7.0992
G01 X27.1180 Y7.0847
G01 X27.1595 Y7.0699
G01 X27.2023 Y7.0591
G01 X27.2411 Y7.0532
G01 X27.2557 Y7.0519
G01 X27.2900 Y7.0505
G01 X28.5998 Y7.0507
G01 X28.6341 Y7.0527
G01 X28.6729 Y7.0582
G01 X28.6825 Y7.0602
G01 X28.7110 Y7.0672
G01 X28.7252 Y7.0713
G01 X28.7620 Y7.0847
G01 X28.7931 Y7.0992
G01 X28.8104 Y7.1084
G01 X28.8356 Y7.1236
G01 X28.8438 Y7.1290
G01 X28.8752 Y7.1525
G01 X28.9078 Y7.1822
G01 X28.9375 Y7.2148
G01 X28.9581 Y7.2423
G01 X28.9664 Y7.2544
G01 X28.9864 Y7.2881
G01 X29.0013 Y7.3190
G01 X29.0071 Y7.3325
G01 X29.0171 Y7.3602
G01 X29.0215 Y7.3742
G01 X29.0298 Y7.4075
G01 X29.0325 Y7.4220
G01 X29.0373 Y7.4559
G01 X29.0395 Y7.5000
G01 X29.0395 Y8.3250
G01 X29.0382 Y8.3573
G01 X29.0371 Y8.3711
G01 X29.0326 Y8.4031
G01 X29.0309 Y8.4121
G01 X29.0247 Y8.4391
G01 X29.0196 Y8.4568
G01 X29.0108 Y8.4831
G01 X29.0056 Y8.4959
G01 X28.9944 Y8.5212
G01 X28.9903 Y8.5295
G01 X28.9768 Y8.5537
G01 X28.9697 Y8.5655
G01 X28.9487 Y8.5959
G01 X28.9282 Y8.6209
G01 X28.9190 Y8.6312
G01 X28.8928 Y8.6572
G01 X28.8609 Y8.6837
G01 X28.8266 Y8.7072
G01 X28.7904 Y8.7274
G01 X28.7524 Y8.7441
G01 X28.7130 Y8.7573
G01 X28.6726 Y8.7668
G01 X28.6398 Y8.7716
G01 X28.6398 Y9.4466
G01 X28.6535 Y9.4603
G01 X28.7126 Y9.5259
G01 X28.7711 Y9.6047
G01 X28.8215 Y9.6888
G01 X28.8634 Y9.7775
G01 X28.8965 Y9.8699
G01 X28.9203 Y9.9650
G01 X28.9347 Y10.0620
G01 X28.9395 Y10.1600
G01 X28.9347 Y10.2580
G01 X28.9203 Y10.3550
G01 X28.8965 Y10.4501
G01 X28.8634 Y10.5425
G01 X28.8215 Y10.6312
G01 X28.7711 Y10.7153
G01 X28.7126 Y10.7941
G01 X28.6468 Y10.8668
G01 X28.5741 Y10.9326
G01 X28.4953 Y10.9911
G01 X28.4112 Y11.0415
G01 X28.3225 Y11.0834
G01 X28.2301 Y11.1165
G01 X28.1350 Y11.1403
G01 X28.0380 Y11.1547
G01 X27.9400 Y11.1595
G01 X27.8420 Y11.1547
G01 X27.7450 Y11.1403
G01 X27.6499 Y11.1165
G01 X27.5575 Y11.0834
G01 X27.4688 Y11.0415
G01 X27.3847 Y10.9911
G01 X27.3059 Y10.9326
G01 X27.2332 Y10.8668
G01 X27.1674 Y10.7941
G01 X27.1089 Y10.7153
G01 X27.0585 Y10.6312
G01 X27.0166 Y10.5425
G01 X26.9835 Y10.4501
G01 X26.9597 Y10.3550
G01 X26.9453 Y10.2580
G01 X26.9405 Y10.1600
G01 X26.9453 Y10.0620
G01 X26.9597 Y9.9650
G01 X26.9835 Y9.8699
G01 X27.0166 Y9.7775
G01 X27.0585 Y9.6888
G01 X27.1089 Y9.6047
G01 X27.1674 Y9.5259
G01 X27.2265 Y9.4603
G01 X27.2402 Y9.4466
G00 Z2.0000
G00 X24.7002 Y9.4466
G01 F80.00
G01 Z-0.1008
G01 F240.00
G01 X24.7002 Y8.7717
G01 X24.6623 Y8.7659
G01 X24.6195 Y8.7551
G01 X24.5780 Y8.7403
G01 X24.5469 Y8.7258
G01 X24.5296 Y8.7166
G01 X24.5044 Y8.7014
G01 X24.4923 Y8.6931
G01 X24.4648 Y8.6725
G01 X24.4322 Y8.6428
G01 X24.4025 Y8.6102
G01 X24.3819 Y8.5827
G01 X24.3736 Y8.5706
G01 X24.3584 Y8.5454
G01 X24.3492 Y8.5281
G01 X24.3347 Y8.4970
G01 X24.3199 Y8.4555
G01 X24.3091 Y8.4127
G01 X24.3039 Y8.3788
G01 X24.3022 Y8.3642
G01 X24.3005 Y8.3250
G01 X24.3005 Y7.5000
G01 X24.3022 Y7.4608
G01 X24.3039 Y7.4462
G01 X24.3091 Y7.4123
G01 X24.3185 Y7.3742
G01 X24.3229 Y7.3602
G01 X24.3347 Y7.3280
G01 X24.3513 Y7.2925
G01 X24.3584 Y7.2796
G01 X24.3736 Y7.2544
G01 X24.3790 Y7.2462
G01 X24.3965 Y7.2226
G01 X24.4057 Y7.2111
G01 X24.4287 Y7.1857
G01 X24.4392 Y7.1754
G01 X24.4648 Y7.1525
G01 X24.4923 Y7.1319
G01 X24.5044 Y7.1236
G01 X24.5338 Y7.1059
G01 X24.5469 Y7.0992
G01 X24.5780 Y7.0847
G01 X24.6195 Y7.0699
G01 X24.6623 Y7.0591
G01 X24.7011 Y7.0532
G01 X24.7157 Y7.0519
G01 X24.7500 Y7.0505
G01 X26.0598 Y7.0507
G01 X26.0941 Y7.0527
G01 X26.1329 Y7.0582
G01 X26.1425 Y7.0602
G01 X26.1710 Y7.0672
G01 X26.1852 Y7.0713
G01 X26.2220 Y7.0847
G01 X26.2531 Y7.0992
G01 X26.2704 Y7.1084
G01 X26.2956 Y7.1236
G01 X26.3038 Y7.1290
G01 X26.3352 Y7.1525
G01 X26.3678 Y7.1822
G01 X26.3975 Y7.2148
G01 X26.4181 Y7.2423
G01 X26.4264 Y7.2544
G01 X26.4464 Y7.2881
G01 X26.4613 Y7.3190
G01 X26.4671 Y7.3325
G01 X26.4771 Y7.3602
G01 X26.4815 Y7.3742
G01 X26.4898 Y7.4075
G01 X26.4925 Y7.4220
G01 X26.4973 Y7.4559
G01 X26.4995 Y7.5000
G01 X26.4995 Y8.3250
G01 X26.4981 Y8.3593
G01 X26.4961 Y8.3788
G01 X26.4918 Y8.4079
G01 X26.4887 Y8.4222
G01 X26.4815 Y8.4508
G01 X26.4787 Y8.4602
G01 X26.4688 Y8.4879
G01 X26.4634 Y8.5015
G01 X26.4464 Y8.5369
G01 X26.4237 Y8.5747
G01 X26.3975 Y8.6102
G01 X26.3713 Y8.6393
G01 X26.3608 Y8.6496
G01 X26.3389 Y8.6693
G01 X26.3313 Y8.6755
G01 X26.3077 Y8.6931
G01 X26.2956 Y8.7014
G01 X26.2704 Y8.7166
G01 X26.2531 Y8.7258
G01 X26.2220 Y8.7403
G01 X26.1805 Y8.7551
G01 X26.1377 Y8.7659
G01 X26.0998 Y8.7717
G01 X26.0998 Y9.4466
G01 X26.1135 Y9.4603
G01 X26.1726 Y9.5259
G01 X26.2311 Y9.6047
G01 X26.2815 Y9.6888
G01 X26.3234 Y9.7775
G01 X26.3565 Y9.8699
G01 X26.3803 Y9.9650
G01 X26.3947 Y10.0620
G01 X26.3995 Y10.1600
G01 X26.3947 Y10.2580
G01 X26.3803 Y10.3550
G01 X26.3565 Y10.4501
G01 X26.3234 Y10.5425
G01 X26.2815 Y10.6312
G01 X26.2311 Y10.7153
G01 X26.1726 Y10.7941
G01 X26.1068 Y10.8668
G01 X26.0341 Y10.9326
G01 X25.9553 Y10.9911
G01 X25.8712 Y11.0415
G01 X25.7825 Y11.0834
G01 X25.6901 Y11.1165
G01 X25.5950 Y11.1403
G01 X25.4980 Y11.1547
G01 X25.4000 Y11.1595
G01 X25.3020 Y11.1547
G01 X25.2050 Y11.1403
G01 X25.1099 Y11.1165
G01 X25.0175 Y11.0834
G01 X24.9288 Y11.0415
G01 X24.8447 Y10.9911
G01 X24.7659 Y10.9326
G01 X24.6932 Y10.8668
G01 X24.6274 Y10.7941
G01 X24.5689 Y10.7153
G01 X24.5185 Y10.6312
G01 X24.4766 Y10.5425
G01 X24.4435 Y10.4501
G01 X24.4197 Y10.3550
G01 X24.4053 Y10.2580
G01 X24.4005 Y10.1600
G01 X24.4053 Y10.0620
G01 X24.4197 Y9.9650
G01 X24.4435 Y9.8699
G01 X24.4766 Y9.7775
G01 X24.5185 Y9.6888
G01 X24.5689 Y9.6047
G01 X24.6274 Y9.5259
G01 X24.6865 Y9.4603
G01 X24.7002 Y9.4466
G00 Z2.0000
G00 X21.7877 Y7.3463
G01 F80.00
G01 Z-0.1008
G01 F240.00
G01 X21.7944 Y7.3291
G01 X21.8056 Y7.3038
G01 X21.8119 Y7.2915
G01 X21.8278 Y7.2634
G01 X21.8513 Y7.2291
G01 X21.8778 Y7.1972
G01 X21.9005 Y7.1742
G01 X21.9106 Y7.1648
G01 X21.9319 Y7.1470
G01 X21.9466 Y7.1359
G01 X21.9734 Y7.1178
G01 X22.0096 Y7.0976
G01 X22.0476 Y7.0809
G01 X22.0782 Y7.0704
G01 X22.0959 Y7.0653
G01 X22.1229 Y7.0591
G01 X22.1365 Y7.0567
G01 X22.1685 Y7.0524
G01 X22.2100 Y7.0505
G01 X23.5100 Y7.0505
G01 X23.5541 Y7.0527
G01 X23.5929 Y7.0582
G01 X23.6072 Y7.0613
G01 X23.6405 Y7.0699
G01 X23.6775 Y7.0829
G01 X23.6910 Y7.0887
G01 X23.7219 Y7.1036
G01 X23.7515 Y7.1210
G01 X23.7638 Y7.1290
G01 X23.7952 Y7.1525
G01 X23.8243 Y7.1787
G01 X23.8346 Y7.1892
G01 X23.8575 Y7.2148
G01 X23.8781 Y7.2423
G01 X23.8864 Y7.2544
G01 X23.9064 Y7.2881
G01 X23.9213 Y7.3190
G01 X23.9271 Y7.3325
G01 X23.9401 Y7.3695
G01 X23.9509 Y7.4123
G01 X23.9573 Y7.4559
G01 X23.9594 Y7.4951
G01 X23.9594 Y8.3299
G01 X23.9578 Y8.3642
G01 X23.9561 Y8.3788
G01 X23.9509 Y8.4127
G01 X23.9428 Y8.4460
G01 X23.9371 Y8.4648
G01 X23.9271 Y8.4925
G01 X23.9234 Y8.5015
G01 X23.9064 Y8.5369
G01 X23.8864 Y8.5706
G01 X23.8810 Y8.5788
G01 X23.8635 Y8.6024
G01 X23.8511 Y8.6176
G01 X23.8278 Y8.6428
G01 X23.7989 Y8.6693
G01 X23.7913 Y8.6755
G01 X23.7677 Y8.6931
G01 X23.7515 Y8.7040
G01 X23.7219 Y8.7214
G01 X23.6820 Y8.7403
G01 X23.6452 Y8.7537
G01 X23.6310 Y8.7578
G01 X23.5977 Y8.7659
G01 X23.5598 Y8.7717
G01 X23.5598 Y9.4466
G01 X23.5735 Y9.4603
G01 X23.6326 Y9.5259
G01 X23.6854 Y9.5967
G01 X23.6963 Y9.6130
G01 X23.7415 Y9.6888
G01 X23.7794 Y9.7686
G01 X23.7869 Y9.7866
G01 X23.8165 Y9.8699
G01 X23.8403 Y9.9650
G01 X23.8535 Y10.0523
G01 X23.8554 Y10.0718
G01 X23.8595 Y10.1600
G01 X23.8554 Y10.2482
G01 X23.8535 Y10.2677
G01 X23.8412 Y10.3502
G01 X23.8381 Y10.3645
G01 X23.8165 Y10.4501
G01 X23.7869 Y10.5334
G01 X23.7794 Y10.5514
G01 X23.7415 Y10.6312
G01 X23.6963 Y10.7070
G01 X23.6854 Y10.7233
G01 X23.6326 Y10.7941
G01 X23.5735 Y10.8597
G01 X23.5597 Y10.8735
G01 X23.4941 Y10.9326
G01 X23.4233 Y10.9854
G01 X23.4070 Y10.9963
G01 X23.3312 Y11.0415
G01 X23.2514 Y11.0794
G01 X23.2379 Y11.0852
G01 X23.1501 Y11.1165
G01 X23.0550 Y11.1403
G01 X22.9580 Y11.1547
G01 X22.8600 Y11.1595
G01 X22.7620 Y11.1547
G01 X22.6650 Y11.1403
G01 X22.5699 Y11.1165
G01 X22.4775 Y11.0834
G01 X22.3888 Y11.0415
G01 X22.3047 Y10.9911
G01 X22.2259 Y10.9326
G01 X22.1532 Y10.8668
G01 X22.0874 Y10.7941
G01 X22.0289 Y10.7153
G01 X21.9785 Y10.6312
G01 X21.9406 Y10.5514
G01 X21.9348 Y10.5379
G01 X21.9066 Y10.4594
G01 X21.9009 Y10.4407
G01 X21.8797 Y10.3550
G01 X21.8665 Y10.2677
G01 X21.8646 Y10.2482
G01 X21.8605 Y10.1600
G01 X21.8646 Y10.0718
G01 X21.8659 Y10.0572
G01 X21.8797 Y9.9650
G01 X21.9035 Y9.8699
G01 X21.9366 Y9.7775
G01 X21.9741 Y9.6976
G01 X21.9833 Y9.6803
G01 X22.0237 Y9.6130
G01 X22.0346 Y9.5967
G01 X22.0874 Y9.5259
G01 X22.1465 Y9.4603
G01 X22.1602 Y9.4466
G01 X22.1602 Y8.7717
G01 X22.1223 Y8.7659
G01 X22.0890 Y8.7578
G01 X22.0748 Y8.7537
G01 X22.0380 Y8.7403
G01 X21.9981 Y8.7214
G01 X21.9685 Y8.7040
G01 X21.9523 Y8.6931
G01 X21.9287 Y8.6755
G01 X21.9211 Y8.6693
G01 X21.8922 Y8.6428
G01 X21.8689 Y8.6176
G01 X21.8565 Y8.6024
G01 X21.8390 Y8.5788
G01 X21.8336 Y8.5706
G01 X21.8136 Y8.5369
G01 X21.7966 Y8.5015
G01 X21.7929 Y8.4925
G01 X21.7829 Y8.4648
G01 X21.7772 Y8.4460
G01 X21.7691 Y8.4127
G01 X21.7639 Y8.3788
G01 X21.7622 Y8.3642
G01 X21.7606 Y8.3299
G01 X21.7605 Y7.5000
G01 X21.7624 Y7.4585
G01 X21.7682 Y7.4174
G01 X21.7777 Y7.3770
G01 X21.7877 Y7.3463
G00 Z2.0000
G00 X20.9548 Y5.6493
G01 F80.00
G01 Z-0.1008
G01 F240.00
G01 X19.6950 Y5.6495
G01 X19.6558 Y5.6478
G01 X19.6412 Y5.6461
G01 X19.6121 Y5.6418
G01 X19.6025 Y5.6398
G01 X19.5740 Y5.6328
G01 X19.5598 Y5.6287
G01 X19.5321 Y5.6188
G01 X19.5140 Y5.6113
G01 X19.4831 Y5.5964
G01 X19.4453 Y5.5737
G01 X19.4098 Y5.5475
G01 X19.3772 Y5.5178
G01 X19.3475 Y5.4852
G01 X19.3213 Y5.4497
G01 X19.2986 Y5.4119
G01 X19.2797 Y5.3720
G01 X19.2649 Y5.3305
G01 X19.2541 Y5.2877
G01 X19.2477 Y5.2441
G01 X19.2455 Y5.2000
G01 X19.2455 Y4.4000
G01 X19.2469 Y4.3657
G01 X19.2482 Y4.3511
G01 X19.2541 Y4.3123
G01 X19.2649 Y4.2695
G01 X19.2797 Y4.2280
G01 X19.2942 Y4.1969
G01 X19.3009 Y4.1838
G01 X19.3160 Y4.1585
G01 X19.3269 Y4.1423
G01 X19.3475 Y4.1148
G01 X19.3772 Y4.0822
G01 X19.4098 Y4.0525
G01 X19.4453 Y4.0263
G01 X19.4831 Y4.0036
G01 X19.5230 Y3.9847
G01 X19.5645 Y3.9699
G01 X19.6073 Y3.9591
G01 X19.6509 Y3.9527
G01 X19.6950 Y3.9505
G01 X20.9450 Y3.9505
G01 X20.9891 Y3.9527
G01 X21.0327 Y3.9591
G01 X21.0755 Y3.9699
G01 X21.1170 Y3.9847
G01 X21.1525 Y4.0013
G01 X21.1654 Y4.0084
G01 X21.1947 Y4.0263
G01 X21.2263 Y4.0495
G01 X21.2376 Y4.0589
G01 X21.2593 Y4.0787
G01 X21.2663 Y4.0857
G01 X21.2796 Y4.1002
G01 X21.8543 Y4.1002
G01 X21.8748 Y4.0756
G01 X21.8842 Y4.0655
G01 X21.9072 Y4.0428
G01 X21.9319 Y4.0220
G01 X21.9428 Y4.0136
G01 X21.9734 Y3.9928
G01 X22.0096 Y3.9726
G01 X22.0476 Y3.9559
G01 X22.0826 Y3.9440
G01 X22.0959 Y3.9403
G01 X22.1274 Y3.9332
G01 X22.1594 Y3.9285
G01 X22.1731 Y3.9270
G01 X22.2054 Y3.9256
G01 X23.5100 Y3.9255
G01 X23.5541 Y3.9277
G01 X23.5977 Y3.9341
G01 X23.6405 Y3.9449
G01 X23.6820 Y3.9597
G01 X23.7219 Y3.9786
G01 X23.7597 Y4.0013
G01 X23.7952 Y4.0275
G01 X23.8278 Y4.0572
G01 X23.8557 Y4.0877
G01 X24.4043 Y4.0877
G01 X24.4322 Y4.0572
G01 X24.4574 Y4.0339
G01 X24.4687 Y4.0245
G01 X24.4923 Y4.0069
G01 X24.5044 Y3.9986
G01 X24.5338 Y3.9809
G01 X24.5469 Y3.9742
G01 X24.5780 Y3.9597
G01 X24.6102 Y3.9479
G01 X24.6242 Y3.9435
G01 X24.6528 Y3.9363
G01 X24.6671 Y3.9332
G01 X24.7011 Y3.9282
G01 X24.7157 Y3.9269
G01 X24.7451 Y3.9256
G01 X26.0500 Y3.9255
G01 X26.0941 Y3.9277
G01 X26.1377 Y3.9341
G01 X26.1805 Y3.9449
G01 X26.2220 Y3.9597
G01 X26.2619 Y3.9786
G01 X26.2997 Y4.0013
G01 X26.3352 Y4.0275
G01 X26.3678 Y4.0572
G01 X26.3957 Y4.0877
G01 X26.9443 Y4.0877
G01 X26.9722 Y4.0572
G01 X26.9974 Y4.0339
G01 X27.0087 Y4.0245
G01 X27.0323 Y4.0069
G01 X27.0444 Y3.9986
G01 X27.0738 Y3.9809
G01 X27.0869 Y3.9742
G01 X27.1180 Y3.9597
G01 X27.1502 Y3.9479
G01 X27.1642 Y3.9435
G01 X27.1928 Y3.9363
G01 X27.2071 Y3.9332
G01 X27.2411 Y3.9282
G01 X27.2557 Y3.9269
G01 X27.2851 Y3.9256
G01 X28.5900 Y3.9255
G01 X28.6341 Y3.9277
G01 X28.6777 Y3.9341
G01 X28.7205 Y3.9449
G01 X28.7620 Y3.9597
G01 X28.8019 Y3.9786
G01 X28.8397 Y4.0013
G01 X28.8752 Y4.0275
G01 X28.9078 Y4.0572
G01 X28.9357 Y4.0877
G01 X29.5318 Y4.0877
G01 X29.5407 Y4.0787
G01 X29.5661 Y4.0557
G01 X29.5737 Y4.0495
G01 X29.5973 Y4.0319
G01 X29.6135 Y4.0210
G01 X29.6388 Y4.0059
G01 X29.6519 Y3.9992
G01 X29.6785 Y3.9866
G01 X29.6875 Y3.9829
G01 X29.7152 Y3.9729
G01 X29.7292 Y3.9685
G01 X29.7673 Y3.9591
G01 X29.8012 Y3.9539
G01 X29.8158 Y3.9522
G01 X29.8550 Y3.9505
G01 X31.1099 Y3.9506
G01 X31.1491 Y3.9527
G01 X31.1927 Y3.9591
G01 X31.2355 Y3.9699
G01 X31.2725 Y3.9829
G01 X31.2860 Y3.9887
G01 X31.3125 Y4.0013
G01 X31.3212 Y4.0059
G01 X31.3465 Y4.0210
G01 X31.3627 Y4.0319
G01 X31.3863 Y4.0495
G01 X31.3976 Y4.0589
G01 X31.4228 Y4.0822
G01 X31.4525 Y4.1148
G01 X31.4787 Y4.1503
G01 X31.5014 Y4.1881
G01 X31.5203 Y4.2280
G01 X31.5351 Y4.2695
G01 X31.5459 Y4.3123
G01 X31.5518 Y4.3511
G01 X31.5531 Y4.3657
G01 X31.5545 Y4.4000
G01 X31.5544 Y5.2049
G01 X31.5523 Y5.2441
G01 X31.5475 Y5.2780
G01 X31.5448 Y5.2925
G01 X31.5351 Y5.3305
G01 X31.5203 Y5.3720
G01 X31.5058 Y5.4031
G01 X31.4991 Y5.4162
G01 X31.4787 Y5.4497
G01 X31.4525 Y5.4852
G01 X31.4296 Y5.5108
G01 X31.4193 Y5.5213
G01 X31.3902 Y5.5475
G01 X31.3588 Y5.5710
G01 X31.3465 Y5.5790
G01 X31.3169 Y5.5964
G01 X31.2770 Y5.6153
G01 X31.2402 Y5.6287
G01 X31.2260 Y5.6328
G01 X31.1927 Y5.6409
G01 X31.1539 Y5.6468
G01 X31.1393 Y5.6481
G01 X31.1050 Y5.6495
G01 X29.8550 Y5.6495
G01 X29.8158 Y5.6478
G01 X29.8012 Y5.6461
G01 X29.7673 Y5.6409
G01 X29.7245 Y5.6301
G01 X29.6830 Y5.6153
G01 X29.6431 Y5.5964
G01 X29.6053 Y5.5737
G01 X29.5698 Y5.5475
G01 X29.5372 Y5.5178
G01 X29.5093 Y5.4873
G01 X28.9354 Y5.4873
G01 X28.9190 Y5.5062
G01 X28.8962 Y5.5290
G01 X28.8859 Y5.5382
G01 X28.8645 Y5.5559
G01 X28.8534 Y5.5641
G01 X28.8266 Y5.5822
G01 X28.7945 Y5.6003
G01 X28.7820 Y5.6063
G01 X28.7524 Y5.6191
G01 X28.7130 Y5.6323
G01 X28.6726 Y5.6418
G01 X28.6315 Y5.6476
G01 X28.5900 Y5.6495
G01 X27.2851 Y5.6494
G01 X27.2557 Y5.6481
G01 X27.2411 Y5.6468
G01 X27.2071 Y5.6418
G01 X27.1928 Y5.6387
G01 X27.1642 Y5.6315
G01 X27.1502 Y5.6271
G01 X27.1180 Y5.6153
G01 X27.0869 Y5.6008
G01 X27.0738 Y5.5941
G01 X27.0444 Y5.5764
G01 X27.0323 Y5.5681
G01 X27.0087 Y5.5505
G01 X26.9974 Y5.5411
G01 X26.9722 Y5.5178
G01 X26.9443 Y5.4873
G01 X26.3957 Y5.4873
G01 X26.3678 Y5.5178
G01 X26.3352 Y5.5475
G01 X26.2997 Y5.5737
G01 X26.2619 Y5.5964
G01 X26.2220 Y5.6153
G01 X26.1805 Y5.6301
G01 X26.1377 Y5.6409
G01 X26.0941 Y5.6473
G01 X26.0500 Y5.6495
G01 X24.7451 Y5.6494
G01 X24.7157 Y5.6481
G01 X24.7011 Y5.6468
G01 X24.6671 Y5.6418
G01 X24.6528 Y5.6387
G01 X24.6242 Y5.6315
G01 X24.6102 Y5.6271
G01 X24.5780 Y5.6153
G01 X24.5469 Y5.6008
G01 X24.5338 Y5.5941
G01 X24.5044 Y5.5764
G01 X24.4923 Y5.5681
G01 X24.4687 Y5.5505
G01 X24.4574 Y5.5411
G01 X24.4322 Y5.5178
G01 X24.4043 Y5.4873
G01 X23.8557 Y5.4873
G01 X23.8278 Y5.5178
G01 X23.7952 Y5.5475
G01 X23.7597 Y5.5737
G01 X23.7304 Y5.5916
G01 X23.7175 Y5.5987
G01 X23.6820 Y5.6153
G01 X23.6498 Y5.6271
G01 X23.6358 Y5.6315
G01 X23.6072 Y5.6387
G01 X23.5929 Y5.6418
G01 X23.5589 Y5.6468
G01 X23.5443 Y5.6481
G01 X23.5100 Y5.6495
G01 X22.2100 Y5.6495
G01 X22.1708 Y5.6478
G01 X22.1562 Y5.6461
G01 X22.1223 Y5.6409
G01 X22.0795 Y5.6301
G01 X22.0380 Y5.6153
G01 X22.0025 Y5.5987
G01 X21.9896 Y5.5916
G01 X21.9603 Y5.5737
G01 X21.9287 Y5.5505
G01 X21.9174 Y5.5411
G01 X21.8957 Y5.5213
G01 X21.8887 Y5.5143
G01 X21.8754 Y5.4998
G01 X21.2796 Y5.4998
G01 X21.2628 Y5.5178
G01 X21.2376 Y5.5411
G01 X21.2263 Y5.5505
G01 X21.2027 Y5.5681
G01 X21.1906 Y5.5764
G01 X21.1612 Y5.5941
G01 X21.1525 Y5.5987
G01 X21.1260 Y5.6113
G01 X21.1125 Y5.6171
G01 X21.0802 Y5.6287
G01 X21.0660 Y5.6328
G01 X21.0375 Y5.6398
G01 X21.0230 Y5.6425
G01 X20.9939 Y5.6468
G01 X20.9842 Y5.6478
G01 X20.9548 Y5.6493
G00 Z2.0000
G00 X20.3298 Y3.5393
G01 F80.00
G01 Z-0.1008
G01 F240.00
G01 X20.3102 Y3.5393
G01 X20.2220 Y3.5347
G01 X20.1250 Y3.5203
G01 X20.0299 Y3.4965
G01 X19.9375 Y3.4634
G01 X19.8488 Y3.4215
G01 X19.7647 Y3.3711
G01 X19.6859 Y3.3126
G01 X19.6132 Y3.2468
G01 X19.5474 Y3.1741
G01 X19.4889 Y3.0953
G01 X19.4385 Y3.0112
G01 X19.3966 Y2.9225
G01 X19.3635 Y2.8301
G01 X19.3397 Y2.7350
G01 X19.3253 Y2.6380
G01 X19.3205 Y2.5400
G01 X19.3253 Y2.4420
G01 X19.3397 Y2.3450
G01 X19.3635 Y2.2499
G01 X19.3966 Y2.1575
G01 X19.4385 Y2.0688
G01 X19.4889 Y1.9847
G01 X19.5474 Y1.9059
G01 X19.6132 Y1.8332
G01 X19.6859 Y1.7674
G01 X19.7647 Y1.7089
G01 X19.8488 Y1.6585
G01 X19.9375 Y1.6166
G01 X20.0299 Y1.5835
G01 X20.1250 Y1.5597
G01 X20.2220 Y1.5453
G01 X20.3200 Y1.5405
G01 X20.4180 Y1.5453
G01 X20.5150 Y1.5597
G01 X20.6101 Y1.5835
G01 X20.7025 Y1.6166
G01 X20.7912 Y1.6585
G01 X20.8753 Y1.7089
G01 X20.9541 Y1.7674
G01 X21.0268 Y1.8332
G01 X21.0926 Y1.9059
G01 X21.1511 Y1.9847
G01 X21.2015 Y2.0688
G01 X21.2434 Y2.1575
G01 X21.2765 Y2.2499
G01 X21.3003 Y2.3450
G01 X21.3147 Y2.4420
G01 X21.3195 Y2.5400
G01 X21.3147 Y2.6380
G01 X21.3003 Y2.7350
G01 X21.2765 Y2.8301
G01 X21.2434 Y2.9225
G01 X21.2015 Y3.0112
G01 X21.1511 Y3.0953
G01 X21.0926 Y3.1741
G01 X21.0268 Y3.2468
G01 X20.9541 Y3.3126
G01 X20.8753 Y3.3711
G01 X20.7912 Y3.4215
G01 X20.7025 Y3.4634
G01 X20.6101 Y3.4965
G01 X20.5150 Y3.5203
G01 X20.4180 Y3.5347
G01 X20.3298 Y3.5393
G00 Z2.0000
G00 X12.0652 Y7.7607
G01 F80.00
G01 Z-0.1008
G01 F240.00
G01 X12.5599 Y7.7605
G01 X12.9027 Y7.4177
G01 X12.9536 Y7.3716
G01 X13.0087 Y7.3307
G01 X13.0676 Y7.2954
G01 X13.1297 Y7.2660
G01 X13.1851 Y7.2460
G01 X13.1991 Y7.2415
G01 X13.2610 Y7.2262
G01 X13.3192 Y7.2173
G01 X13.3387 Y7.2154
G01 X13.3926 Y7.2128
G01 X14.2443 Y7.2127
G01 X14.2722 Y7.1822
G01 X14.3048 Y7.1525
G01 X14.3403 Y7.1263
G01 X14.3781 Y7.1036
G01 X14.4180 Y7.0847
G01 X14.4595 Y7.0699
G01 X14.5023 Y7.0591
G01 X14.5459 Y7.0527
G01 X14.5900 Y7.0505
G01 X15.8900 Y7.0505
G01 X15.9341 Y7.0527
G01 X15.9777 Y7.0591
G01 X16.0205 Y7.0699
G01 X16.0620 Y7.0847
G01 X16.1019 Y7.1036
G01 X16.1397 Y7.1263
G01 X16.1752 Y7.1525
G01 X16.2078 Y7.1822
G01 X16.2357 Y7.2127
G01 X16.7843 Y7.2127
G01 X16.8122 Y7.1822
G01 X16.8448 Y7.1525
G01 X16.8803 Y7.1263
G01 X16.9181 Y7.1036
G01 X16.9580 Y7.0847
G01 X16.9995 Y7.0699
G01 X17.0423 Y7.0591
G01 X17.0762 Y7.0539
G01 X17.0908 Y7.0522
G01 X17.1300 Y7.0505
G01 X18.4300 Y7.0505
G01 X18.4741 Y7.0527
G01 X18.5080 Y7.0575
G01 X18.5225 Y7.0602
G01 X18.5605 Y7.0699
G01 X18.5929 Y7.0812
G01 X18.6065 Y7.0866
G01 X18.6419 Y7.1036
G01 X18.6756 Y7.1236
G01 X18.6877 Y7.1319
G01 X18.7152 Y7.1525
G01 X18.7408 Y7.1754
G01 X18.7513 Y7.1857
G01 X18.7775 Y7.2148
G01 X18.7981 Y7.2423
G01 X18.8064 Y7.2544
G01 X18.8241 Y7.2838
G01 X18.8308 Y7.2969
G01 X18.8453 Y7.3280
G01 X18.8587 Y7.3648
G01 X18.8615 Y7.3742
G01 X18.8687 Y7.4028
G01 X18.8725 Y7.4220
G01 X18.8773 Y7.4559
G01 X18.8794 Y7.4951
G01 X18.8795 Y8.1213
G01 X19.9795 Y9.2213
G01 X20.0206 Y9.2066
G01 X20.0346 Y9.2022
G01 X20.1155 Y9.1819
G01 X20.1298 Y9.1788
G01 X20.2220 Y9.1653
G01 X20.3102 Y9.1607
G01 X20.3249 Y9.1606
G01 X20.4180 Y9.1653
G01 X20.5150 Y9.1797
G01 X20.6101 Y9.2035
G01 X20.6934 Y9.2331
G01 X20.7070 Y9.2385
G01 X20.7912 Y9.2785
G01 X20.8753 Y9.3289
G01 X20.9541 Y9.3874
G01 X21.0268 Y9.4532
G01 X21.0926 Y9.5259
G01 X21.1511 Y9.6047
G01 X21.2015 Y9.6888
G01 X21.2394 Y9.7686
G01 X21.2469 Y9.7866
G01 X21.2734 Y9.8606
G01 X21.2791 Y9.8793
G01 X21.3003 Y9.9650
G01 X21.3147 Y10.0620
G01 X21.3193 Y10.1502
G01 X21.3193 Y10.1698
G01 X21.3147 Y10.2580
G01 X21.3003 Y10.3550
G01 X21.2791 Y10.4407
G01 X21.2734 Y10.4594
G01 X21.2434 Y10.5425
G01 X21.2015 Y10.6312
G01 X21.1511 Y10.7153
G01 X21.0986 Y10.7864
G01 X21.0862 Y10.8015
G01 X21.0335 Y10.8597
G01 X21.0198 Y10.8734
G01 X21.0198 Y15.4599
G01 X21.0164 Y15.5285
G01 X21.0063 Y15.5964
G01 X20.9896 Y15.6630
G01 X20.9665 Y15.7277
G01 X20.9371 Y15.7898
G01 X20.9018 Y15.8487
G01 X20.8609 Y15.9038
G01 X20.8148 Y15.9547
G01 X17.5047 Y19.2648
G01 X17.4538 Y19.3109
G01 X17.4027 Y19.3491
G01 X17.3904 Y19.3571
G01 X17.3441 Y19.3848
G01 X17.3354 Y19.3894
G01 X17.3194 Y19.3970
G01 X17.3336 Y19.4128
G01 X17.3398 Y19.4203
G01 X17.3965 Y19.4968
G01 X17.4045 Y19.5091
G01 X17.4484 Y19.5823
G01 X17.4555 Y19.5952
G01 X17.4941 Y19.6768
G01 X17.5016 Y19.6949
G01 X17.5334 Y19.7845
G01 X17.5579 Y19.8816
G01 X17.5606 Y19.8960
G01 X17.5743 Y19.9902
G01 X17.5794 Y20.0901
G01 X17.5795 Y20.5450
G01 X17.5777 Y20.5863
G01 X18.6067 Y21.6153
G01 X29.2901 Y21.6153
G01 X29.4881 Y21.4174
G01 X29.4810 Y21.4065
G01 X29.4684 Y21.3854
G01 X29.4592 Y21.3681
G01 X29.4447 Y21.3370
G01 X29.4299 Y21.2955
G01 X29.4202 Y21.2575
G01 X29.4175 Y21.2430
G01 X29.4127 Y21.2091
G01 X29.4106 Y21.1699
G01 X29.4105 Y19.4750
G01 X29.4127 Y19.4309
G01 X29.4175 Y19.3970
G01 X29.4202 Y19.3825
G01 X29.4299 Y19.3445
G01 X29.4447 Y19.3030
G01 X29.4636 Y19.2631
G01 X29.4810 Y19.2335
G01 X29.4919 Y19.2173
G01 X29.5095 Y19.1937
G01 X29.5189 Y19.1824
G01 X29.5422 Y19.1572
G01 X29.5748 Y19.1275
G01 X29.6103 Y19.1013
G01 X29.6396 Y19.0834
G01 X29.6569 Y19.0742
G01 X29.6835 Y19.0616
G01 X29.6971 Y19.0562
G01 X29.7295 Y19.0449
G01 X29.7723 Y19.0341
G01 X29.8159 Y19.0277
G01 X29.8551 Y19.0256
G01 X31.1000 Y19.0255
G01 X31.1343 Y19.0269
G01 X31.1489 Y19.0282
G01 X31.1780 Y19.0325
G01 X31.1925 Y19.0352
G01 X31.2258 Y19.0435
G01 X31.2398 Y19.0479
G01 X31.2720 Y19.0597
G01 X31.3031 Y19.0742
G01 X31.3162 Y19.0809
G01 X31.3415 Y19.0960
G01 X31.3538 Y19.1040
G01 X31.3852 Y19.1275
G01 X31.4178 Y19.1572
G01 X31.4475 Y19.1898
G01 X31.4737 Y19.2253
G01 X31.4941 Y19.2588
G01 X31.5008 Y19.2719
G01 X31.5153 Y19.3030
G01 X31.5301 Y19.3445
G01 X31.5398 Y19.3825
G01 X31.5425 Y19.3970
G01 X31.5473 Y19.4309
G01 X31.5493 Y19.4652
G01 X31.5495 Y21.1650
G01 X31.5478 Y21.2042
G01 X31.5461 Y21.2188
G01 X31.5409 Y21.2527
G01 X31.5301 Y21.2955
G01 X31.5153 Y21.3370
G01 X31.5008 Y21.3681
G01 X31.4916 Y21.3854
G01 X31.4764 Y21.4106
G01 X31.4710 Y21.4188
G01 X31.4475 Y21.4502
G01 X31.4246 Y21.4758
G01 X31.4143 Y21.4863
G01 X31.3926 Y21.5061
G01 X31.3813 Y21.5155
G01 X31.3538 Y21.5360
G01 X31.3415 Y21.5440
G01 X31.3162 Y21.5591
G01 X31.3031 Y21.5658
G01 X31.2720 Y21.5803
G01 X31.2398 Y21.5921
G01 X31.2258 Y21.5965
G01 X31.1925 Y21.6048
G01 X31.1829 Y21.6068
G01 X31.1515 Y21.6114
G01 X31.1465 Y21.6274
G01 X31.1265 Y21.6828
G01 X31.0971 Y21.7449
G01 X31.0618 Y21.8038
G01 X31.0269 Y21.8512
G01 X31.0145 Y21.8663
G01 X30.9748 Y21.9098
G01 X30.0748 Y22.8098
G01 X30.0277 Y22.8528
G01 X30.0162 Y22.8619
G01 X29.9768 Y22.8912
G01 X29.9605 Y22.9021
G01 X29.9098 Y22.9321
G01 X29.8478 Y22.9615
G01 X29.7924 Y22.9816
G01 X29.7737 Y22.9872
G01 X29.7165 Y23.0013
G01 X29.6534 Y23.0109
G01 X29.6388 Y23.0121
G01 X29.5800 Y23.0148
G01 X18.3168 Y23.0148
G01 X18.2483 Y23.0114
G01 X18.1900 Y23.0030
G01 X18.1708 Y22.9992
G01 X18.1137 Y22.9846
G01 X18.0491 Y22.9615
G01 X17.9870 Y22.9321
G01 X17.9364 Y22.9021
G01 X17.9201 Y22.8912
G01 X17.8806 Y22.8619
G01 X17.8692 Y22.8528
G01 X17.8220 Y22.8098
G01 X16.6209 Y21.6086
G01 X16.6051 Y21.6101
G01 X16.5100 Y21.6145
G01 X16.4052 Y21.6093
G01 X16.3014 Y21.5939
G01 X16.2090 Y21.5711
G01 X16.1902 Y21.5654
G01 X16.1099 Y21.5366
G01 X16.0918 Y21.5291
G01 X16.0058 Y21.4882
G01 X15.9241 Y21.4395
G01 X15.9078 Y21.4286
G01 X15.8315 Y21.3717
G01 X15.7537 Y21.3013
G01 X15.6897 Y21.2309
G01 X15.6772 Y21.2158
G01 X15.6207 Y21.1392
G01 X15.5716 Y21.0577
G01 X15.5624 Y21.0404
G01 X15.5219 Y20.9543
G01 X15.4866 Y20.8555
G01 X15.4611 Y20.7536
G01 X15.4468 Y20.6595
G01 X15.4452 Y20.6450
G01 X15.4405 Y20.5450
G01 X15.4405 Y20.2401
G01 X14.7799 Y19.5795
G01 X14.7625 Y19.5871
G01 X14.7302 Y19.5987
G01 X14.7160 Y19.6028
G01 X14.6875 Y19.6098
G01 X14.6730 Y19.6125
G01 X14.6391 Y19.6173
G01 X14.5999 Y19.6194
G01 X13.3401 Y19.6194
G01 X13.3009 Y19.6173
G01 X13.2670 Y19.6125
G01 X13.2525 Y19.6098
G01 X13.2145 Y19.6001
G01 X13.1730 Y19.5853
G01 X13.1419 Y19.5708
G01 X13.1246 Y19.5616
G01 X13.0994 Y19.5464
G01 X13.0912 Y19.5410
G01 X13.0598 Y19.5175
G01 X13.0272 Y19.4878
G01 X12.9975 Y19.4552
G01 X12.9713 Y19.4197
G01 X12.9486 Y19.3819
G01 X12.9297 Y19.3420
G01 X12.9149 Y19.3005
G01 X12.9063 Y19.2672
G01 X12.9032 Y19.2529
G01 X12.8977 Y19.2141
G01 X12.8955 Y19.1700
G01 X12.8955 Y18.3700
G01 X12.8977 Y18.3259
G01 X12.9032 Y18.2871
G01 X12.9063 Y18.2728
G01 X12.9149 Y18.2395
G01 X12.9262 Y18.2071
G01 X12.9316 Y18.1935
G01 X12.9486 Y18.1581
G01 X12.9686 Y18.1244
G01 X12.9769 Y18.1123
G01 X12.9975 Y18.0848
G01 X13.0204 Y18.0592
G01 X13.0307 Y18.0487
G01 X13.0598 Y18.0225
G01 X13.0953 Y17.9963
G01 X13.1288 Y17.9759
G01 X13.1419 Y17.9692
G01 X13.1730 Y17.9547
G01 X13.2052 Y17.9429
G01 X13.2192 Y17.9385
G01 X13.2573 Y17.9291
G01 X13.2961 Y17.9232
G01 X13.3107 Y17.9219
G01 X13.3450 Y17.9205
G01 X14.5999 Y17.9206
G01 X14.6391 Y17.9227
G01 X14.6827 Y17.9291
G01 X14.7255 Y17.9399
G01 X14.7579 Y17.9512
G01 X14.7715 Y17.9566
G01 X14.8069 Y17.9736
G01 X14.8365 Y17.9910
G01 X14.8488 Y17.9990
G01 X14.8724 Y18.0165
G01 X14.8839 Y18.0257
G01 X14.9128 Y18.0522
G01 X14.9296 Y18.0702
G01 X16.7201 Y18.0702
G01 X19.6202 Y15.1701
G01 X19.6202 Y10.8734
G01 X19.6065 Y10.8597
G01 X19.5474 Y10.7941
G01 X19.4946 Y10.7233
G01 X19.4837 Y10.7070
G01 X19.4433 Y10.6397
G01 X19.4341 Y10.6224
G01 X19.3966 Y10.5425
G01 X19.3635 Y10.4501
G01 X19.3397 Y10.3550
G01 X19.3260 Y10.2641
G01 X17.8365 Y8.7745
G01 X17.1300 Y8.7745
G01 X17.0859 Y8.7723
G01 X17.0520 Y8.7675
G01 X17.0375 Y8.7648
G01 X17.0090 Y8.7578
G01 X16.9902 Y8.7521
G01 X16.9625 Y8.7421
G01 X16.9535 Y8.7384
G01 X16.9269 Y8.7258
G01 X16.9138 Y8.7191
G01 X16.8803 Y8.6987
G01 X16.8448 Y8.6725
G01 X16.8122 Y8.6428
G01 X16.7843 Y8.6123
G01 X16.2357 Y8.6123
G01 X16.2078 Y8.6428
G01 X16.1752 Y8.6725
G01 X16.1397 Y8.6987
G01 X16.1019 Y8.7214
G01 X16.0620 Y8.7403
G01 X16.0205 Y8.7551
G01 X15.9777 Y8.7659
G01 X15.9438 Y8.7711
G01 X15.9292 Y8.7728
G01 X15.8900 Y8.7745
G01 X14.5802 Y8.7743
G01 X14.5508 Y8.7728
G01 X14.5411 Y8.7718
G01 X14.5071 Y8.7668
G01 X14.4928 Y8.7637
G01 X14.4642 Y8.7565
G01 X14.4502 Y8.7521
G01 X14.4180 Y8.7403
G01 X14.3869 Y8.7258
G01 X14.3738 Y8.7191
G01 X14.3444 Y8.7014
G01 X14.3323 Y8.6931
G01 X14.3087 Y8.6755
G01 X14.2974 Y8.6661
G01 X14.2722 Y8.6428
G01 X14.2443 Y8.6123
G01 X13.7745 Y8.6123
G01 X13.7743 Y9.0198
G01 X13.7723 Y9.0541
G01 X13.7668 Y9.0929
G01 X13.7637 Y9.1072
G01 X13.7565 Y9.1358
G01 X13.7537 Y9.1452
G01 X13.7438 Y9.1729
G01 X13.7384 Y9.1865
G01 X13.7237 Y9.2175
G01 X13.7166 Y9.2304
G01 X13.7014 Y9.2556
G01 X13.6931 Y9.2677
G01 X13.6725 Y9.2952
G01 X13.6496 Y9.3208
G01 X13.6393 Y9.3313
G01 X13.6139 Y9.3543
G01 X13.6024 Y9.3635
G01 X13.5788 Y9.3810
G01 X13.5665 Y9.3890
G01 X13.5369 Y9.4064
G01 X13.5015 Y9.4234
G01 X13.4879 Y9.4288
G01 X13.4555 Y9.4401
G01 X13.4127 Y9.4509
G01 X13.3691 Y9.4573
G01 X13.3250 Y9.4595
G01 X12.0701 Y9.4594
G01 X12.0309 Y9.4573
G01 X11.9873 Y9.4509
G01 X11.9445 Y9.4401
G01 X11.9030 Y9.4253
G01 X11.8631 Y9.4064
G01 X11.8294 Y9.3864
G01 X11.8173 Y9.3781
G01 X11.7898 Y9.3575
G01 X11.7642 Y9.3346
G01 X11.7537 Y9.3243
G01 X11.7275 Y9.2952
G01 X11.7013 Y9.2597
G01 X11.6809 Y9.2262
G01 X11.6742 Y9.2131
G01 X11.6597 Y9.1820
G01 X11.6479 Y9.1498
G01 X11.6435 Y9.1358
G01 X11.6352 Y9.1025
G01 X11.6325 Y9.0880
G01 X11.6277 Y9.0541
G01 X11.6255 Y9.0100
G01 X11.6255 Y8.2100
G01 X11.6277 Y8.1659
G01 X11.6341 Y8.1223
G01 X11.6449 Y8.0795
G01 X11.6597 Y8.0380
G01 X11.6742 Y8.0069
G01 X11.6809 Y7.9938
G01 X11.6960 Y7.9685
G01 X11.7069 Y7.9523
G01 X11.7245 Y7.9287
G01 X11.7307 Y7.9211
G01 X11.7537 Y7.8957
G01 X11.7642 Y7.8854
G01 X11.7898 Y7.8625
G01 X11.8253 Y7.8363
G01 X11.8631 Y7.8136
G01 X11.9030 Y7.7947
G01 X11.9445 Y7.7799
G01 X11.9873 Y7.7691
G01 X12.0309 Y7.7627
G01 X12.0652 Y7.7607
G00 Z2.0000
G00 X10.1953 Y4.4450
G01 F80.00
G01 Z-0.1008
G01 F240.00
G01 X10.1982 Y4.3862
G01 X10.2068 Y4.3280
G01 X10.2211 Y4.2709
G01 X10.2374 Y4.2246
G01 X10.2429 Y4.2110
G01 X10.2617 Y4.1710
G01 X10.2709 Y4.1538
G01 X10.2964 Y4.1118
G01 X10.3254 Y4.0723
G01 X10.3346 Y4.0608
G01 X10.3709 Y4.0209
G01 X11.8505 Y2.5414
G01 X11.8506 Y1.9101
G01 X11.8522 Y1.8758
G01 X11.8539 Y1.8612
G01 X11.8591 Y1.8273
G01 X11.8672 Y1.7940
G01 X11.8713 Y1.7798
G01 X11.8847 Y1.7430
G01 X11.9036 Y1.7031
G01 X11.9263 Y1.6653
G01 X11.9465 Y1.6376
G01 X11.9557 Y1.6261
G01 X11.9787 Y1.6007
G01 X11.9892 Y1.5904
G01 X12.0148 Y1.5675
G01 X12.0423 Y1.5469
G01 X12.0544 Y1.5386
G01 X12.0838 Y1.5209
G01 X12.0969 Y1.5142
G01 X12.1235 Y1.5016
G01 X12.1371 Y1.4962
G01 X12.1695 Y1.4849
G01 X12.2123 Y1.4741
G01 X12.2559 Y1.4677
G01 X12.2951 Y1.4656
G01 X13.1000 Y1.4655
G01 X13.1441 Y1.4677
G01 X13.1877 Y1.4741
G01 X13.2305 Y1.4849
G01 X13.2720 Y1.4997
G01 X13.3119 Y1.5186
G01 X13.3497 Y1.5413
G01 X13.3852 Y1.5675
G01 X13.4178 Y1.5972
G01 X13.4475 Y1.6298
G01 X13.4710 Y1.6612
G01 X13.4790 Y1.6735
G01 X13.4964 Y1.7031
G01 X13.5153 Y1.7430
G01 X13.5301 Y1.7845
G01 X13.5387 Y1.8178
G01 X13.5425 Y1.8370
G01 X13.5468 Y1.8661
G01 X13.5478 Y1.8758
G01 X13.5495 Y1.9150
G01 X13.5494 Y3.1699
G01 X13.5473 Y3.2091
G01 X13.5409 Y3.2527
G01 X13.5301 Y3.2955
G01 X13.5153 Y3.3370
G01 X13.4964 Y3.3769
G01 X13.4790 Y3.4065
G01 X13.4710 Y3.4188
G01 X13.4535 Y3.4424
G01 X13.4443 Y3.4539
G01 X13.4178 Y3.4828
G01 X13.3998 Y3.4996
G01 X13.3998 Y3.5202
G01 X13.9673 Y4.0877
G01 X14.2443 Y4.0877
G01 X14.2722 Y4.0572
G01 X14.3048 Y4.0275
G01 X14.3403 Y4.0013
G01 X14.3781 Y3.9786
G01 X14.4180 Y3.9597
G01 X14.4595 Y3.9449
G01 X14.5023 Y3.9341
G01 X14.5402 Y3.9283
G01 X14.5402 Y3.2534
G01 X14.5265 Y3.2397
G01 X14.4674 Y3.1741
G01 X14.4146 Y3.1033
G01 X14.4037 Y3.0870
G01 X14.3585 Y3.0112
G01 X14.3206 Y2.9314
G01 X14.3131 Y2.9134
G01 X14.2835 Y2.8301
G01 X14.2597 Y2.7350
G01 X14.2465 Y2.6477
G01 X14.2446 Y2.6282
G01 X14.2405 Y2.5400
G01 X14.2446 Y2.4518
G01 X14.2465 Y2.4323
G01 X14.2588 Y2.3498
G01 X14.2619 Y2.3355
G01 X14.2835 Y2.2499
G01 X14.3166 Y2.1575
G01 X14.3585 Y2.0688
G01 X14.4089 Y1.9847
G01 X14.4674 Y1.9059
G01 X14.5332 Y1.8332
G01 X14.6059 Y1.7674
G01 X14.6767 Y1.7146
G01 X14.6930 Y1.7037
G01 X14.7603 Y1.6633
G01 X14.7776 Y1.6541
G01 X14.8575 Y1.6166
G01 X14.9406 Y1.5866
G01 X14.9593 Y1.5809
G01 X15.0450 Y1.5597
G01 X15.1420 Y1.5453
G01 X15.2400 Y1.5405
G01 X15.3282 Y1.5446
G01 X15.3477 Y1.5465
G01 X15.4350 Y1.5597
G01 X15.5207 Y1.5809
G01 X15.5394 Y1.5866
G01 X15.6134 Y1.6131
G01 X15.6314 Y1.6206
G01 X15.7112 Y1.6585
G01 X15.7953 Y1.7089
G01 X15.8741 Y1.7674
G01 X15.9397 Y1.8265
G01 X15.9534 Y1.8402
G01 X17.0666 Y1.8402
G01 X17.0803 Y1.8265
G01 X17.1459 Y1.7674
G01 X17.2167 Y1.7146
G01 X17.2330 Y1.7037
G01 X17.3088 Y1.6585
G01 X17.3886 Y1.6206
G01 X17.4066 Y1.6131
G01 X17.4852 Y1.5850
G01 X17.4993 Y1.5809
G01 X17.5850 Y1.5597
G01 X17.6723 Y1.5465
G01 X17.6869 Y1.5449
G01 X17.7702 Y1.5407
G01 X17.7849 Y1.5406
G01 X17.8731 Y1.5449
G01 X17.8877 Y1.5465
G01 X17.9205 Y1.5514
G01 X18.9559 Y0.5159
G01 X18.9958 Y0.4796
G01 X19.0073 Y0.4704
G01 X19.0388 Y0.4470
G01 X19.0551 Y0.4361
G01 X19.0973 Y0.4111
G01 X19.1505 Y0.3859
G01 X19.1966 Y0.3692
G01 X19.2154 Y0.3635
G01 X19.2630 Y0.3518
G01 X19.3164 Y0.3437
G01 X19.3310 Y0.3425
G01 X19.3800 Y0.3403
G01 X21.2600 Y0.3403
G01 X21.3188 Y0.3432
G01 X21.3673 Y0.3501
G01 X21.3818 Y0.3528
G01 X21.4246 Y0.3635
G01 X21.4434 Y0.3692
G01 X21.4895 Y0.3859
G01 X21.5339 Y0.4067
G01 X21.5470 Y0.4135
G01 X21.5849 Y0.4361
G01 X21.5972 Y0.4441
G01 X21.6366 Y0.4734
G01 X21.6479 Y0.4828
G01 X21.6770 Y0.5092
G01 X22.7195 Y1.5514
G01 X22.7523 Y1.5465
G01 X22.7669 Y1.5449
G01 X22.8551 Y1.5406
G01 X22.8698 Y1.5407
G01 X22.9531 Y1.5449
G01 X22.9677 Y1.5465
G01 X23.0550 Y1.5597
G01 X23.1407 Y1.5809
G01 X23.1548 Y1.5850
G01 X23.2334 Y1.6131
G01 X23.2514 Y1.6206
G01 X23.3312 Y1.6585
G01 X23.4070 Y1.7037
G01 X23.4233 Y1.7146
G01 X23.4941 Y1.7674
G01 X23.5597 Y1.8265
G01 X23.5734 Y1.8402
G01 X24.6866 Y1.8402
G01 X24.7003 Y1.8265
G01 X24.7659 Y1.7674
G01 X24.8447 Y1.7089
G01 X24.9288 Y1.6585
G01 X25.0175 Y1.6166
G01 X25.1099 Y1.5835
G01 X25.2050 Y1.5597
G01 X25.3020 Y1.5453
G01 X25.4000 Y1.5405
G01 X25.4980 Y1.5453
G01 X25.5950 Y1.5597
G01 X25.6901 Y1.5835
G01 X25.7825 Y1.6166
G01 X25.8712 Y1.6585
G01 X25.9553 Y1.7089
G01 X26.0341 Y1.7674
G01 X26.0997 Y1.8265
G01 X26.1134 Y1.8402
G01 X26.9405 Y1.8402
G01 X26.9405 Y1.7400
G01 X26.9410 Y1.7253
G01 X26.9420 Y1.7156
G01 X26.9453 Y1.6963
G01 X26.9506 Y1.6774
G01 X26.9576 Y1.6592
G01 X26.9664 Y1.6417
G01 X26.9741 Y1.6292
G01 X26.9798 Y1.6212
G01 X26.9922 Y1.6060
G01 X26.9989 Y1.5989
G01 X27.0097 Y1.5889
G01 X27.0251 Y1.5769
G01 X27.0417 Y1.5664
G01 X27.0503 Y1.5618
G01 X27.0637 Y1.5557
G01 X27.0821 Y1.5491
G01 X27.0963 Y1.5453
G01 X27.1059 Y1.5434
G01 X27.1253 Y1.5410
G01 X27.1400 Y1.5405
G01 X28.7400 Y1.5405
G01 X28.7498 Y1.5407
G01 X28.7644 Y1.5420
G01 X28.7789 Y1.5443
G01 X28.7885 Y1.5465
G01 X28.8026 Y1.5506
G01 X28.8118 Y1.5539
G01 X28.8208 Y1.5576
G01 X28.8340 Y1.5641
G01 X28.8467 Y1.5715
G01 X28.8549 Y1.5769
G01 X28.8627 Y1.5827
G01 X28.8740 Y1.5922
G01 X28.8811 Y1.5989
G01 X28.8911 Y1.6097
G01 X28.8973 Y1.6173
G01 X28.9059 Y1.6292
G01 X28.9111 Y1.6374
G01 X28.9182 Y1.6503
G01 X28.9261 Y1.6682
G01 X28.9309 Y1.6821
G01 X28.9335 Y1.6915
G01 X28.9373 Y1.7107
G01 X28.9390 Y1.7253
G01 X28.9394 Y1.7351
G01 X28.9395 Y1.8402
G01 X31.7500 Y1.8402
G01 X31.8186 Y1.8436
G01 X31.8769 Y1.8520
G01 X31.8961 Y1.8558
G01 X31.9531 Y1.8704
G01 X32.0086 Y1.8900
G01 X32.0267 Y1.8975
G01 X32.0799 Y1.9229
G01 X32.1305 Y1.9529
G01 X32.1468 Y1.9638
G01 X32.1939 Y1.9991
G01 X32.2413 Y2.0418
G01 X33.5182 Y3.3187
G01 X33.5609 Y3.3661
G01 X33.6018 Y3.4212
G01 X33.6371 Y3.4801
G01 X33.6646 Y3.5377
G01 X33.6700 Y3.5514
G01 X33.6896 Y3.6069
G01 X33.7063 Y3.6735
G01 X33.7164 Y3.7414
G01 X33.7197 Y3.8051
G01 X33.7198 Y6.0602
G01 X35.8498 Y8.1902
G01 X43.0068 Y8.1902
G01 X43.2919 Y7.9318
G01 X43.3032 Y7.9224
G01 X43.9077 Y7.4740
G01 X43.9198 Y7.4657
G01 X44.5739 Y7.0738
G01 X45.2631 Y6.7477
G01 X45.2767 Y6.7422
G01 X45.9901 Y6.4872
G01 X46.7249 Y6.3029
G01 X46.7441 Y6.2991
G01 X47.4838 Y6.1894
G01 X47.4984 Y6.1877
G01 X48.2600 Y6.1505
G01 X49.0167 Y6.1874
G01 X49.0362 Y6.1894
G01 X49.7855 Y6.3007
G01 X50.5299 Y6.4872
G01 X51.2433 Y6.7422
G01 X51.2613 Y6.7497
G01 X51.9373 Y7.0694
G01 X51.9504 Y7.0762
G01 X52.6043 Y7.4683
G01 X53.2129 Y7.9194
G01 X53.2281 Y7.9318
G01 X53.7821 Y8.4340
G01 X53.7960 Y8.4479
G01 X54.3046 Y9.0094
G01 X54.7617 Y9.6257
G01 X55.1562 Y10.2839
G01 X55.4803 Y10.9687
G01 X55.4878 Y10.9867
G01 X55.7397 Y11.6908
G01 X55.7454 Y11.7096
G01 X55.9293 Y12.4445
G01 X56.0418 Y13.2036
G01 X56.0795 Y13.9700
G01 X56.0426 Y14.7267
G01 X56.0406 Y14.7462
G01 X55.9309 Y15.4859
G01 X55.9271 Y15.5051
G01 X55.7454 Y16.2304
G01 X55.7397 Y16.2492
G01 X55.4843 Y16.9624
G01 X55.1606 Y17.6473
G01 X55.1514 Y17.6646
G01 X54.7617 Y18.3143
G01 X54.3106 Y18.9229
G01 X54.2982 Y18.9381
G01 X53.7892 Y19.4992
G01 X53.2206 Y20.0146
G01 X52.6043 Y20.4717
G01 X51.9546 Y20.8614
G01 X51.9373 Y20.8706
G01 X51.2524 Y21.1943
G01 X50.5299 Y21.4528
G01 X49.7855 Y21.6393
G01 X49.0264 Y21.7518
G01 X48.2600 Y21.7895
G01 X47.4936 Y21.7518
G01 X46.7345 Y21.6393
G01 X45.9901 Y21.4528
G01 X45.2767 Y21.1978
G01 X45.2587 Y21.1903
G01 X44.5739 Y20.8662
G01 X43.9240 Y20.4769
G01 X43.9077 Y20.4660
G01 X43.2994 Y20.0146
G01 X42.7308 Y19.4992
G01 X42.2154 Y18.9306
G01 X41.7640 Y18.3223
G01 X41.7531 Y18.3060
G01 X41.3686 Y17.6646
G01 X41.3594 Y17.6473
G01 X41.0357 Y16.9624
G01 X40.7803 Y16.2492
G01 X40.7746 Y16.2304
G01 X40.5907 Y15.4955
G01 X40.4794 Y14.7462
G01 X40.4774 Y14.7267
G01 X40.4407 Y13.9798
G01 X40.4407 Y13.9602
G01 X40.4782 Y13.2036
G01 X40.5891 Y12.4541
G01 X40.5929 Y12.4349
G01 X40.7772 Y11.7001
G01 X41.0357 Y10.9776
G01 X41.3638 Y10.2839
G01 X41.7531 Y9.6340
G01 X41.7611 Y9.6217
G01 X41.7847 Y9.5898
G01 X35.5600 Y9.5898
G01 X35.4914 Y9.5864
G01 X35.4331 Y9.5780
G01 X35.4139 Y9.5742
G01 X35.3569 Y9.5596
G01 X35.3014 Y9.5400
G01 X35.2833 Y9.5325
G01 X35.2301 Y9.5071
G01 X35.1795 Y9.4771
G01 X35.1632 Y9.4662
G01 X35.1161 Y9.4309
G01 X35.0687 Y9.3882
G01 X34.6330 Y8.9526
G01 X29.1207 Y14.4648
G01 X29.0698 Y14.5109
G01 X29.0187 Y14.5491
G01 X29.0064 Y14.5571
G01 X28.9643 Y14.5823
G01 X28.9470 Y14.5915
G01 X28.8937 Y14.6165
G01 X28.8290 Y14.6396
G01 X28.7720 Y14.6542
G01 X28.7528 Y14.6580
G01 X28.6945 Y14.6664
G01 X28.6357 Y14.6695
G01 X26.4495 Y14.6698
G01 X26.4494 Y14.8249
G01 X26.4480 Y14.8444
G01 X26.4457 Y14.8589
G01 X26.4423 Y14.8732
G01 X26.4378 Y14.8872
G01 X26.4324 Y14.9008
G01 X26.4259 Y14.9140
G01 X26.4185 Y14.9267
G01 X26.4102 Y14.9388
G01 X26.4011 Y14.9503
G01 X26.3911 Y14.9611
G01 X26.3803 Y14.9711
G01 X26.3688 Y14.9802
G01 X26.3567 Y14.9885
G01 X26.3440 Y14.9959
G01 X26.3308 Y15.0024
G01 X26.3172 Y15.0078
G01 X26.3032 Y15.0123
G01 X26.2889 Y15.0157
G01 X26.2744 Y15.0180
G01 X26.2549 Y15.0194
G01 X26.0998 Y15.0195
G01 X26.0998 Y19.2872
G01 X26.1563 Y19.3387
G01 X26.2203 Y19.4091
G01 X26.2328 Y19.4242
G01 X26.2836 Y19.4928
G01 X26.2945 Y19.5091
G01 X26.3432 Y19.5908
G01 X26.3862 Y19.6812
G01 X26.3916 Y19.6949
G01 X26.4234 Y19.7845
G01 X26.4489 Y19.8864
G01 X26.4643 Y19.9902
G01 X26.4695 Y20.0950
G01 X26.4695 Y20.5450
G01 X26.4651 Y20.6401
G01 X26.4632 Y20.6595
G01 X26.4489 Y20.7536
G01 X26.4248 Y20.8508
G01 X26.4204 Y20.8648
G01 X26.3916 Y20.9451
G01 X26.3841 Y20.9632
G01 X26.3432 Y21.0492
G01 X26.2945 Y21.1309
G01 X26.2836 Y21.1472
G01 X26.2267 Y21.2235
G01 X26.1630 Y21.2942
G01 X26.1492 Y21.3080
G01 X26.0785 Y21.3717
G01 X26.0022 Y21.4286
G01 X25.9859 Y21.4395
G01 X25.9127 Y21.4834
G01 X25.8954 Y21.4926
G01 X25.8093 Y21.5331
G01 X25.7198 Y21.5654
G01 X25.7010 Y21.5711
G01 X25.6086 Y21.5939
G01 X25.5048 Y21.6093
G01 X25.4000 Y21.6145
G01 X25.3000 Y21.6098
G01 X25.2855 Y21.6082
G01 X25.2010 Y21.5956
G01 X25.1818 Y21.5918
G01 X25.0895 Y21.5684
G01 X24.9999 Y21.5366
G01 X24.9818 Y21.5291
G01 X24.8958 Y21.4882
G01 X24.8141 Y21.4395
G01 X24.8018 Y21.4315
G01 X24.7292 Y21.3778
G01 X24.7141 Y21.3653
G01 X24.6437 Y21.3013
G01 X24.5764 Y21.2272
G01 X24.5672 Y21.2158
G01 X24.5164 Y21.1472
G01 X24.5081 Y21.1351
G01 X24.4591 Y21.0534
G01 X24.4545 Y21.0448
G01 X24.4426 Y21.0198
G01 X22.6595 Y21.0198
G01 X22.6594 Y21.1699
G01 X22.6573 Y21.2091
G01 X22.6525 Y21.2430
G01 X22.6498 Y21.2575
G01 X22.6428 Y21.2860
G01 X22.6371 Y21.3048
G01 X22.6253 Y21.3370
G01 X22.6064 Y21.3769
G01 X22.5837 Y21.4147
G01 X22.5575 Y21.4502
G01 X22.5278 Y21.4828
G01 X22.4952 Y21.5125
G01 X22.4597 Y21.5387
G01 X22.4219 Y21.5614
G01 X22.3820 Y21.5803
G01 X22.3452 Y21.5937
G01 X22.3358 Y21.5965
G01 X22.3072 Y21.6037
G01 X22.2880 Y21.6075
G01 X22.2541 Y21.6123
G01 X22.2100 Y21.6145
G01 X20.9700 Y21.6145
G01 X20.9259 Y21.6123
G01 X20.8871 Y21.6068
G01 X20.8728 Y21.6037
G01 X20.8395 Y21.5951
G01 X20.7980 Y21.5803
G01 X20.7581 Y21.5614
G01 X20.7285 Y21.5440
G01 X20.7123 Y21.5331
G01 X20.6887 Y21.5155
G01 X20.6811 Y21.5093
G01 X20.6522 Y21.4828
G01 X20.6257 Y21.4539
G01 X20.6195 Y21.4463
G01 X20.6019 Y21.4227
G01 X20.5910 Y21.4065
G01 X20.5736 Y21.3769
G01 X20.5547 Y21.3370
G01 X20.5399 Y21.2955
G01 X20.5313 Y21.2622
G01 X20.5282 Y21.2479
G01 X20.5239 Y21.2188
G01 X20.5219 Y21.1993
G01 X20.5205 Y21.1650
G01 X20.5205 Y19.4750
G01 X20.5227 Y19.4309
G01 X20.5291 Y19.3873
G01 X20.5385 Y19.3492
G01 X20.5429 Y19.3352
G01 X20.5547 Y19.3030
G01 X20.5692 Y19.2719
G01 X20.5759 Y19.2588
G01 X20.5910 Y19.2335
G01 X20.5990 Y19.2212
G01 X20.6225 Y19.1898
G01 X20.6522 Y19.1572
G01 X20.6848 Y19.1275
G01 X20.7162 Y19.1040
G01 X20.7285 Y19.0960
G01 X20.7581 Y19.0786
G01 X20.7890 Y19.0637
G01 X20.8025 Y19.0579
G01 X20.8395 Y19.0449
G01 X20.8775 Y19.0352
G01 X20.8920 Y19.0325
G01 X20.9259 Y19.0277
G01 X20.9651 Y19.0256
G01 X22.2149 Y19.0256
G01 X22.2492 Y19.0272
G01 X22.2638 Y19.0289
G01 X22.2977 Y19.0341
G01 X22.3358 Y19.0435
G01 X22.3498 Y19.0479
G01 X22.3820 Y19.0597
G01 X22.4219 Y19.0786
G01 X22.4597 Y19.1013
G01 X22.4952 Y19.1275
G01 X22.5278 Y19.1572
G01 X22.5575 Y19.1898
G01 X22.5837 Y19.2253
G01 X22.6041 Y19.2588
G01 X22.6108 Y19.2719
G01 X22.6234 Y19.2985
G01 X22.6271 Y19.3075
G01 X22.6371 Y19.3352
G01 X22.6428 Y19.3540
G01 X22.6498 Y19.3825
G01 X22.6525 Y19.3970
G01 X22.6573 Y19.4309
G01 X22.6594 Y19.4701
G01 X22.6595 Y19.6202
G01 X24.4426 Y19.6202
G01 X24.4545 Y19.5952
G01 X24.4591 Y19.5866
G01 X24.5081 Y19.5049
G01 X24.5164 Y19.4928
G01 X24.5702 Y19.4203
G01 X24.5797 Y19.4091
G01 X24.6437 Y19.3387
G01 X24.7002 Y19.2872
G01 X24.7002 Y15.0195
G01 X24.5500 Y15.0195
G01 X24.5304 Y15.0185
G01 X24.5159 Y15.0166
G01 X24.4968 Y15.0123
G01 X24.4782 Y15.0061
G01 X24.4603 Y14.9982
G01 X24.4517 Y14.9936
G01 X24.4392 Y14.9859
G01 X24.4273 Y14.9773
G01 X24.4197 Y14.9711
G01 X24.4089 Y14.9611
G01 X24.4022 Y14.9540
G01 X24.3958 Y14.9466
G01 X24.3869 Y14.9349
G01 X24.3789 Y14.9226
G01 X24.3741 Y14.9140
G01 X24.3657 Y14.8963
G01 X24.3606 Y14.8826
G01 X24.3577 Y14.8732
G01 X24.3543 Y14.8589
G01 X24.3527 Y14.8493
G01 X24.3510 Y14.8347
G01 X24.3505 Y14.8200
G01 X24.3506 Y13.1151
G01 X24.3520 Y13.0956
G01 X24.3553 Y13.0763
G01 X24.3591 Y13.0621
G01 X24.3657 Y13.0437
G01 X24.3741 Y13.0260
G01 X24.3841 Y13.0092
G01 X24.3927 Y12.9973
G01 X24.4055 Y12.9824
G01 X24.4197 Y12.9689
G01 X24.4351 Y12.9569
G01 X24.4517 Y12.9464
G01 X24.4692 Y12.9376
G01 X24.4874 Y12.9306
G01 X24.5063 Y12.9253
G01 X24.5256 Y12.9220
G01 X24.5451 Y12.9206
G01 X26.2500 Y12.9205
G01 X26.2647 Y12.9210
G01 X26.2744 Y12.9220
G01 X26.2889 Y12.9243
G01 X26.2985 Y12.9265
G01 X26.3126 Y12.9306
G01 X26.3263 Y12.9357
G01 X26.3353 Y12.9397
G01 X26.3440 Y12.9441
G01 X26.3567 Y12.9515
G01 X26.3649 Y12.9569
G01 X26.3766 Y12.9658
G01 X26.3840 Y12.9722
G01 X26.3945 Y12.9824
G01 X26.4042 Y12.9934
G01 X26.4102 Y13.0012
G01 X26.4185 Y13.0133
G01 X26.4259 Y13.0260
G01 X26.4343 Y13.0437
G01 X26.4409 Y13.0621
G01 X26.4457 Y13.0811
G01 X26.4485 Y13.1004
G01 X26.4495 Y13.1200
G01 X26.4495 Y13.2702
G01 X28.3361 Y13.2702
G01 X33.5902 Y8.0161
G01 X33.5902 Y7.9098
G01 X32.5185 Y6.8377
G01 X32.4822 Y6.7977
G01 X32.4731 Y6.7862
G01 X32.4382 Y6.7388
G01 X32.4077 Y6.6884
G01 X32.3985 Y6.6711
G01 X32.3735 Y6.6178
G01 X32.3519 Y6.5578
G01 X32.3478 Y6.5437
G01 X32.3358 Y6.4961
G01 X32.3320 Y6.4769
G01 X32.3236 Y6.4186
G01 X32.3203 Y6.3549
G01 X32.3202 Y4.0998
G01 X31.4602 Y3.2398
G01 X28.9395 Y3.2398
G01 X28.9395 Y3.3400
G01 X28.9390 Y3.3547
G01 X28.9380 Y3.3644
G01 X28.9347 Y3.3837
G01 X28.9294 Y3.4026
G01 X28.9224 Y3.4208
G01 X28.9136 Y3.4383
G01 X28.9059 Y3.4508
G01 X28.9002 Y3.4588
G01 X28.8878 Y3.4740
G01 X28.8776 Y3.4845
G01 X28.8703 Y3.4911
G01 X28.8549 Y3.5031
G01 X28.8383 Y3.5136
G01 X28.8297 Y3.5182
G01 X28.8163 Y3.5243
G01 X28.7979 Y3.5309
G01 X28.7837 Y3.5347
G01 X28.7741 Y3.5366
G01 X28.7547 Y3.5390
G01 X28.7400 Y3.5395
G01 X27.1400 Y3.5395
G01 X27.1302 Y3.5393
G01 X27.1156 Y3.5380
G01 X27.1011 Y3.5357
G01 X27.0915 Y3.5335
G01 X27.0774 Y3.5294
G01 X27.0682 Y3.5261
G01 X27.0592 Y3.5224
G01 X27.0460 Y3.5159
G01 X27.0333 Y3.5085
G01 X27.0251 Y3.5031
G01 X27.0173 Y3.4973
G01 X27.0060 Y3.4878
G01 X26.9989 Y3.4811
G01 X26.9889 Y3.4703
G01 X26.9827 Y3.4627
G01 X26.9741 Y3.4508
G01 X26.9689 Y3.4426
G01 X26.9618 Y3.4297
G01 X26.9539 Y3.4118
G01 X26.9491 Y3.3979
G01 X26.9465 Y3.3885
G01 X26.9427 Y3.3693
G01 X26.9410 Y3.3547
G01 X26.9406 Y3.3449
G01 X26.9405 Y3.2398
G01 X26.1134 Y3.2398
G01 X26.0997 Y3.2535
G01 X26.0341 Y3.3126
G01 X25.9553 Y3.3711
G01 X25.8712 Y3.4215
G01 X25.7825 Y3.4634
G01 X25.6901 Y3.4965
G01 X25.5950 Y3.5203
G01 X25.4980 Y3.5347
G01 X25.4000 Y3.5395
G01 X25.3020 Y3.5347
G01 X25.2050 Y3.5203
G01 X25.1099 Y3.4965
G01 X25.0175 Y3.4634
G01 X24.9288 Y3.4215
G01 X24.8447 Y3.3711
G01 X24.7659 Y3.3126
G01 X24.7003 Y3.2535
G01 X24.6866 Y3.2398
G01 X23.5734 Y3.2398
G01 X23.5597 Y3.2535
G01 X23.4941 Y3.3126
G01 X23.4233 Y3.3654
G01 X23.4070 Y3.3763
G01 X23.3312 Y3.4215
G01 X23.2514 Y3.4594
G01 X23.2334 Y3.4669
G01 X23.1501 Y3.4965
G01 X23.0645 Y3.5181
G01 X23.0453 Y3.5220
G01 X22.9580 Y3.5347
G01 X22.8698 Y3.5393
G01 X22.8502 Y3.5393
G01 X22.7620 Y3.5347
G01 X22.6650 Y3.5203
G01 X22.5699 Y3.4965
G01 X22.4866 Y3.4669
G01 X22.4686 Y3.4594
G01 X22.3976 Y3.4259
G01 X22.3803 Y3.4167
G01 X22.3047 Y3.3711
G01 X22.2259 Y3.3126
G01 X22.1532 Y3.2468
G01 X22.0874 Y3.1741
G01 X22.0289 Y3.0953
G01 X21.9785 Y3.0112
G01 X21.9366 Y2.9225
G01 X21.9066 Y2.8394
G01 X21.9022 Y2.8254
G01 X21.8797 Y2.7350
G01 X21.8665 Y2.6477
G01 X21.8649 Y2.6331
G01 X21.8607 Y2.5498
G01 X21.8606 Y2.5351
G01 X21.8649 Y2.4469
G01 X21.8665 Y2.4323
G01 X21.8714 Y2.3995
G01 X21.0116 Y1.5397
G01 X19.6284 Y1.5397
G01 X18.7686 Y2.3995
G01 X18.7735 Y2.4323
G01 X18.7751 Y2.4469
G01 X18.7793 Y2.5302
G01 X18.7794 Y2.5449
G01 X18.7747 Y2.6380
G01 X18.7612 Y2.7302
G01 X18.7581 Y2.7445
G01 X18.7391 Y2.8207
G01 X18.7334 Y2.8394
G01 X18.7034 Y2.9225
G01 X18.6659 Y3.0024
G01 X18.6591 Y3.0155
G01 X18.6111 Y3.0953
G01 X18.5586 Y3.1664
G01 X18.5462 Y3.1815
G01 X18.4935 Y3.2397
G01 X18.4797 Y3.2535
G01 X18.4141 Y3.3126
G01 X18.3353 Y3.3711
G01 X18.2512 Y3.4215
G01 X18.1714 Y3.4594
G01 X18.1534 Y3.4669
G01 X18.0701 Y3.4965
G01 X17.9845 Y3.5181
G01 X17.9653 Y3.5220
G01 X17.8780 Y3.5347
G01 X17.7898 Y3.5393
G01 X17.7702 Y3.5393
G01 X17.6820 Y3.5347
G01 X17.5850 Y3.5203
G01 X17.4899 Y3.4965
G01 X17.3975 Y3.4634
G01 X17.3176 Y3.4259
G01 X17.3003 Y3.4167
G01 X17.2330 Y3.3763
G01 X17.2167 Y3.3654
G01 X17.1459 Y3.3126
G01 X17.0803 Y3.2535
G01 X17.0666 Y3.2398
G01 X15.9534 Y3.2398
G01 X15.9398 Y3.2534
G01 X15.9398 Y3.9283
G01 X15.9777 Y3.9341
G01 X16.0205 Y3.9449
G01 X16.0620 Y3.9597
G01 X16.1019 Y3.9786
G01 X16.1397 Y4.0013
G01 X16.1752 Y4.0275
G01 X16.2078 Y4.0572
G01 X16.2357 Y4.0877
G01 X16.7843 Y4.0877
G01 X16.8122 Y4.0572
G01 X16.8374 Y4.0339
G01 X16.8487 Y4.0245
G01 X16.8723 Y4.0069
G01 X16.8844 Y3.9986
G01 X16.9138 Y3.9809
G01 X16.9269 Y3.9742
G01 X16.9580 Y3.9597
G01 X16.9902 Y3.9479
G01 X17.0042 Y3.9435
G01 X17.0328 Y3.9363
G01 X17.0471 Y3.9332
G01 X17.0811 Y3.9282
G01 X17.0957 Y3.9269
G01 X17.1251 Y3.9256
G01 X18.4300 Y3.9255
G01 X18.4692 Y3.9272
G01 X18.4838 Y3.9289
G01 X18.5129 Y3.9332
G01 X18.5225 Y3.9352
G01 X18.5510 Y3.9422
G01 X18.5698 Y3.9479
G01 X18.5975 Y3.9579
G01 X18.6065 Y3.9616
G01 X18.6419 Y3.9786
G01 X18.6797 Y4.0013
G01 X18.7152 Y4.0275
G01 X18.7408 Y4.0504
G01 X18.7546 Y4.0642
G01 X18.7743 Y4.0861
G01 X18.7835 Y4.0976
G01 X18.8010 Y4.1212
G01 X18.8064 Y4.1294
G01 X18.8216 Y4.1546
G01 X18.8287 Y4.1675
G01 X18.8453 Y4.2030
G01 X18.8601 Y4.2445
G01 X18.8709 Y4.2873
G01 X18.8768 Y4.3261
G01 X18.8781 Y4.3407
G01 X18.8795 Y4.3750
G01 X18.8795 Y5.2000
G01 X18.8781 Y5.2343
G01 X18.8768 Y5.2489
G01 X18.8709 Y5.2877
G01 X18.8628 Y5.3210
G01 X18.8587 Y5.3352
G01 X18.8453 Y5.3720
G01 X18.8287 Y5.4075
G01 X18.8216 Y5.4204
G01 X18.8037 Y5.4497
G01 X18.7775 Y5.4852
G01 X18.7513 Y5.5143
G01 X18.7408 Y5.5246
G01 X18.7152 Y5.5475
G01 X18.6797 Y5.5737
G01 X18.6462 Y5.5941
G01 X18.6331 Y5.6008
G01 X18.6020 Y5.6153
G01 X18.5605 Y5.6301
G01 X18.5177 Y5.6409
G01 X18.4838 Y5.6461
G01 X18.4692 Y5.6478
G01 X18.4300 Y5.6495
G01 X17.1300 Y5.6495
G01 X17.0908 Y5.6478
G01 X17.0762 Y5.6461
G01 X17.0423 Y5.6409
G01 X16.9995 Y5.6301
G01 X16.9580 Y5.6153
G01 X16.9181 Y5.5964
G01 X16.8803 Y5.5737
G01 X16.8448 Y5.5475
G01 X16.8122 Y5.5178
G01 X16.7843 Y5.4873
G01 X16.2357 Y5.4873
G01 X16.2078 Y5.5178
G01 X16.1752 Y5.5475
G01 X16.1397 Y5.5737
G01 X16.1019 Y5.5964
G01 X16.0620 Y5.6153
G01 X16.0205 Y5.6301
G01 X15.9777 Y5.6409
G01 X15.9341 Y5.6473
G01 X15.8900 Y5.6495
G01 X14.5851 Y5.6494
G01 X14.5557 Y5.6481
G01 X14.5411 Y5.6468
G01 X14.5071 Y5.6418
G01 X14.4928 Y5.6387
G01 X14.4642 Y5.6315
G01 X14.4502 Y5.6271
G01 X14.4180 Y5.6153
G01 X14.3869 Y5.6008
G01 X14.3738 Y5.5941
G01 X14.3444 Y5.5764
G01 X14.3323 Y5.5681
G01 X14.3087 Y5.5505
G01 X14.2974 Y5.5411
G01 X14.2722 Y5.5178
G01 X14.2443 Y5.4873
G01 X13.6726 Y5.4872
G01 X13.6089 Y5.4839
G01 X13.5506 Y5.4755
G01 X13.5314 Y5.4717
G01 X13.4744 Y5.4571
G01 X13.4189 Y5.4375
G01 X13.4008 Y5.4300
G01 X13.3476 Y5.4046
G01 X13.2970 Y5.3746
G01 X13.2807 Y5.3637
G01 X13.2336 Y5.3284
G01 X13.1862 Y5.2857
G01 X12.1985 Y4.2977
G01 X12.1591 Y4.2539
G01 X12.1238 Y4.2068
G01 X12.1155 Y4.1947
G01 X12.0877 Y4.1484
G01 X12.0806 Y4.1355
G01 X12.0554 Y4.0823
G01 X12.0517 Y4.0732
