(G-CODE GENERATED BY FLATCAM v8.994 - www.flatcam.org - Version Date: 2020/11/7)

(Name: zvire-vetrnik-relays-B_Cu.gbr_iso_combined_cnc)
(Type: G-code from Geometry)
(Units: MM)

(Created on Sobota, 04 února 2023 at 20:45)

(This preprocessor is the default preprocessor used by FlatCAM.)
(It is made to work with MACH3 compatible motion controllers.)

(TOOL DIAMETER: 0.4 mm)
(Feedrate_XY: 240.0 mm/min)
(Feedrate_Z: 80.0 mm/min)
(Feedrate rapids 1500.0 mm/min)

(Z_Cut: -0.1026 mm)
(Z_Move: 2.0 mm)
(Z Start: None mm)
(Z End: 5.0 mm)
(X,Y End: None mm)
(Steps per circle: 64)
(Preprocessor Geometry: default)

(X range:    1.8397 ...   43.6108  mm)
(Y range:    8.8092 ...   64.8508  mm)

(Spindle Speed: 10000.0 RPM)
G21
G90
G94

G01 F240.00

M5
G00 Z15.0000
G00 X0.0000 Y0.0000
T2
M6    
(MSG, Change to Tool Dia = 0.4000)
M0
G00 Z15.0000

M03 S10000.0
G4 P1.0
G01 F240.00
G00 X5.4952 Y31.9502
G01 F80.00
G01 Z-0.1026
G01 F240.00
G01 X5.6497 Y31.9500
G01 X5.6500 Y29.3902
G01 X5.6531 Y29.3314
G01 X5.6615 Y29.2731
G01 X5.6654 Y29.2538
G01 X5.6799 Y29.1967
G01 X5.7031 Y29.1320
G01 X5.7280 Y29.0787
G01 X5.7373 Y29.0614
G01 X5.7625 Y29.0193
G01 X5.7705 Y29.0069
G01 X5.8087 Y28.9558
G01 X5.8548 Y28.9048
G01 X9.0937 Y25.6659
G01 X9.0833 Y25.6242
G01 X9.0802 Y25.6098
G01 X9.0658 Y25.5127
G01 X9.0646 Y25.4980
G01 X9.0602 Y25.4098
G01 X9.0601 Y25.3951
G01 X9.0646 Y25.3020
G01 X9.0665 Y25.2824
G01 X9.0811 Y25.1854
G01 X9.1060 Y25.0854
G01 X9.1104 Y25.0714
G01 X9.1437 Y24.9790
G01 X9.1855 Y24.8902
G01 X9.1947 Y24.8729
G01 X9.2454 Y24.7889
G01 X9.3036 Y24.7099
G01 X9.3161 Y24.6947
G01 X9.3822 Y24.6222
G01 X9.4547 Y24.5561
G01 X9.4699 Y24.5436
G01 X9.5489 Y24.4854
G01 X9.6329 Y24.4347
G01 X9.6502 Y24.4255
G01 X9.7390 Y24.3837
G01 X9.8314 Y24.3504
G01 X9.8454 Y24.3460
G01 X9.9454 Y24.3211
G01 X10.0424 Y24.3065
G01 X10.0620 Y24.3046
G01 X10.1551 Y24.3001
G01 X10.1698 Y24.3002
G01 X10.2580 Y24.3046
G01 X10.2727 Y24.3058
G01 X10.3698 Y24.3202
G01 X10.3842 Y24.3233
G01 X10.4259 Y24.3337
G01 X12.2497 Y22.5100
G01 X8.5497 Y18.8100
G01 X8.2900 Y18.8100
G01 X8.2704 Y18.8090
G01 X8.2558 Y18.8071
G01 X8.2414 Y18.8040
G01 X8.2226 Y18.7983
G01 X8.2090 Y18.7928
G01 X8.1914 Y18.7840
G01 X8.1748 Y18.7735
G01 X8.1594 Y18.7614
G01 X8.1452 Y18.7479
G01 X8.1354 Y18.7369
G01 X8.1237 Y18.7211
G01 X8.1160 Y18.7086
G01 X8.1092 Y18.6955
G01 X8.1034 Y18.6820
G01 X8.0986 Y18.6681
G01 X8.0949 Y18.6538
G01 X8.0922 Y18.6393
G01 X8.0902 Y18.6198
G01 X8.0901 Y17.7051
G01 X8.0915 Y17.6855
G01 X8.0929 Y17.6758
G01 X8.0960 Y17.6614
G01 X8.0986 Y17.6519
G01 X8.1034 Y17.6380
G01 X8.1072 Y17.6290
G01 X8.1136 Y17.6157
G01 X8.1210 Y17.6030
G01 X8.1265 Y17.5948
G01 X8.1323 Y17.5870
G01 X8.1418 Y17.5757
G01 X8.1521 Y17.5652
G01 X8.1594 Y17.5586
G01 X8.1709 Y17.5494
G01 X8.1789 Y17.5437
G01 X8.1872 Y17.5385
G01 X8.2001 Y17.5314
G01 X8.2135 Y17.5252
G01 X8.2226 Y17.5217
G01 X8.2367 Y17.5172
G01 X8.2462 Y17.5149
G01 X8.2655 Y17.5115
G01 X8.2802 Y17.5102
G01 X8.2900 Y17.5100
G01 X8.6299 Y17.5100
G01 X8.6867 Y17.4899
G01 X8.7534 Y17.4732
G01 X8.8214 Y17.4631
G01 X8.8900 Y17.4597
G01 X8.9586 Y17.4631
G01 X9.0266 Y17.4732
G01 X9.0933 Y17.4899
G01 X9.1501 Y17.5100
G01 X9.4900 Y17.5100
G01 X9.5047 Y17.5105
G01 X9.5145 Y17.5115
G01 X9.5290 Y17.5138
G01 X9.5433 Y17.5172
G01 X9.5527 Y17.5201
G01 X9.5665 Y17.5252
G01 X9.5755 Y17.5292
G01 X9.5886 Y17.5360
G01 X9.6011 Y17.5437
G01 X9.6130 Y17.5523
G01 X9.6243 Y17.5618
G01 X9.6382 Y17.5757
G01 X9.6506 Y17.5909
G01 X9.6615 Y17.6072
G01 X9.6708 Y17.6245
G01 X9.6783 Y17.6426
G01 X9.6828 Y17.6567
G01 X9.6871 Y17.6758
G01 X9.6895 Y17.6953
G01 X9.6900 Y17.7100
G01 X9.6900 Y17.9697
G01 X13.5301 Y21.8097
G01 X18.2326 Y21.8097
G01 X18.2807 Y21.7086
G01 X18.3638 Y21.5696
G01 X18.3722 Y21.5575
G01 X18.4598 Y21.4393
G01 X18.4690 Y21.4278
G01 X18.5779 Y21.3079
G01 X18.6941 Y21.2023
G01 X18.7093 Y21.1898
G01 X18.8275 Y21.1022
G01 X18.8396 Y21.0938
G01 X18.9786 Y21.0107
G01 X19.1205 Y20.9434
G01 X19.1386 Y20.9359
G01 X19.2865 Y20.8832
G01 X19.4388 Y20.8448
G01 X19.4580 Y20.8410
G01 X19.6134 Y20.8182
G01 X19.7751 Y20.8101
G01 X19.7898 Y20.8102
G01 X19.9466 Y20.8182
G01 X20.1020 Y20.8410
G01 X20.1212 Y20.8448
G01 X20.2735 Y20.8832
G01 X20.4214 Y20.9359
G01 X20.4395 Y20.9434
G01 X20.5814 Y21.0107
G01 X20.7162 Y21.0912
G01 X20.7325 Y21.1022
G01 X20.8585 Y21.1959
G01 X20.9750 Y21.3011
G01 X20.9889 Y21.3150
G01 X21.0941 Y21.4315
G01 X21.1935 Y21.5655
G01 X21.2744 Y21.7001
G01 X21.2837 Y21.7174
G01 X21.3506 Y21.8594
G01 X21.4068 Y22.0165
G01 X21.4473 Y22.1783
G01 X21.4706 Y22.3336
G01 X21.4725 Y22.3532
G01 X21.4800 Y22.5100
G01 X21.4718 Y22.6766
G01 X21.4490 Y22.8320
G01 X21.4452 Y22.8512
G01 X21.4068 Y23.0035
G01 X21.3506 Y23.1606
G01 X21.2837 Y23.3026
G01 X21.2744 Y23.3199
G01 X21.1988 Y23.4462
G01 X21.1907 Y23.4585
G01 X21.0941 Y23.5885
G01 X20.9821 Y23.7121
G01 X20.8585 Y23.8241
G01 X20.7325 Y23.9178
G01 X20.7162 Y23.9288
G01 X20.5814 Y24.0093
G01 X20.4395 Y24.0766
G01 X20.4214 Y24.0841
G01 X20.2828 Y24.1337
G01 X20.2640 Y24.1394
G01 X20.1117 Y24.1773
G01 X19.9720 Y24.1983
G01 X18.6552 Y25.5152
G01 X18.6117 Y25.5549
G01 X18.5965 Y25.5673
G01 X18.5490 Y25.6022
G01 X18.4944 Y25.6352
G01 X18.4743 Y25.6464
G01 X18.4655 Y25.6508
G01 X18.4565 Y25.6548
G01 X18.4453 Y25.6590
G01 X18.4325 Y25.6650
G01 X18.4234 Y25.6688
G01 X18.3680 Y25.6886
G01 X18.3538 Y25.6927
G01 X18.3014 Y25.7058
G01 X18.2869 Y25.7085
G01 X18.2286 Y25.7169
G01 X18.1649 Y25.7202
G01 X17.7751 Y25.7202
G01 X17.7114 Y25.7169
G01 X17.6434 Y25.7068
G01 X17.5767 Y25.6901
G01 X17.5199 Y25.6700
G01 X17.1800 Y25.6700
G01 X17.1653 Y25.6695
G01 X17.1458 Y25.6671
G01 X17.1267 Y25.6628
G01 X17.1126 Y25.6583
G01 X17.0945 Y25.6508
G01 X17.0814 Y25.6440
G01 X17.0648 Y25.6335
G01 X17.0531 Y25.6246
G01 X17.0421 Y25.6148
G01 X17.0286 Y25.6006
G01 X17.0194 Y25.5891
G01 X17.0085 Y25.5728
G01 X17.0014 Y25.5599
G01 X16.9934 Y25.5420
G01 X16.9872 Y25.5233
G01 X16.9838 Y25.5090
G01 X16.9810 Y25.4896
G01 X16.9801 Y25.4749
G01 X16.9802 Y24.5602
G01 X16.9815 Y24.5455
G01 X16.9838 Y24.5310
G01 X16.9886 Y24.5119
G01 X16.9934 Y24.4980
G01 X16.9992 Y24.4845
G01 X17.0085 Y24.4672
G01 X17.0194 Y24.4509
G01 X17.0286 Y24.4394
G01 X17.0421 Y24.4252
G01 X17.0531 Y24.4154
G01 X17.0648 Y24.4065
G01 X17.0814 Y24.3960
G01 X17.0990 Y24.3872
G01 X17.1126 Y24.3817
G01 X17.1314 Y24.3760
G01 X17.1507 Y24.3722
G01 X17.1653 Y24.3705
G01 X17.1800 Y24.3700
G01 X17.5199 Y24.3700
G01 X17.5720 Y24.3514
G01 X17.5862 Y24.3473
G01 X17.6434 Y24.3332
G01 X17.7016 Y24.3243
G01 X17.7212 Y24.3224
G01 X17.7751 Y24.3198
G01 X17.8699 Y24.3197
G01 X18.5301 Y23.6596
G01 X18.4723 Y23.5959
G01 X18.4628 Y23.5846
G01 X18.3665 Y23.4545
G01 X18.2807 Y23.3114
G01 X18.2326 Y23.2103
G01 X13.5301 Y23.2103
G01 X11.2561 Y25.4842
G01 X11.2551 Y25.5029
G01 X11.2535 Y25.5176
G01 X11.2405 Y25.6049
G01 X11.2367 Y25.6242
G01 X11.2126 Y25.7193
G01 X11.1798 Y25.8118
G01 X11.1723 Y25.8299
G01 X11.1301 Y25.9185
G01 X11.0746 Y26.0111
G01 X11.0103 Y26.0978
G01 X10.9378 Y26.1778
G01 X10.8578 Y26.2503
G01 X10.7711 Y26.3146
G01 X10.6785 Y26.3701
G01 X10.5899 Y26.4123
G01 X10.5718 Y26.4198
G01 X10.4793 Y26.4526
G01 X10.3842 Y26.4767
G01 X10.3649 Y26.4805
G01 X10.2776 Y26.4935
G01 X10.2629 Y26.4951
G01 X10.2442 Y26.4961
G01 X7.0503 Y29.6901
G01 X7.0503 Y31.9500
G01 X7.2048 Y31.9502
G01 X7.2391 Y31.9522
G01 X7.2828 Y31.9586
G01 X7.3256 Y31.9694
G01 X7.3672 Y31.9843
G01 X7.4071 Y32.0031
G01 X7.4450 Y32.0258
G01 X7.4805 Y32.0521
G01 X7.5097 Y32.0784
G01 X7.5200 Y32.0889
G01 X7.5397 Y32.1108
G01 X7.5489 Y32.1223
G01 X7.5692 Y32.1500
G01 X7.5870 Y32.1793
G01 X7.5941 Y32.1922
G01 X7.6107 Y32.2278
G01 X7.6256 Y32.2694
G01 X7.6364 Y32.3122
G01 X7.6428 Y32.3559
G01 X7.6450 Y32.4000
G01 X7.6450 Y33.6400
G01 X7.6433 Y33.6792
G01 X7.6416 Y33.6939
G01 X7.6373 Y33.7230
G01 X7.6353 Y33.7326
G01 X7.6282 Y33.7612
G01 X7.6241 Y33.7753
G01 X7.6143 Y33.8030
G01 X7.6068 Y33.8212
G01 X7.5919 Y33.8521
G01 X7.5692 Y33.8900
G01 X7.5429 Y33.9255
G01 X7.5132 Y33.9582
G01 X7.4805 Y33.9879
G01 X7.4450 Y34.0142
G01 X7.4071 Y34.0369
G01 X7.3672 Y34.0557
G01 X7.3256 Y34.0706
G01 X7.2828 Y34.0814
G01 X7.2391 Y34.0878
G01 X7.1950 Y34.0900
G01 X5.5050 Y34.0900
G01 X5.4658 Y34.0883
G01 X5.4511 Y34.0866
G01 X5.4220 Y34.0823
G01 X5.4124 Y34.0803
G01 X5.3838 Y34.0732
G01 X5.3697 Y34.0691
G01 X5.3420 Y34.0593
G01 X5.3238 Y34.0518
G01 X5.2929 Y34.0369
G01 X5.2550 Y34.0142
G01 X5.2195 Y33.9879
G01 X5.1868 Y33.9582
G01 X5.1571 Y33.9255
G01 X5.1308 Y33.8900
G01 X5.1081 Y33.8521
G01 X5.0932 Y33.8212
G01 X5.0874 Y33.8077
G01 X5.0775 Y33.7799
G01 X5.0718 Y33.7612
G01 X5.0647 Y33.7326
G01 X5.0627 Y33.7230
G01 X5.0584 Y33.6939
G01 X5.0567 Y33.6792
G01 X5.0550 Y33.6400
G01 X5.0550 Y32.4000
G01 X5.0572 Y32.3559
G01 X5.0620 Y32.3219
G01 X5.0658 Y32.3026
G01 X5.0730 Y32.2741
G01 X5.0775 Y32.2601
G01 X5.0874 Y32.2323
G01 X5.0912 Y32.2233
G01 X5.1037 Y32.1966
G01 X5.1105 Y32.1836
G01 X5.1308 Y32.1500
G01 X5.1571 Y32.1145
G01 X5.1868 Y32.0818
G01 X5.2158 Y32.0553
G01 X5.2234 Y32.0491
G01 X5.2470 Y32.0315
G01 X5.2633 Y32.0206
G01 X5.2886 Y32.0055
G01 X5.2972 Y32.0009
G01 X5.3238 Y31.9882
G01 X5.3373 Y31.9824
G01 X5.3744 Y31.9694
G01 X5.4172 Y31.9586
G01 X5.4609 Y31.9522
G01 X5.4952 Y31.9502
G00 Z2.0000
G00 X1.8400 Y34.2998
G01 F80.00
G01 Z-0.1026
G01 F240.00
G01 X1.8397 Y21.2100
G01 X1.8431 Y21.1414
G01 X1.8515 Y21.0831
G01 X1.8554 Y21.0638
G01 X1.8685 Y21.0114
G01 X1.8730 Y20.9974
G01 X1.8931 Y20.9420
G01 X1.9224 Y20.8799
G01 X1.9578 Y20.8210
G01 X1.9927 Y20.7735
G01 X2.0051 Y20.7583
G01 X2.0448 Y20.7148
G01 X8.0900 Y14.6697
G01 X8.0900 Y14.4100
G01 X8.0905 Y14.3953
G01 X8.0922 Y14.3807
G01 X8.0949 Y14.3662
G01 X8.0986 Y14.3519
G01 X8.1034 Y14.3380
G01 X8.1114 Y14.3201
G01 X8.1185 Y14.3072
G01 X8.1294 Y14.2909
G01 X8.1386 Y14.2794
G01 X8.1486 Y14.2686
G01 X8.1594 Y14.2586
G01 X8.1709 Y14.2494
G01 X8.1830 Y14.2410
G01 X8.2001 Y14.2314
G01 X8.2135 Y14.2252
G01 X8.2273 Y14.2201
G01 X8.2414 Y14.2160
G01 X8.2607 Y14.2122
G01 X8.2753 Y14.2105
G01 X8.2900 Y14.2100
G01 X8.5497 Y14.2100
G01 X12.7448 Y10.0148
G01 X12.7958 Y9.9687
G01 X12.8429 Y9.9334
G01 X12.8593 Y9.9225
G01 X12.9099 Y9.8924
G01 X12.9631 Y9.8670
G01 X12.9812 Y9.8595
G01 X13.0367 Y9.8399
G01 X13.0938 Y9.8254
G01 X13.1131 Y9.8215
G01 X13.1714 Y9.8131
G01 X13.2351 Y9.8098
G01 X18.2326 Y9.8097
G01 X18.2807 Y9.7086
G01 X18.3638 Y9.5696
G01 X18.3722 Y9.5575
G01 X18.4598 Y9.4393
G01 X18.4690 Y9.4278
G01 X18.5711 Y9.3150
G01 X18.5850 Y9.3011
G01 X18.7015 Y9.1959
G01 X18.8315 Y9.0993
G01 X18.8438 Y9.0912
G01 X18.9786 Y9.0107
G01 X19.1205 Y8.9434
G01 X19.1386 Y8.9359
G01 X19.2865 Y8.8832
G01 X19.4388 Y8.8448
G01 X19.4580 Y8.8410
G01 X19.6134 Y8.8182
G01 X19.7800 Y8.8100
G01 X19.9466 Y8.8182
G01 X20.1117 Y8.8427
G01 X20.2735 Y8.8832
G01 X20.4306 Y8.9394
G01 X20.5814 Y9.0107
G01 X20.7245 Y9.0965
G01 X20.8507 Y9.1898
G01 X20.8659 Y9.2023
G01 X20.9821 Y9.3079
G01 X21.0877 Y9.4241
G01 X21.1002 Y9.4393
G01 X21.1935 Y9.5655
G01 X21.2744 Y9.7001
G01 X21.2837 Y9.7174
G01 X21.3466 Y9.8505
G01 X21.3541 Y9.8686
G01 X21.4068 Y10.0165
G01 X21.4452 Y10.1688
G01 X21.4490 Y10.1880
G01 X21.4718 Y10.3434
G01 X21.4798 Y10.5002
G01 X21.4798 Y10.5198
G01 X21.4718 Y10.6766
G01 X21.4473 Y10.8417
G01 X21.4094 Y10.9940
G01 X21.4037 Y11.0128
G01 X21.3506 Y11.1606
G01 X21.2793 Y11.3114
G01 X21.1988 Y11.4462
G01 X21.1878 Y11.4625
G01 X21.0941 Y11.5885
G01 X20.9889 Y11.7050
G01 X20.9750 Y11.7189
G01 X20.8585 Y11.8241
G01 X20.7325 Y11.9178
G01 X20.7162 Y11.9288
G01 X20.5814 Y12.0093
G01 X20.4395 Y12.0766
G01 X20.4214 Y12.0841
G01 X20.2828 Y12.1337
G01 X20.2688 Y12.1382
G01 X20.1117 Y12.1773
G01 X19.9466 Y12.2018
G01 X19.7800 Y12.2100
G01 X19.6232 Y12.2025
G01 X19.6036 Y12.2006
G01 X19.4580 Y12.1790
G01 X19.4388 Y12.1752
G01 X19.2865 Y12.1368
G01 X19.1386 Y12.0841
G01 X19.1249 Y12.0787
G01 X18.9786 Y12.0093
G01 X18.8355 Y11.9235
G01 X18.7015 Y11.8241
G01 X18.5814 Y11.7155
G01 X18.5711 Y11.7050
G01 X18.4659 Y11.5885
G01 X18.3693 Y11.4585
G01 X18.3612 Y11.4462
G01 X18.2807 Y11.3114
G01 X18.2326 Y11.2103
G01 X13.5301 Y11.2103
G01 X9.6900 Y15.0503
G01 X9.6900 Y15.3100
G01 X9.6895 Y15.3247
G01 X9.6878 Y15.3393
G01 X9.6851 Y15.3538
G01 X9.6814 Y15.3681
G01 X9.6766 Y15.3820
G01 X9.6686 Y15.3999
G01 X9.6615 Y15.4128
G01 X9.6506 Y15.4291
G01 X9.6414 Y15.4406
G01 X9.6314 Y15.4514
G01 X9.6206 Y15.4614
G01 X9.6091 Y15.4706
G01 X9.5970 Y15.4790
G01 X9.5799 Y15.4886
G01 X9.5665 Y15.4948
G01 X9.5527 Y15.4999
G01 X9.5386 Y15.5040
G01 X9.5193 Y15.5078
G01 X9.5047 Y15.5095
G01 X9.4900 Y15.5100
G01 X9.2303 Y15.5100
G01 X3.2403 Y21.5001
G01 X3.2403 Y33.9999
G01 X4.1001 Y34.8597
G01 X5.3170 Y34.8597
G01 X5.3684 Y34.8034
G01 X5.4388 Y34.7393
G01 X5.4500 Y34.7298
G01 X5.5305 Y34.6703
G01 X5.6121 Y34.6212
G01 X5.6250 Y34.6141
G01 X5.7155 Y34.5714
G01 X5.8144 Y34.5361
G01 X5.9163 Y34.5106
G01 X6.0201 Y34.4952
G01 X6.1250 Y34.4900
G01 X6.5750 Y34.4900
G01 X6.6750 Y34.4947
G01 X6.6896 Y34.4964
G01 X6.7741 Y34.5089
G01 X6.7933 Y34.5127
G01 X6.8856 Y34.5361
G01 X6.9845 Y34.5714
G01 X7.0794 Y34.6163
G01 X7.1695 Y34.6703
G01 X7.2538 Y34.7329
G01 X7.3245 Y34.7966
G01 X7.3384 Y34.8105
G01 X7.3957 Y34.8738
G01 X7.4082 Y34.8889
G01 X7.4647 Y34.9655
G01 X7.5138 Y35.0471
G01 X7.5231 Y35.0644
G01 X7.5636 Y35.1505
G01 X7.5989 Y35.2494
G01 X7.6244 Y35.3513
G01 X7.6398 Y35.4551
G01 X7.6450 Y35.5600
G01 X7.6398 Y35.6649
G01 X7.6244 Y35.7687
G01 X7.6003 Y35.8659
G01 X7.5958 Y35.8799
G01 X7.5671 Y35.9603
G01 X7.5596 Y35.9784
G01 X7.5187 Y36.0644
G01 X7.4647 Y36.1545
G01 X7.4082 Y36.2311
G01 X7.3957 Y36.2462
G01 X7.3316 Y36.3166
G01 X7.2538 Y36.3871
G01 X7.1695 Y36.4497
G01 X7.0879 Y36.4988
G01 X7.0706 Y36.5081
G01 X6.9845 Y36.5486
G01 X6.8856 Y36.5839
G01 X6.7933 Y36.6073
G01 X6.7741 Y36.6111
G01 X6.6799 Y36.6248
G01 X6.5750 Y36.6300
G01 X6.1152 Y36.6298
G01 X6.0201 Y36.6248
G01 X5.9259 Y36.6111
G01 X5.9067 Y36.6073
G01 X5.8191 Y36.5853
G01 X5.8051 Y36.5808
G01 X5.7247 Y36.5521
G01 X5.7066 Y36.5446
G01 X5.6206 Y36.5037
G01 X5.5347 Y36.4523
G01 X5.5225 Y36.4440
G01 X5.4539 Y36.3932
G01 X5.4424 Y36.3840
G01 X5.3684 Y36.3166
G01 X5.3170 Y36.2603
G01 X3.8051 Y36.2602
G01 X3.7414 Y36.2569
G01 X3.6831 Y36.2485
G01 X3.6638 Y36.2446
G01 X3.6114 Y36.2315
G01 X3.5974 Y36.2270
G01 X3.5420 Y36.2069
G01 X3.4887 Y36.1820
G01 X3.4714 Y36.1727
G01 X3.4210 Y36.1422
G01 X3.3735 Y36.1073
G01 X3.3620 Y36.0981
G01 X3.3220 Y36.0619
G01 X2.0381 Y34.7780
G01 X1.9987 Y34.7342
G01 X1.9578 Y34.6790
G01 X1.9224 Y34.6201
G01 X1.8931 Y34.5580
G01 X1.8699 Y34.4933
G01 X1.8532 Y34.4266
G01 X1.8431 Y34.3586
G01 X1.8400 Y34.2998
G00 Z2.0000
G00 X6.1250 Y39.1700
G01 F80.00
G01 Z-0.1026
G01 F240.00
G01 X6.0299 Y39.1656
G01 X6.0104 Y39.1636
G01 X5.9163 Y39.1494
G01 X5.8144 Y39.1239
G01 X5.7155 Y39.0886
G01 X5.6294 Y39.0481
G01 X5.6121 Y39.0388
G01 X5.5388 Y38.9949
G01 X5.5225 Y38.9840
G01 X5.4462 Y38.9271
G01 X5.3755 Y38.8634
G01 X5.3616 Y38.8495
G01 X5.3043 Y38.7862
G01 X5.2918 Y38.7711
G01 X5.2353 Y38.6945
G01 X5.1813 Y38.6044
G01 X5.1364 Y38.5095
G01 X5.1042 Y38.4199
G01 X5.0985 Y38.4011
G01 X5.0777 Y38.3183
G01 X5.0739 Y38.2991
G01 X5.0602 Y38.2049
G01 X5.0550 Y38.1000
G01 X5.0594 Y38.0049
G01 X5.0614 Y37.9854
G01 X5.0756 Y37.8913
G01 X5.1011 Y37.7894
G01 X5.1364 Y37.6905
G01 X5.1769 Y37.6044
G01 X5.1862 Y37.5871
G01 X5.2353 Y37.5055
G01 X5.2979 Y37.4212
G01 X5.3616 Y37.3505
G01 X5.3755 Y37.3366
G01 X5.4388 Y37.2793
G01 X5.4500 Y37.2698
G01 X5.5225 Y37.2160
G01 X5.5388 Y37.2051
G01 X5.6206 Y37.1563
G01 X5.7066 Y37.1154
G01 X5.7247 Y37.1079
G01 X5.8144 Y37.0761
G01 X5.9163 Y37.0506
G01 X6.0201 Y37.0352
G01 X6.1201 Y37.0301
G01 X6.5848 Y37.0302
G01 X6.6799 Y37.0352
G01 X6.7837 Y37.0506
G01 X6.8856 Y37.0761
G01 X6.9753 Y37.1079
G01 X6.9934 Y37.1154
G01 X7.0794 Y37.1563
G01 X7.1612 Y37.2051
G01 X7.1775 Y37.2160
G01 X7.2461 Y37.2668
G01 X7.2612 Y37.2793
G01 X7.3316 Y37.3434
G01 X7.3830 Y37.3997
G01 X8.5999 Y37.3997
G01 X9.4597 Y36.5399
G01 X9.4597 Y31.7500
G01 X9.4631 Y31.6814
G01 X9.4732 Y31.6134
G01 X9.4873 Y31.5562
G01 X9.4930 Y31.5374
G01 X9.5131 Y31.4820
G01 X9.5380 Y31.4287
G01 X9.5473 Y31.4114
G01 X9.5778 Y31.3610
G01 X9.6127 Y31.3135
G01 X9.6251 Y31.2983
G01 X9.6648 Y31.2548
G01 X10.5848 Y30.3348
G01 X10.6358 Y30.2887
G01 X10.6829 Y30.2534
G01 X10.6993 Y30.2425
G01 X10.7499 Y30.2124
G01 X10.8031 Y30.1870
G01 X10.8212 Y30.1795
G01 X10.8767 Y30.1599
G01 X10.9338 Y30.1454
G01 X10.9531 Y30.1415
G01 X11.0114 Y30.1331
G01 X11.0751 Y30.1298
G01 X18.2326 Y30.1297
G01 X18.2807 Y30.0286
G01 X18.3665 Y29.8855
G01 X18.4628 Y29.7554
G01 X18.4723 Y29.7441
G01 X18.5301 Y29.6804
G01 X17.8699 Y29.0203
G01 X17.7751 Y29.0202
G01 X17.7212 Y29.0176
G01 X17.7016 Y29.0157
G01 X17.6434 Y29.0068
G01 X17.5862 Y28.9927
G01 X17.5720 Y28.9886
G01 X17.5199 Y28.9700
G01 X17.1751 Y28.9699
G01 X17.1653 Y28.9695
G01 X17.1507 Y28.9678
G01 X17.1314 Y28.9640
G01 X17.1173 Y28.9599
G01 X17.1035 Y28.9548
G01 X17.0901 Y28.9486
G01 X17.0772 Y28.9415
G01 X17.0648 Y28.9335
G01 X17.0570 Y28.9277
G01 X17.0457 Y28.9182
G01 X17.0352 Y28.9079
G01 X17.0254 Y28.8969
G01 X17.0165 Y28.8852
G01 X17.0085 Y28.8728
G01 X17.0014 Y28.8599
G01 X16.9952 Y28.8465
G01 X16.9901 Y28.8327
G01 X16.9860 Y28.8186
G01 X16.9829 Y28.8042
G01 X16.9810 Y28.7896
G01 X16.9800 Y28.7700
G01 X16.9801 Y27.8651
G01 X16.9810 Y27.8504
G01 X16.9829 Y27.8358
G01 X16.9849 Y27.8262
G01 X16.9886 Y27.8119
G01 X16.9934 Y27.7980
G01 X16.9992 Y27.7845
G01 X17.0060 Y27.7714
G01 X17.0137 Y27.7589
G01 X17.0254 Y27.7431
G01 X17.0386 Y27.7286
G01 X17.0531 Y27.7154
G01 X17.0689 Y27.7037
G01 X17.0857 Y27.6936
G01 X17.1035 Y27.6852
G01 X17.1219 Y27.6786
G01 X17.1362 Y27.6749
G01 X17.1458 Y27.6729
G01 X17.1604 Y27.6710
G01 X17.1800 Y27.6700
G01 X17.5199 Y27.6700
G01 X17.5767 Y27.6499
G01 X17.6434 Y27.6332
G01 X17.7114 Y27.6231
G01 X17.7751 Y27.6198
G01 X18.1649 Y27.6198
G01 X18.2286 Y27.6231
G01 X18.2869 Y27.6315
G01 X18.3062 Y27.6354
G01 X18.3633 Y27.6499
G01 X18.4280 Y27.6731
G01 X18.4452 Y27.6810
G01 X18.4600 Y27.6867
G01 X18.4731 Y27.6930
G01 X18.4986 Y27.7073
G01 X18.5490 Y27.7378
G01 X18.6042 Y27.7787
G01 X18.6552 Y27.8248
G01 X19.9720 Y29.1417
G01 X20.1117 Y29.1627
G01 X20.2640 Y29.2006
G01 X20.2828 Y29.2063
G01 X20.4214 Y29.2559
G01 X20.4395 Y29.2634
G01 X20.5814 Y29.3307
G01 X20.7162 Y29.4112
G01 X20.7325 Y29.4222
G01 X20.8585 Y29.5159
G01 X20.9821 Y29.6279
G01 X21.0941 Y29.7515
G01 X21.1878 Y29.8775
G01 X21.1988 Y29.8938
G01 X21.2793 Y30.0286
G01 X21.3466 Y30.1705
G01 X21.3541 Y30.1886
G01 X21.4037 Y30.3272
G01 X21.4094 Y30.3460
G01 X21.4473 Y30.4983
G01 X21.4718 Y30.6634
G01 X21.4800 Y30.8300
G01 X21.4725 Y30.9868
G01 X21.4706 Y31.0064
G01 X21.4473 Y31.1617
G01 X21.4094 Y31.3140
G01 X21.4037 Y31.3328
G01 X21.3506 Y31.4806
G01 X21.2793 Y31.6314
G01 X21.1988 Y31.7662
G01 X21.1878 Y31.7825
G01 X21.0941 Y31.9085
G01 X20.9889 Y32.0250
G01 X20.9750 Y32.0389
G01 X20.8585 Y32.1441
G01 X20.7325 Y32.2378
G01 X20.7162 Y32.2488
G01 X20.5814 Y32.3293
G01 X20.4395 Y32.3966
G01 X20.4214 Y32.4041
G01 X20.2735 Y32.4568
G01 X20.1212 Y32.4952
G01 X20.1068 Y32.4982
G01 X19.9466 Y32.5218
G01 X19.7898 Y32.5298
G01 X19.7702 Y32.5298
G01 X19.6232 Y32.5225
G01 X19.6036 Y32.5206
G01 X19.4483 Y32.4973
G01 X19.2865 Y32.4568
G01 X19.1294 Y32.4006
G01 X18.9830 Y32.3315
G01 X18.9701 Y32.3244
G01 X18.8438 Y32.2488
G01 X18.8275 Y32.2378
G01 X18.7015 Y32.1441
G01 X18.5850 Y32.0389
G01 X18.5745 Y32.0286
G01 X18.4659 Y31.9085
G01 X18.3665 Y31.7745
G01 X18.2807 Y31.6314
G01 X18.2326 Y31.5303
G01 X11.3701 Y31.5303
G01 X10.8603 Y32.0401
G01 X10.8602 Y36.8349
G01 X10.8569 Y36.8986
G01 X10.8485 Y36.9569
G01 X10.8446 Y36.9762
G01 X10.8301 Y37.0333
G01 X10.8069 Y37.0980
G01 X10.7820 Y37.1513
G01 X10.7727 Y37.1686
G01 X10.7475 Y37.2107
G01 X10.7395 Y37.2231
G01 X10.7013 Y37.2742
G01 X10.6552 Y37.3252
G01 X9.3816 Y38.5986
G01 X9.3342 Y38.6413
G01 X9.2790 Y38.6822
G01 X9.2201 Y38.7176
G01 X9.1580 Y38.7469
G01 X9.0933 Y38.7701
G01 X9.0266 Y38.7868
G01 X8.9586 Y38.7969
G01 X8.8949 Y38.8002
G01 X7.3830 Y38.8003
G01 X7.3316 Y38.8566
G01 X7.2612 Y38.9207
G01 X7.2461 Y38.9332
G01 X7.1695 Y38.9897
G01 X7.0879 Y39.0388
G01 X7.0706 Y39.0481
G01 X6.9845 Y39.0886
G01 X6.8856 Y39.1239
G01 X6.7837 Y39.1494
G01 X6.6896 Y39.1636
G01 X6.6701 Y39.1656
G01 X6.5750 Y39.1700
G01 X6.1250 Y39.1700
G00 Z2.0000
G00 X5.6497 Y41.5977
G01 F80.00
G01 Z-0.1026
G01 F240.00
G01 X5.6250 Y41.5859
G01 X5.6163 Y41.5813
G01 X5.5347 Y41.5323
G01 X5.5225 Y41.5240
G01 X5.4500 Y41.4702
G01 X5.4388 Y41.4607
G01 X5.3684 Y41.3966
G01 X5.3043 Y41.3262
G01 X5.2948 Y41.3150
G01 X5.2410 Y41.2425
G01 X5.2301 Y41.2262
G01 X5.1813 Y41.1444
G01 X5.1404 Y41.0584
G01 X5.1329 Y41.0403
G01 X5.1011 Y40.9506
G01 X5.0777 Y40.8583
G01 X5.0747 Y40.8439
G01 X5.0614 Y40.7546
G01 X5.0594 Y40.7351
G01 X5.0550 Y40.6400
G01 X5.0594 Y40.5449
G01 X5.0614 Y40.5254
G01 X5.0756 Y40.4313
G01 X5.1011 Y40.3294
G01 X5.1329 Y40.2397
G01 X5.1404 Y40.2216
G01 X5.1813 Y40.1356
G01 X5.2301 Y40.0538
G01 X5.2410 Y40.0375
G01 X5.2979 Y39.9612
G01 X5.3684 Y39.8834
G01 X5.4462 Y39.8129
G01 X5.5305 Y39.7503
G01 X5.6206 Y39.6963
G01 X5.7155 Y39.6514
G01 X5.8144 Y39.6161
G01 X5.9163 Y39.5906
G01 X6.0201 Y39.5752
G01 X6.1250 Y39.5700
G01 X6.5750 Y39.5700
G01 X6.6701 Y39.5744
G01 X6.6896 Y39.5764
G01 X6.7837 Y39.5906
G01 X6.8761 Y39.6135
G01 X6.8949 Y39.6192
G01 X6.9845 Y39.6514
G01 X7.0706 Y39.6919
G01 X7.0879 Y39.7012
G01 X7.1695 Y39.7503
G01 X7.2461 Y39.8068
G01 X7.2612 Y39.8193
G01 X7.3316 Y39.8834
G01 X7.4021 Y39.9612
G01 X7.4647 Y40.0455
G01 X7.5187 Y40.1356
G01 X7.5636 Y40.2305
G01 X7.5989 Y40.3294
G01 X7.6244 Y40.4313
G01 X7.6398 Y40.5351
G01 X7.6448 Y40.6302
G01 X7.6449 Y40.6449
G01 X7.6398 Y40.7449
G01 X7.6261 Y40.8391
G01 X7.6223 Y40.8583
G01 X7.5989 Y40.9506
G01 X7.5671 Y41.0403
G01 X7.5596 Y41.0584
G01 X7.5187 Y41.1444
G01 X7.4673 Y41.2303
G01 X7.4590 Y41.2425
G01 X7.4082 Y41.3111
G01 X7.3957 Y41.3262
G01 X7.3316 Y41.3966
G01 X7.2576 Y41.4640
G01 X7.2461 Y41.4732
G01 X7.1775 Y41.5240
G01 X7.1653 Y41.5323
G01 X7.0837 Y41.5813
G01 X7.0750 Y41.5859
G01 X7.0503 Y41.5977
G01 X7.0503 Y49.2399
G01 X8.2601 Y50.4497
G01 X18.2326 Y50.4497
G01 X18.2807 Y50.3486
G01 X18.3665 Y50.2055
G01 X18.4628 Y50.0754
G01 X18.4723 Y50.0641
G01 X18.5301 Y50.0004
G01 X17.8699 Y49.3403
G01 X17.7751 Y49.3402
G01 X17.7212 Y49.3376
G01 X17.7016 Y49.3357
G01 X17.6434 Y49.3268
G01 X17.5862 Y49.3127
G01 X17.5720 Y49.3086
G01 X17.5199 Y49.2900
G01 X17.1800 Y49.2900
G01 X17.1653 Y49.2895
G01 X17.1507 Y49.2878
G01 X17.1314 Y49.2840
G01 X17.1126 Y49.2783
G01 X17.0945 Y49.2708
G01 X17.0814 Y49.2640
G01 X17.0648 Y49.2535
G01 X17.0531 Y49.2446
G01 X17.0421 Y49.2348
G01 X17.0286 Y49.2206
G01 X17.0194 Y49.2091
G01 X17.0085 Y49.1928
G01 X17.0014 Y49.1799
G01 X16.9934 Y49.1620
G01 X16.9886 Y49.1481
G01 X16.9849 Y49.1338
G01 X16.9815 Y49.1145
G01 X16.9802 Y49.0998
G01 X16.9800 Y48.1900
G01 X16.9810 Y48.1704
G01 X16.9829 Y48.1558
G01 X16.9860 Y48.1414
G01 X16.9917 Y48.1226
G01 X16.9972 Y48.1090
G01 X17.0060 Y48.0914
G01 X17.0137 Y48.0789
G01 X17.0254 Y48.0631
G01 X17.0352 Y48.0521
G01 X17.0494 Y48.0386
G01 X17.0609 Y48.0294
G01 X17.0772 Y48.0185
G01 X17.0945 Y48.0092
G01 X17.1080 Y48.0034
G01 X17.1267 Y47.9972
G01 X17.1410 Y47.9938
G01 X17.1604 Y47.9910
G01 X17.1800 Y47.9900
G01 X17.5199 Y47.9900
G01 X17.5767 Y47.9699
G01 X17.6434 Y47.9532
G01 X17.7114 Y47.9431
G01 X17.7702 Y47.9400
G01 X18.1600 Y47.9397
G01 X18.2188 Y47.9424
G01 X18.2335 Y47.9437
G01 X18.2966 Y47.9532
G01 X18.3538 Y47.9673
G01 X18.3726 Y47.9730
G01 X18.4280 Y47.9931
G01 X18.4452 Y48.0010
G01 X18.4600 Y48.0067
G01 X18.4731 Y48.0130
G01 X18.4986 Y48.0273
G01 X18.5407 Y48.0525
G01 X18.5571 Y48.0634
G01 X18.5965 Y48.0927
G01 X18.6080 Y48.1019
G01 X18.6552 Y48.1448
G01 X19.9720 Y49.4617
G01 X20.1117 Y49.4827
G01 X20.2640 Y49.5206
G01 X20.2828 Y49.5263
G01 X20.4214 Y49.5759
G01 X20.4395 Y49.5834
G01 X20.5814 Y49.6507
G01 X20.7162 Y49.7312
G01 X20.7325 Y49.7422
G01 X20.8585 Y49.8359
G01 X20.9821 Y49.9479
G01 X21.0941 Y50.0715
G01 X21.1907 Y50.2015
G01 X21.1988 Y50.2138
G01 X21.2744 Y50.3401
G01 X21.2837 Y50.3574
G01 X21.3506 Y50.4994
G01 X21.4068 Y50.6565
G01 X21.4473 Y50.8183
G01 X21.4706 Y50.9736
G01 X21.4725 Y50.9932
G01 X21.4800 Y51.1500
G01 X21.4718 Y51.3166
G01 X21.4490 Y51.4720
G01 X21.4452 Y51.4912
G01 X21.4068 Y51.6435
G01 X21.3541 Y51.7914
G01 X21.3466 Y51.8095
G01 X21.2793 Y51.9514
G01 X21.1935 Y52.0945
G01 X21.1002 Y52.2207
G01 X21.0877 Y52.2359
G01 X20.9821 Y52.3521
G01 X20.8659 Y52.4577
G01 X20.8507 Y52.4702
G01 X20.7245 Y52.5635
G01 X20.5814 Y52.6493
G01 X20.4395 Y52.7166
G01 X20.4214 Y52.7241
G01 X20.2735 Y52.7768
G01 X20.1212 Y52.8152
G01 X20.1020 Y52.8190
G01 X19.9466 Y52.8418
G01 X19.7898 Y52.8498
G01 X19.7751 Y52.8499
G01 X19.6134 Y52.8418
G01 X19.4580 Y52.8190
G01 X19.4388 Y52.8152
G01 X19.2865 Y52.7768
G01 X19.1386 Y52.7241
G01 X19.1205 Y52.7166
G01 X18.9786 Y52.6493
G01 X18.8396 Y52.5662
G01 X18.8275 Y52.5578
G01 X18.7093 Y52.4702
G01 X18.6941 Y52.4577
G01 X18.5779 Y52.3521
G01 X18.4690 Y52.2322
G01 X18.4598 Y52.2207
G01 X18.3722 Y52.1025
G01 X18.3638 Y52.0904
G01 X18.2807 Y51.9514
G01 X18.2326 Y51.8503
G01 X7.9700 Y51.8503
G01 X7.9014 Y51.8469
G01 X7.8431 Y51.8385
G01 X7.8238 Y51.8346
G01 X7.7667 Y51.8201
G01 X7.7112 Y51.8005
G01 X7.6931 Y51.7930
G01 X7.6399 Y51.7676
G01 X7.5810 Y51.7322
G01 X7.5258 Y51.6913
G01 X7.4748 Y51.6452
G01 X5.8481 Y50.0180
G01 X5.8087 Y49.9742
G01 X5.7734 Y49.9271
G01 X5.7625 Y49.9107
G01 X5.7324 Y49.8601
G01 X5.7070 Y49.8069
G01 X5.6995 Y49.7888
G01 X5.6799 Y49.7333
G01 X5.6632 Y49.6666
G01 X5.6531 Y49.5986
G01 X5.6497 Y49.5300
G01 X5.6497 Y41.5977
G00 Z2.0000
G00 X9.4597 Y44.8717
G01 F80.00
G01 Z-0.1026
G01 F240.00
G01 X9.4597 Y44.0283
G01 X9.3893 Y43.9646
G01 X9.3754 Y43.9507
G01 X9.3097 Y43.8778
G01 X9.2510 Y43.7992
G01 X9.2401 Y43.7828
G01 X9.1899 Y43.6985
G01 X9.1477 Y43.6099
G01 X9.1402 Y43.5918
G01 X9.1074 Y43.4993
G01 X9.0833 Y43.4042
G01 X9.0795 Y43.3849
G01 X9.0653 Y43.2878
G01 X9.0602 Y43.1898
G01 X9.0602 Y43.1702
G01 X9.0653 Y43.0722
G01 X9.0802 Y42.9702
G01 X9.0833 Y42.9558
G01 X9.1047 Y42.8701
G01 X9.1104 Y42.8514
G01 X9.1437 Y42.7590
G01 X9.1899 Y42.6615
G01 X9.2454 Y42.5689
G01 X9.3036 Y42.4899
G01 X9.3161 Y42.4747
G01 X9.3822 Y42.4022
G01 X9.4547 Y42.3361
G01 X9.4699 Y42.3236
G01 X9.5489 Y42.2654
G01 X9.6415 Y42.2099
G01 X9.7301 Y42.1677
G01 X9.7482 Y42.1602
G01 X9.8407 Y42.1274
G01 X9.9454 Y42.1011
G01 X10.0424 Y42.0865
G01 X10.0620 Y42.0846
G01 X10.1600 Y42.0800
G01 X10.2580 Y42.0846
G01 X10.2776 Y42.0865
G01 X10.3746 Y42.1011
G01 X10.4699 Y42.1247
G01 X10.4886 Y42.1304
G01 X10.5810 Y42.1637
G01 X10.6698 Y42.2055
G01 X10.6871 Y42.2147
G01 X10.7711 Y42.2654
G01 X10.8501 Y42.3236
G01 X10.8653 Y42.3361
G01 X10.9378 Y42.4022
G01 X11.0083 Y42.4797
G01 X18.1171 Y42.4797
G01 X18.1532 Y42.3365
G01 X18.2094 Y42.1794
G01 X18.2807 Y42.0286
G01 X18.3612 Y41.8938
G01 X18.3722 Y41.8775
G01 X18.4598 Y41.7593
G01 X18.4723 Y41.7441
G01 X18.5779 Y41.6279
G01 X18.7015 Y41.5159
G01 X18.8355 Y41.4165
G01 X18.9786 Y41.3307
G01 X19.1294 Y41.2594
G01 X19.2772 Y41.2063
G01 X19.2960 Y41.2006
G01 X19.4388 Y41.1648
G01 X19.4580 Y41.1610
G01 X19.6134 Y41.1382
G01 X19.7702 Y41.1302
G01 X19.7849 Y41.1301
G01 X19.9466 Y41.1382
G01 X20.1117 Y41.1627
G01 X20.2735 Y41.2032
G01 X20.4214 Y41.2559
G01 X20.4395 Y41.2634
G01 X20.5726 Y41.3263
G01 X20.5899 Y41.3356
G01 X20.7245 Y41.4165
G01 X20.8585 Y41.5159
G01 X20.9821 Y41.6279
G01 X21.0941 Y41.7515
G01 X21.1935 Y41.8855
G01 X21.2744 Y42.0201
G01 X21.2837 Y42.0374
G01 X21.3466 Y42.1705
G01 X21.3541 Y42.1886
G01 X21.4068 Y42.3365
G01 X21.4473 Y42.4983
G01 X21.4718 Y42.6634
G01 X21.4798 Y42.8202
G01 X21.4798 Y42.8398
G01 X21.4718 Y42.9966
G01 X21.4490 Y43.1520
G01 X21.4452 Y43.1712
G01 X21.4094 Y43.3140
G01 X21.4037 Y43.3328
G01 X21.3506 Y43.4806
G01 X21.2793 Y43.6314
G01 X21.1935 Y43.7745
G01 X21.1002 Y43.9007
G01 X21.0910 Y43.9122
G01 X20.9821 Y44.0321
G01 X20.8659 Y44.1377
G01 X20.8507 Y44.1502
G01 X20.7245 Y44.2435
G01 X20.5814 Y44.3293
G01 X20.4395 Y44.3966
G01 X20.4214 Y44.4041
G01 X20.2828 Y44.4537
G01 X20.2688 Y44.4582
G01 X20.1117 Y44.4973
G01 X19.9564 Y44.5206
G01 X19.9368 Y44.5225
G01 X19.7898 Y44.5298
G01 X19.7751 Y44.5299
G01 X19.6134 Y44.5218
G01 X19.4483 Y44.4973
G01 X19.2865 Y44.4568
G01 X19.1810 Y44.4193
G01 X18.5800 Y45.0203
G01 X18.5800 Y45.7900
G01 X18.5790 Y45.8096
G01 X18.5771 Y45.8242
G01 X18.5740 Y45.8386
G01 X18.5683 Y45.8574
G01 X18.5628 Y45.8710
G01 X18.5564 Y45.8843
G01 X18.5490 Y45.8970
G01 X18.5406 Y45.9091
G01 X18.5314 Y45.9206
G01 X18.5214 Y45.9314
G01 X18.5106 Y45.9414
G01 X18.4991 Y45.9506
G01 X18.4870 Y45.9590
G01 X18.4743 Y45.9664
G01 X18.4610 Y45.9728
G01 X18.4474 Y45.9783
G01 X18.4333 Y45.9828
G01 X18.4190 Y45.9862
G01 X18.3996 Y45.9890
G01 X18.3800 Y45.9900
G01 X18.0401 Y45.9900
G01 X17.9833 Y46.0101
G01 X17.9166 Y46.0268
G01 X17.8486 Y46.0369
G01 X17.7800 Y46.0403
G01 X17.7114 Y46.0369
G01 X17.6434 Y46.0268
G01 X17.5767 Y46.0101
G01 X17.5199 Y45.9900
G01 X17.1800 Y45.9900
G01 X17.1604 Y45.9890
G01 X17.1458 Y45.9871
G01 X17.1314 Y45.9840
G01 X17.1173 Y45.9799
G01 X17.1035 Y45.9748
G01 X17.0901 Y45.9686
G01 X17.0772 Y45.9615
G01 X17.0648 Y45.9535
G01 X17.0531 Y45.9446
G01 X17.0421 Y45.9348
G01 X17.0318 Y45.9243
G01 X17.0223 Y45.9130
G01 X17.0165 Y45.9052
G01 X17.0085 Y45.8928
G01 X17.0014 Y45.8799
G01 X16.9952 Y45.8665
G01 X16.9901 Y45.8527
G01 X16.9860 Y45.8386
G01 X16.9829 Y45.8242
G01 X16.9805 Y45.8047
G01 X16.9800 Y45.7900
G01 X16.9800 Y44.8900
G01 X16.9805 Y44.8753
G01 X16.9829 Y44.8558
G01 X16.9872 Y44.8367
G01 X16.9934 Y44.8180
G01 X17.0014 Y44.8001
G01 X17.0110 Y44.7830
G01 X17.0223 Y44.7670
G01 X17.0318 Y44.7557
G01 X17.0457 Y44.7418
G01 X17.0609 Y44.7294
G01 X17.0772 Y44.7185
G01 X17.0903 Y44.7112
G01 X17.0923 Y44.6982
G01 X17.0942 Y44.6886
G01 X17.1099 Y44.6267
G01 X17.1295 Y44.5712
G01 X17.1350 Y44.5575
G01 X17.1624 Y44.4999
G01 X17.1925 Y44.4493
G01 X17.2034 Y44.4329
G01 X17.2356 Y44.3896
G01 X17.2451 Y44.3783
G01 X17.2848 Y44.3348
G01 X17.7394 Y43.8803
G01 X11.0083 Y43.8803
G01 X10.9378 Y43.9578
G01 X10.8603 Y44.0283
G01 X10.8603 Y44.8717
G01 X10.9378 Y44.9422
G01 X11.0039 Y45.0147
G01 X11.0164 Y45.0299
G01 X11.0746 Y45.1089
G01 X11.1301 Y45.2015
G01 X11.1723 Y45.2901
G01 X11.1798 Y45.3082
G01 X11.2126 Y45.4007
G01 X11.2389 Y45.5054
G01 X11.2535 Y45.6024
G01 X11.2554 Y45.6220
G01 X11.2600 Y45.7200
G01 X11.2554 Y45.8180
G01 X11.2535 Y45.8376
G01 X11.2389 Y45.9346
G01 X11.2153 Y46.0299
G01 X11.2096 Y46.0486
G01 X11.1798 Y46.1318
G01 X11.1723 Y46.1499
G01 X11.1301 Y46.2385
G01 X11.0746 Y46.3311
G01 X11.0103 Y46.4178
G01 X10.9446 Y46.4907
G01 X10.9307 Y46.5046
G01 X10.8578 Y46.5703
G01 X10.7711 Y46.6346
G01 X10.6871 Y46.6853
G01 X10.6698 Y46.6945
G01 X10.5810 Y46.7363
G01 X10.4886 Y46.7696
G01 X10.4699 Y46.7753
G01 X10.3746 Y46.7989
G01 X10.2727 Y46.8142
G01 X10.2580 Y46.8154
G01 X10.1698 Y46.8198
G01 X10.1502 Y46.8198
G01 X10.0522 Y46.8147
G01 X9.9454 Y46.7989
G01 X9.8407 Y46.7726
G01 X9.7482 Y46.7398
G01 X9.7301 Y46.7323
G01 X9.6502 Y46.6945
G01 X9.6329 Y46.6853
G01 X9.5489 Y46.6346
G01 X9.4622 Y46.5703
G01 X9.3822 Y46.4978
G01 X9.3161 Y46.4253
G01 X9.3036 Y46.4101
G01 X9.2510 Y46.3392
G01 X9.2401 Y46.3228
G01 X9.1899 Y46.2385
G01 X9.1437 Y46.1410
G01 X9.1104 Y46.0486
G01 X9.1047 Y46.0299
G01 X9.0811 Y45.9346
G01 X9.0653 Y45.8278
G01 X9.0600 Y45.7200
G01 X9.0646 Y45.6220
G01 X9.0665 Y45.6024
G01 X9.0795 Y45.5151
G01 X9.0833 Y45.4958
G01 X9.1074 Y45.4007
G01 X9.1437 Y45.2990
G01 X9.1899 Y45.2015
G01 X9.2401 Y45.1172
G01 X9.2510 Y45.1008
G01 X9.3036 Y45.0299
G01 X9.3161 Y45.0147
G01 X9.3822 Y44.9422
G01 X9.4597 Y44.8717
G00 Z2.0000
G00 X11.0083 Y64.2003
G01 F80.00
G01 Z-0.1026
G01 F240.00
G01 X10.9378 Y64.2778
G01 X10.8578 Y64.3503
G01 X10.7711 Y64.4146
G01 X10.6785 Y64.4701
G01 X10.5810 Y64.5163
G01 X10.4793 Y64.5526
G01 X10.3746 Y64.5789
G01 X10.2678 Y64.5947
G01 X10.1600 Y64.6000
G01 X10.0522 Y64.5947
G01 X9.9454 Y64.5789
G01 X9.8407 Y64.5526
G01 X9.7390 Y64.5163
G01 X9.6415 Y64.4701
G01 X9.5489 Y64.4146
G01 X9.4622 Y64.3503
G01 X9.3822 Y64.2778
G01 X9.3097 Y64.1978
G01 X9.2454 Y64.1111
G01 X9.1899 Y64.0185
G01 X9.1437 Y63.9210
G01 X9.1074 Y63.8193
G01 X9.0811 Y63.7146
G01 X9.0653 Y63.6078
G01 X9.0600 Y63.5000
G01 X9.0653 Y63.3922
G01 X9.0811 Y63.2854
G01 X9.1074 Y63.1807
G01 X9.1437 Y63.0790
G01 X9.1899 Y62.9815
G01 X9.2454 Y62.8889
G01 X9.3097 Y62.8022
G01 X9.3822 Y62.7222
G01 X9.4547 Y62.6561
G01 X9.4699 Y62.6436
G01 X9.5408 Y62.5910
G01 X9.5572 Y62.5801
G01 X9.6415 Y62.5299
G01 X9.7301 Y62.4877
G01 X9.7482 Y62.4802
G01 X9.8407 Y62.4474
G01 X9.9454 Y62.4211
G01 X10.0522 Y62.4053
G01 X10.1600 Y62.4000
G01 X10.2678 Y62.4053
G01 X10.3746 Y62.4211
G01 X10.4793 Y62.4474
G01 X10.5718 Y62.4802
G01 X10.5899 Y62.4877
G01 X10.6785 Y62.5299
G01 X10.7628 Y62.5801
G01 X10.7792 Y62.5910
G01 X10.8501 Y62.6436
G01 X10.8653 Y62.6561
G01 X10.9378 Y62.7222
G01 X11.0083 Y62.7997
G01 X18.1171 Y62.7997
G01 X18.1532 Y62.6565
G01 X18.2094 Y62.4994
G01 X18.2807 Y62.3486
G01 X18.3612 Y62.2138
G01 X18.3722 Y62.1975
G01 X18.4598 Y62.0793
G01 X18.4723 Y62.0641
G01 X18.5779 Y61.9479
G01 X18.7015 Y61.8359
G01 X18.8355 Y61.7365
G01 X18.9786 Y61.6507
G01 X19.1294 Y61.5794
G01 X19.2772 Y61.5263
G01 X19.2960 Y61.5206
G01 X19.4388 Y61.4848
G01 X19.4580 Y61.4810
G01 X19.6134 Y61.4582
G01 X19.7702 Y61.4502
G01 X19.7849 Y61.4501
G01 X19.9466 Y61.4582
G01 X20.1117 Y61.4827
G01 X20.2735 Y61.5232
G01 X20.4306 Y61.5794
G01 X20.5814 Y61.6507
G01 X20.7245 Y61.7365
G01 X20.8585 Y61.8359
G01 X20.9750 Y61.9411
G01 X20.9889 Y61.9550
G01 X21.0877 Y62.0641
G01 X21.1002 Y62.0793
G01 X21.1935 Y62.2055
G01 X21.2744 Y62.3401
G01 X21.2837 Y62.3574
G01 X21.3506 Y62.4994
G01 X21.4068 Y62.6565
G01 X21.4473 Y62.8183
G01 X21.4713 Y62.9785
G01 X21.4725 Y62.9932
G01 X21.4800 Y63.1500
G01 X21.4718 Y63.3166
G01 X21.4473 Y63.4817
G01 X21.4068 Y63.6435
G01 X21.3506 Y63.8006
G01 X21.2793 Y63.9514
G01 X21.1935 Y64.0945
G01 X21.0941 Y64.2285
G01 X20.9821 Y64.3521
G01 X20.8585 Y64.4641
G01 X20.7245 Y64.5635
G01 X20.5814 Y64.6493
G01 X20.4306 Y64.7206
G01 X20.2735 Y64.7768
G01 X20.1117 Y64.8173
G01 X19.9515 Y64.8413
G01 X19.9368 Y64.8425
G01 X19.7800 Y64.8500
G01 X19.6232 Y64.8425
G01 X19.6036 Y64.8406
G01 X19.4483 Y64.8173
G01 X19.2960 Y64.7794
G01 X19.2772 Y64.7737
G01 X19.1294 Y64.7206
G01 X18.9874 Y64.6537
G01 X18.9701 Y64.6444
G01 X18.8355 Y64.5635
G01 X18.7093 Y64.4702
G01 X18.6941 Y64.4577
G01 X18.5779 Y64.3521
G01 X18.4690 Y64.2322
G01 X18.4628 Y64.2246
G01 X18.4447 Y64.2003
G01 X11.0083 Y64.2003
G00 Z2.0000
G00 X40.2055 Y61.4492
G01 F80.00
G01 Z-0.1026
G01 F240.00
G01 X40.7074 Y60.9474
G01 X40.8311 Y60.8353
G01 X40.9651 Y60.7359
G01 X41.0997 Y60.6549
G01 X41.1170 Y60.6457
G01 X41.2502 Y60.5827
G01 X41.2683 Y60.5752
G01 X41.4163 Y60.5225
G01 X41.5782 Y60.4819
G01 X41.7433 Y60.4574
G01 X41.9100 Y60.4492
G01 X42.0767 Y60.4574
G01 X42.2418 Y60.4819
G01 X42.4037 Y60.5225
G01 X42.5608 Y60.5787
G01 X42.7117 Y60.6501
G01 X42.8549 Y60.7359
G01 X42.9889 Y60.8353
G01 X43.1126 Y60.9474
G01 X43.2247 Y61.0711
G01 X43.3241 Y61.2051
G01 X43.4099 Y61.3483
G01 X43.4813 Y61.4992
G01 X43.5375 Y61.6563
G01 X43.5781 Y61.8182
G01 X43.6026 Y61.9833
G01 X43.6108 Y62.1500
G01 X43.6026 Y62.3167
G01 X43.5781 Y62.4818
G01 X43.5375 Y62.6437
G01 X43.4813 Y62.8008
G01 X43.4099 Y62.9517
G01 X43.3294 Y63.0866
G01 X43.3185 Y63.1029
G01 X43.2307 Y63.2212
G01 X43.2183 Y63.2364
G01 X43.1126 Y63.3526
G01 X42.1126 Y64.3526
G01 X41.9927 Y64.4615
G01 X41.9812 Y64.4707
G01 X41.8629 Y64.5585
G01 X41.8466 Y64.5694
G01 X41.7117 Y64.6499
G01 X41.5608 Y64.7213
G01 X41.4037 Y64.7775
G01 X41.2514 Y64.8159
G01 X41.2321 Y64.8197
G01 X41.0864 Y64.8414
G01 X41.0669 Y64.8433
G01 X40.9100 Y64.8508
G01 X31.9800 Y64.8508
G01 X31.8231 Y64.8433
G01 X31.8084 Y64.8420
G01 X31.6482 Y64.8181
G01 X31.4958 Y64.7801
G01 X31.4770 Y64.7744
G01 X31.3383 Y64.7248
G01 X31.3202 Y64.7173
G01 X31.1783 Y64.6499
G01 X31.0351 Y64.5641
G01 X30.9011 Y64.4647
G01 X30.7845 Y64.3594
G01 X30.7706 Y64.3455
G01 X30.6717 Y64.2364
G01 X30.6593 Y64.2212
G01 X30.5659 Y64.0949
G01 X30.4801 Y63.9517
G01 X30.4127 Y63.8098
G01 X30.4052 Y63.7917
G01 X30.3525 Y63.6437
G01 X30.3119 Y63.4818
G01 X30.2874 Y63.3167
G01 X30.2792 Y63.1500
G01 X30.2874 Y62.9833
G01 X30.3119 Y62.8182
G01 X30.3525 Y62.6563
G01 X30.4087 Y62.4992
G01 X30.4801 Y62.3483
G01 X30.5659 Y62.2051
G01 X30.6653 Y62.0711
G01 X30.7774 Y61.9474
G01 X30.9011 Y61.8353
G01 X31.0351 Y61.7359
G01 X31.1783 Y61.6501
G01 X31.3292 Y61.5787
G01 X31.4863 Y61.5225
G01 X31.6482 Y61.4819
G01 X31.8133 Y61.4574
G01 X31.9800 Y61.4492
G01 X40.2055 Y61.4492
G00 Z2.0000
G00 X41.9100 Y55.4492
G01 F80.00
G01 Z-0.1026
G01 F240.00
G01 X42.0767 Y55.4574
G01 X42.2418 Y55.4819
G01 X42.4037 Y55.5225
G01 X42.5608 Y55.5787
G01 X42.7117 Y55.6501
G01 X42.8549 Y55.7359
G01 X42.9889 Y55.8353
G01 X43.1126 Y55.9474
G01 X43.2247 Y56.0711
G01 X43.3241 Y56.2051
G01 X43.4099 Y56.3483
G01 X43.4813 Y56.4992
G01 X43.5375 Y56.6563
G01 X43.5781 Y56.8182
G01 X43.6026 Y56.9833
G01 X43.6105 Y57.1402
G01 X43.6105 Y57.1598
G01 X43.6026 Y57.3167
G01 X43.5781 Y57.4818
G01 X43.5375 Y57.6437
G01 X43.4848 Y57.7917
G01 X43.4773 Y57.8098
G01 X43.4143 Y57.9430
G01 X43.4051 Y57.9603
G01 X43.3241 Y58.0949
G01 X43.2307 Y58.2212
G01 X43.2183 Y58.2364
G01 X43.1126 Y58.3526
G01 X42.9889 Y58.4647
G01 X42.8549 Y58.5641
G01 X42.7117 Y58.6499
G01 X42.5608 Y58.7213
G01 X42.4037 Y58.7775
G01 X42.2418 Y58.8181
G01 X42.0864 Y58.8414
G01 X42.0718 Y58.8430
G01 X41.9100 Y58.8508
G01 X17.7800 Y58.8508
G01 X17.6231 Y58.8433
G01 X17.6036 Y58.8414
G01 X17.4482 Y58.8181
G01 X17.2958 Y58.7801
G01 X17.2770 Y58.7744
G01 X17.1383 Y58.7248
G01 X17.1202 Y58.7173
G01 X16.9783 Y58.6499
G01 X16.8351 Y58.5641
G01 X16.7011 Y58.4647
G01 X16.5774 Y58.3526
G01 X16.4653 Y58.2289
G01 X16.3659 Y58.0949
G01 X16.2801 Y57.9517
G01 X16.2127 Y57.8098
G01 X16.2052 Y57.7917
G01 X16.1556 Y57.6530
G01 X16.1499 Y57.6342
G01 X16.1119 Y57.4818
G01 X16.0886 Y57.3264
G01 X16.0870 Y57.3118
G01 X16.0792 Y57.1500
G01 X16.0874 Y56.9833
G01 X16.1119 Y56.8182
G01 X16.1525 Y56.6563
G01 X16.2087 Y56.4992
G01 X16.2801 Y56.3483
G01 X16.3659 Y56.2051
G01 X16.4653 Y56.0711
G01 X16.5774 Y55.9474
G01 X16.7011 Y55.8353
G01 X16.8351 Y55.7359
G01 X16.9783 Y55.6501
G01 X17.1292 Y55.5787
G01 X17.2863 Y55.5225
G01 X17.4482 Y55.4819
G01 X17.6036 Y55.4586
G01 X17.6182 Y55.4570
G01 X17.7800 Y55.4492
G01 X41.9100 Y55.4492
G00 Z2.0000
G00 X40.2055 Y52.8508
G01 F80.00
G01 Z-0.1026
G01 F240.00
G01 X31.9800 Y52.8508
G01 X31.8133 Y52.8426
G01 X31.6482 Y52.8181
G01 X31.4863 Y52.7775
G01 X31.3292 Y52.7213
G01 X31.1783 Y52.6499
G01 X31.0351 Y52.5641
G01 X30.9011 Y52.4647
G01 X30.7774 Y52.3526
G01 X30.6653 Y52.2289
G01 X30.5659 Y52.0949
G01 X30.4801 Y51.9517
G01 X30.4087 Y51.8008
G01 X30.3525 Y51.6437
G01 X30.3119 Y51.4818
G01 X30.2874 Y51.3167
G01 X30.2792 Y51.1500
G01 X30.2874 Y50.9833
G01 X30.3119 Y50.8182
G01 X30.3525 Y50.6563
G01 X30.4052 Y50.5083
G01 X30.4127 Y50.4902
G01 X30.4757 Y50.3570
G01 X30.4849 Y50.3397
G01 X30.5659 Y50.2051
G01 X30.6653 Y50.0711
G01 X30.7774 Y49.9474
G01 X30.9011 Y49.8353
G01 X31.0351 Y49.7359
G01 X31.1783 Y49.6501
G01 X31.3292 Y49.5787
G01 X31.4770 Y49.5256
G01 X31.4958 Y49.5199
G01 X31.6386 Y49.4841
G01 X31.6579 Y49.4803
G01 X31.8133 Y49.4574
G01 X31.9800 Y49.4492
G01 X40.9100 Y49.4492
G01 X41.0669 Y49.4567
G01 X41.0816 Y49.4580
G01 X41.2321 Y49.4803
G01 X41.2514 Y49.4841
G01 X41.4037 Y49.5225
G01 X41.5517 Y49.5752
G01 X41.5698 Y49.5827
G01 X41.7117 Y49.6501
G01 X41.8466 Y49.7306
G01 X41.8589 Y49.7387
G01 X41.9889 Y49.8353
G01 X42.1091 Y49.9440
G01 X42.8152 Y50.6500
G01 X43.2100 Y50.6500
G01 X43.2247 Y50.6505
G01 X43.2393 Y50.6522
G01 X43.2586 Y50.6560
G01 X43.2727 Y50.6601
G01 X43.2820 Y50.6634
G01 X43.2999 Y50.6714
G01 X43.3170 Y50.6810
G01 X43.3330 Y50.6923
G01 X43.3479 Y50.7052
G01 X43.3614 Y50.7194
G01 X43.3706 Y50.7309
G01 X43.3763 Y50.7389
G01 X43.3840 Y50.7514
G01 X43.3886 Y50.7601
G01 X43.3948 Y50.7735
G01 X43.3999 Y50.7873
G01 X43.4040 Y50.8014
G01 X43.4062 Y50.8110
G01 X43.4085 Y50.8255
G01 X43.4098 Y50.8402
G01 X43.4100 Y51.3484
G01 X43.4773 Y51.4902
G01 X43.4848 Y51.5083
G01 X43.5375 Y51.6563
G01 X43.5759 Y51.8086
G01 X43.5797 Y51.8279
G01 X43.6026 Y51.9833
G01 X43.6105 Y52.1402
G01 X43.6107 Y52.1549
G01 X43.6033 Y52.3069
G01 X43.6014 Y52.3264
G01 X43.5781 Y52.4818
G01 X43.5401 Y52.6342
G01 X43.5344 Y52.6530
G01 X43.4813 Y52.8008
G01 X43.4100 Y52.9516
G01 X43.4100 Y53.4500
G01 X43.4090 Y53.4696
G01 X43.4062 Y53.4890
G01 X43.4014 Y53.5081
G01 X43.3948 Y53.5265
G01 X43.3864 Y53.5443
G01 X43.3763 Y53.5611
G01 X43.3646 Y53.5769
G01 X43.3514 Y53.5914
G01 X43.3369 Y53.6046
G01 X43.3211 Y53.6163
G01 X43.3128 Y53.6215
G01 X43.2999 Y53.6286
G01 X43.2865 Y53.6348
G01 X43.2727 Y53.6399
G01 X43.2633 Y53.6428
G01 X43.2490 Y53.6462
G01 X43.2345 Y53.6485
G01 X43.2198 Y53.6498
G01 X42.7116 Y53.6500
G01 X42.5698 Y53.7173
G01 X42.5517 Y53.7248
G01 X42.4037 Y53.7775
G01 X42.2514 Y53.8159
G01 X42.2321 Y53.8197
G01 X42.0767 Y53.8426
G01 X41.9100 Y53.8508
G01 X41.7433 Y53.8426
G01 X41.5879 Y53.8197
G01 X41.5686 Y53.8159
G01 X41.4163 Y53.7775
G01 X41.2683 Y53.7248
G01 X41.2502 Y53.7173
G01 X41.1084 Y53.6500
G01 X40.6100 Y53.6500
G01 X40.5953 Y53.6495
G01 X40.5855 Y53.6485
G01 X40.5710 Y53.6462
G01 X40.5614 Y53.6440
G01 X40.5473 Y53.6399
G01 X40.5335 Y53.6348
G01 X40.5201 Y53.6286
G01 X40.5114 Y53.6240
G01 X40.4989 Y53.6163
G01 X40.4870 Y53.6077
G01 X40.4757 Y53.5982
G01 X40.4686 Y53.5914
G01 X40.4586 Y53.5806
G01 X40.4523 Y53.5730
G01 X40.4437 Y53.5611
G01 X40.4360 Y53.5486
G01 X40.4292 Y53.5355
G01 X40.4234 Y53.5220
G01 X40.4201 Y53.5127
G01 X40.4160 Y53.4986
G01 X40.4122 Y53.4793
G01 X40.4110 Y53.4696
G01 X40.4101 Y53.4549
G01 X40.4100 Y53.0552
G01 X40.2055 Y52.8508
G00 Z2.0000
G00 X40.1255 Y41.1292
G01 F80.00
G01 Z-0.1026
G01 F240.00
G01 X40.7074 Y40.5474
G01 X40.8311 Y40.4353
G01 X40.9571 Y40.3415
G01 X40.9734 Y40.3306
G01 X41.1083 Y40.2501
G01 X41.2546 Y40.1806
G01 X41.2683 Y40.1752
G01 X41.4163 Y40.1225
G01 X41.5686 Y40.0841
G01 X41.5879 Y40.0803
G01 X41.7336 Y40.0586
G01 X41.7531 Y40.0567
G01 X41.9100 Y40.0492
G01 X42.0767 Y40.0574
G01 X42.2418 Y40.0819
G01 X42.3942 Y40.1199
G01 X42.4084 Y40.1240
G01 X42.5608 Y40.1787
G01 X42.7117 Y40.2501
G01 X42.8549 Y40.3359
G01 X42.9889 Y40.4353
G01 X43.1126 Y40.5474
G01 X43.2247 Y40.6711
G01 X43.3241 Y40.8051
G01 X43.4099 Y40.9483
G01 X43.4813 Y41.0992
G01 X43.5375 Y41.2563
G01 X43.5781 Y41.4182
G01 X43.6026 Y41.5833
G01 X43.6108 Y41.7500
G01 X43.6026 Y41.9167
G01 X43.5781 Y42.0818
G01 X43.5401 Y42.2342
G01 X43.5360 Y42.2484
G01 X43.4813 Y42.4008
G01 X43.4099 Y42.5517
G01 X43.3241 Y42.6949
G01 X43.2307 Y42.8212
G01 X43.2215 Y42.8327
G01 X43.1126 Y42.9526
G01 X42.0326 Y44.0326
G01 X41.9164 Y44.1383
G01 X41.9012 Y44.1507
G01 X41.7829 Y44.2385
G01 X41.7666 Y44.2494
G01 X41.6317 Y44.3299
G01 X41.4808 Y44.4013
G01 X41.3237 Y44.4575
G01 X41.1714 Y44.4959
G01 X41.1521 Y44.4997
G01 X41.0064 Y44.5214
G01 X40.9918 Y44.5230
G01 X40.8300 Y44.5308
G01 X31.9800 Y44.5308
G01 X31.8231 Y44.5233
G01 X31.8084 Y44.5220
G01 X31.6482 Y44.4981
G01 X31.4958 Y44.4601
G01 X31.4770 Y44.4544
G01 X31.3383 Y44.4048
G01 X31.3202 Y44.3973
G01 X31.1783 Y44.3299
G01 X31.0351 Y44.2441
G01 X30.9011 Y44.1447
G01 X30.7845 Y44.0394
G01 X30.7706 Y44.0255
G01 X30.6717 Y43.9164
G01 X30.6593 Y43.9012
G01 X30.5659 Y43.7749
G01 X30.4801 Y43.6317
G01 X30.4127 Y43.4898
G01 X30.4052 Y43.4717
G01 X30.3525 Y43.3237
G01 X30.3119 Y43.1618
G01 X30.2874 Y42.9967
G01 X30.2792 Y42.8300
G01 X30.2874 Y42.6633
G01 X30.3119 Y42.4982
G01 X30.3525 Y42.3363
G01 X30.4087 Y42.1792
G01 X30.4801 Y42.0283
G01 X30.5659 Y41.8851
G01 X30.6653 Y41.7511
G01 X30.7774 Y41.6274
G01 X30.9011 Y41.5153
G01 X31.0351 Y41.4159
G01 X31.1783 Y41.3301
G01 X31.3292 Y41.2587
G01 X31.4863 Y41.2025
G01 X31.6482 Y41.1619
G01 X31.8133 Y41.1374
G01 X31.9800 Y41.1292
G01 X40.1255 Y41.1292
G00 Z2.0000
G00 X41.8398 Y38.5305
G01 F80.00
G01 Z-0.1026
G01 F240.00
G01 X17.7800 Y38.5308
G01 X17.6182 Y38.5230
G01 X17.6036 Y38.5214
G01 X17.4482 Y38.4981
G01 X17.2863 Y38.4575
G01 X17.1292 Y38.4013
G01 X16.9783 Y38.3299
G01 X16.8351 Y38.2441
G01 X16.7011 Y38.1447
G01 X16.5774 Y38.0326
G01 X16.4653 Y37.9089
G01 X16.3659 Y37.7749
G01 X16.2801 Y37.6317
G01 X16.2087 Y37.4808
G01 X16.1525 Y37.3237
G01 X16.1119 Y37.1618
G01 X16.0874 Y36.9967
G01 X16.0792 Y36.8300
G01 X16.0870 Y36.6682
G01 X16.0886 Y36.6536
G01 X16.1119 Y36.4982
G01 X16.1499 Y36.3458
G01 X16.1556 Y36.3270
G01 X16.2052 Y36.1883
G01 X16.2127 Y36.1702
G01 X16.2801 Y36.0283
G01 X16.3659 Y35.8851
G01 X16.4653 Y35.7511
G01 X16.5774 Y35.6274
G01 X16.7011 Y35.5153
G01 X16.8351 Y35.4159
G01 X16.9783 Y35.3301
G01 X17.1202 Y35.2627
G01 X17.1383 Y35.2552
G01 X17.2770 Y35.2056
G01 X17.2958 Y35.1999
G01 X17.4482 Y35.1619
G01 X17.6036 Y35.1386
G01 X17.6182 Y35.1370
G01 X17.7800 Y35.1292
G01 X41.3967 Y35.1292
G01 X41.4116 Y35.1240
G01 X41.4258 Y35.1199
G01 X41.5782 Y35.0819
G01 X41.7433 Y35.0574
G01 X41.9100 Y35.0492
G01 X42.0718 Y35.0570
G01 X42.0864 Y35.0586
G01 X42.2418 Y35.0819
G01 X42.4037 Y35.1225
G01 X42.5608 Y35.1787
G01 X42.7117 Y35.2501
G01 X42.8549 Y35.3359
G01 X42.9889 Y35.4353
G01 X43.1126 Y35.5474
G01 X43.2247 Y35.6711
G01 X43.3241 Y35.8051
G01 X43.4099 Y35.9483
G01 X43.4813 Y36.0992
G01 X43.5375 Y36.2563
G01 X43.5781 Y36.4182
G01 X43.6026 Y36.5833
G01 X43.6108 Y36.7500
G01 X43.6030 Y36.9118
G01 X43.6014 Y36.9264
G01 X43.5781 Y37.0818
G01 X43.5375 Y37.2437
G01 X43.4813 Y37.4008
G01 X43.4122 Y37.5474
G01 X43.4051 Y37.5603
G01 X43.3241 Y37.6949
G01 X43.2278 Y37.8251
G01 X43.2183 Y37.8364
G01 X43.1160 Y37.9491
G01 X43.0255 Y38.0394
G01 X42.9089 Y38.1447
G01 X42.7749 Y38.2441
G01 X42.6317 Y38.3299
G01 X42.4808 Y38.4013
G01 X42.3237 Y38.4575
G01 X42.1618 Y38.4981
G01 X41.9967 Y38.5226
G01 X41.8398 Y38.5305
G00 Z2.0000
G00 X40.2855 Y32.5308
G01 F80.00
G01 Z-0.1026
G01 F240.00
G01 X31.9800 Y32.5308
G01 X31.8133 Y32.5226
G01 X31.6482 Y32.4981
G01 X31.4863 Y32.4575
G01 X31.3292 Y32.4013
G01 X31.1783 Y32.3299
G01 X31.0351 Y32.2441
G01 X30.9011 Y32.1447
G01 X30.7774 Y32.0326
G01 X30.6653 Y31.9089
G01 X30.5659 Y31.7749
G01 X30.4801 Y31.6317
G01 X30.4087 Y31.4808
G01 X30.3525 Y31.3237
G01 X30.3119 Y31.1618
G01 X30.2874 Y30.9967
G01 X30.2792 Y30.8300
G01 X30.2874 Y30.6633
G01 X30.3119 Y30.4982
G01 X30.3525 Y30.3363
G01 X30.4087 Y30.1792
G01 X30.4801 Y30.0283
G01 X30.5606 Y29.8934
G01 X30.5715 Y29.8771
G01 X30.6593 Y29.7588
G01 X30.6717 Y29.7436
G01 X30.7774 Y29.6274
G01 X30.9011 Y29.5153
G01 X31.0351 Y29.4159
G01 X31.1697 Y29.3349
G01 X31.1870 Y29.3257
G01 X31.3202 Y29.2627
G01 X31.3383 Y29.2552
G01 X31.4863 Y29.2025
G01 X31.6482 Y29.1619
G01 X31.8133 Y29.1374
G01 X31.9751 Y29.1293
G01 X40.9900 Y29.1292
G01 X41.1567 Y29.1374
G01 X41.3218 Y29.1619
G01 X41.4742 Y29.1999
G01 X41.4930 Y29.2056
G01 X41.6408 Y29.2587
G01 X41.7830 Y29.3257
G01 X41.8003 Y29.3349
G01 X41.9349 Y29.4159
G01 X42.0689 Y29.5153
G01 X42.1891 Y29.6240
G01 X42.8152 Y30.2500
G01 X43.2100 Y30.2500
G01 X43.2247 Y30.2505
G01 X43.2393 Y30.2522
G01 X43.2586 Y30.2560
G01 X43.2681 Y30.2586
G01 X43.2820 Y30.2634
G01 X43.2999 Y30.2714
G01 X43.3170 Y30.2810
G01 X43.3330 Y30.2923
G01 X43.3479 Y30.3052
G01 X43.3614 Y30.3194
G01 X43.3735 Y30.3348
G01 X43.3790 Y30.3430
G01 X43.3864 Y30.3557
G01 X43.3928 Y30.3690
G01 X43.3983 Y30.3826
G01 X43.4028 Y30.3967
G01 X43.4062 Y30.4110
G01 X43.4085 Y30.4255
G01 X43.4098 Y30.4402
G01 X43.4100 Y30.9484
G01 X43.4773 Y31.0902
G01 X43.4848 Y31.1083
G01 X43.5375 Y31.2563
G01 X43.5759 Y31.4086
G01 X43.5797 Y31.4279
G01 X43.6026 Y31.5833
G01 X43.6105 Y31.7402
G01 X43.6107 Y31.7549
G01 X43.6033 Y31.9069
G01 X43.6014 Y31.9264
G01 X43.5781 Y32.0818
G01 X43.5401 Y32.2342
G01 X43.5344 Y32.2530
G01 X43.4813 Y32.4008
G01 X43.4100 Y32.5516
G01 X43.4100 Y33.0500
G01 X43.4090 Y33.0696
G01 X43.4062 Y33.0890
G01 X43.4014 Y33.1081
G01 X43.3948 Y33.1265
G01 X43.3886 Y33.1399
G01 X43.3790 Y33.1570
G01 X43.3677 Y33.1730
G01 X43.3548 Y33.1879
G01 X43.3406 Y33.2014
G01 X43.3252 Y33.2135
G01 X43.3128 Y33.2215
G01 X43.2999 Y33.2286
G01 X43.2910 Y33.2328
G01 X43.2774 Y33.2383
G01 X43.2633 Y33.2428
G01 X43.2490 Y33.2462
G01 X43.2345 Y33.2485
G01 X43.2198 Y33.2498
G01 X42.7116 Y33.2500
G01 X42.5698 Y33.3173
G01 X42.5517 Y33.3248
G01 X42.4037 Y33.3775
G01 X42.2514 Y33.4159
G01 X42.2321 Y33.4197
G01 X42.0767 Y33.4426
G01 X41.9100 Y33.4508
G01 X41.7433 Y33.4426
G01 X41.5879 Y33.4197
G01 X41.5686 Y33.4159
G01 X41.4163 Y33.3775
G01 X41.2683 Y33.3248
G01 X41.2502 Y33.3173
G01 X41.1084 Y33.2500
G01 X40.6100 Y33.2500
G01 X40.5953 Y33.2495
G01 X40.5855 Y33.2485
G01 X40.5662 Y33.2451
G01 X40.5567 Y33.2428
G01 X40.5426 Y33.2383
G01 X40.5335 Y33.2348
G01 X40.5201 Y33.2286
G01 X40.5072 Y33.2215
G01 X40.4989 Y33.2163
G01 X40.4909 Y33.2106
G01 X40.4794 Y33.2014
G01 X40.4686 Y33.1914
G01 X40.4618 Y33.1843
G01 X40.4554 Y33.1769
G01 X40.4465 Y33.1652
G01 X40.4385 Y33.1528
G01 X40.4336 Y33.1443
G01 X40.4292 Y33.1355
G01 X40.4234 Y33.1220
G01 X40.4172 Y33.1033
G01 X40.4138 Y33.0890
G01 X40.4110 Y33.0696
G01 X40.4101 Y33.0549
G01 X40.4100 Y32.6552
G01 X40.2855 Y32.5308
G00 Z2.0000
G00 X40.1255 Y20.8092
G01 F80.00
G01 Z-0.1026
G01 F240.00
G01 X40.7074 Y20.2274
G01 X40.8311 Y20.1153
G01 X40.9571 Y20.0215
G01 X40.9734 Y20.0106
G01 X41.1083 Y19.9301
G01 X41.2546 Y19.8606
G01 X41.2683 Y19.8552
G01 X41.4163 Y19.8025
G01 X41.5686 Y19.7641
G01 X41.5879 Y19.7603
G01 X41.7336 Y19.7386
G01 X41.7531 Y19.7367
G01 X41.9100 Y19.7292
G01 X42.0767 Y19.7374
G01 X42.2418 Y19.7619
G01 X42.3942 Y19.7999
G01 X42.4084 Y19.8040
G01 X42.5608 Y19.8587
G01 X42.7117 Y19.9301
G01 X42.8549 Y20.0159
G01 X42.9889 Y20.1153
G01 X43.1126 Y20.2274
G01 X43.2247 Y20.3511
G01 X43.3241 Y20.4851
G01 X43.4099 Y20.6283
G01 X43.4813 Y20.7792
G01 X43.5375 Y20.9363
G01 X43.5781 Y21.0982
G01 X43.6026 Y21.2633
G01 X43.6108 Y21.4300
G01 X43.6026 Y21.5967
G01 X43.5781 Y21.7618
G01 X43.5401 Y21.9142
G01 X43.5360 Y21.9284
G01 X43.4813 Y22.0808
G01 X43.4099 Y22.2317
G01 X43.3241 Y22.3749
G01 X43.2307 Y22.5012
G01 X43.2215 Y22.5127
G01 X43.1126 Y22.6326
G01 X42.0326 Y23.7126
G01 X41.9164 Y23.8183
G01 X41.9012 Y23.8307
G01 X41.7829 Y23.9185
G01 X41.7666 Y23.9294
G01 X41.6317 Y24.0099
G01 X41.4808 Y24.0813
G01 X41.3237 Y24.1375
G01 X41.1714 Y24.1759
G01 X41.1521 Y24.1797
G01 X41.0064 Y24.2014
G01 X40.9918 Y24.2030
G01 X40.8300 Y24.2108
G01 X31.9800 Y24.2108
G01 X31.8231 Y24.2033
G01 X31.8084 Y24.2020
G01 X31.6482 Y24.1781
G01 X31.4958 Y24.1401
G01 X31.4770 Y24.1344
G01 X31.3383 Y24.0848
G01 X31.3202 Y24.0773
G01 X31.1783 Y24.0099
G01 X31.0351 Y23.9241
G01 X30.9011 Y23.8247
G01 X30.7845 Y23.7194
G01 X30.7706 Y23.7055
G01 X30.6717 Y23.5964
G01 X30.6593 Y23.5812
G01 X30.5659 Y23.4549
G01 X30.4801 Y23.3117
G01 X30.4127 Y23.1698
G01 X30.4052 Y23.1517
G01 X30.3525 Y23.0037
G01 X30.3119 Y22.8418
G01 X30.2874 Y22.6767
G01 X30.2792 Y22.5100
G01 X30.2874 Y22.3433
G01 X30.3119 Y22.1782
G01 X30.3525 Y22.0163
G01 X30.4087 Y21.8592
G01 X30.4801 Y21.7083
G01 X30.5659 Y21.5651
G01 X30.6653 Y21.4311
G01 X30.7774 Y21.3074
G01 X30.9011 Y21.1953
G01 X31.0351 Y21.0959
G01 X31.1783 Y21.0101
G01 X31.3292 Y20.9387
G01 X31.4863 Y20.8825
G01 X31.6482 Y20.8419
G01 X31.8133 Y20.8174
G01 X31.9800 Y20.8092
G01 X40.1255 Y20.8092
G00 Z2.0000
G00 X41.8398 Y18.2105
G01 F80.00
G01 Z-0.1026
G01 F240.00
G01 X17.7800 Y18.2108
G01 X17.6182 Y18.2030
G01 X17.6036 Y18.2014
G01 X17.4482 Y18.1781
G01 X17.2863 Y18.1375
G01 X17.1292 Y18.0813
G01 X16.9783 Y18.0099
G01 X16.8351 Y17.9241
G01 X16.7011 Y17.8247
G01 X16.5774 Y17.7126
G01 X16.4653 Y17.5889
G01 X16.3659 Y17.4549
G01 X16.2801 Y17.3117
G01 X16.2087 Y17.1608
G01 X16.1525 Y17.0037
G01 X16.1119 Y16.8418
G01 X16.0874 Y16.6767
G01 X16.0792 Y16.5100
G01 X16.0870 Y16.3482
G01 X16.0886 Y16.3336
G01 X16.1119 Y16.1782
G01 X16.1499 Y16.0258
G01 X16.1556 Y16.0070
G01 X16.2052 Y15.8683
G01 X16.2127 Y15.8502
G01 X16.2801 Y15.7083
G01 X16.3659 Y15.5651
G01 X16.4653 Y15.4311
G01 X16.5774 Y15.3074
G01 X16.7011 Y15.1953
G01 X16.8351 Y15.0959
G01 X16.9783 Y15.0101
G01 X17.1202 Y14.9427
G01 X17.1383 Y14.9352
G01 X17.2770 Y14.8856
G01 X17.2958 Y14.8799
G01 X17.4482 Y14.8419
G01 X17.6036 Y14.8186
G01 X17.6182 Y14.8170
G01 X17.7800 Y14.8092
G01 X41.3967 Y14.8092
G01 X41.4116 Y14.8040
G01 X41.4258 Y14.7999
G01 X41.5782 Y14.7619
G01 X41.7433 Y14.7374
G01 X41.9100 Y14.7292
G01 X42.0718 Y14.7370
G01 X42.0864 Y14.7386
G01 X42.2418 Y14.7619
G01 X42.4037 Y14.8025
G01 X42.5608 Y14.8587
G01 X42.7117 Y14.9301
G01 X42.8549 Y15.0159
G01 X42.9889 Y15.1153
G01 X43.1126 Y15.2274
G01 X43.2247 Y15.3511
G01 X43.3241 Y15.4851
G01 X43.4099 Y15.6283
G01 X43.4813 Y15.7792
G01 X43.5375 Y15.9363
G01 X43.5781 Y16.0982
G01 X43.6026 Y16.2633
G01 X43.6108 Y16.4300
G01 X43.6030 Y16.5918
G01 X43.6014 Y16.6064
G01 X43.5781 Y16.7618
G01 X43.5375 Y16.9237
G01 X43.4813 Y17.0808
G01 X43.4122 Y17.2274
G01 X43.4051 Y17.2403
G01 X43.3241 Y17.3749
G01 X43.2278 Y17.5051
G01 X43.2183 Y17.5164
G01 X43.1160 Y17.6291
G01 X43.0255 Y17.7194
G01 X42.9089 Y17.8247
G01 X42.7749 Y17.9241
G01 X42.6317 Y18.0099
G01 X42.4808 Y18.0813
G01 X42.3237 Y18.1375
G01 X42.1618 Y18.1781
G01 X41.9967 Y18.2026
G01 X41.8398 Y18.2105
G00 Z2.0000
G00 X40.2855 Y12.2108
G01 F80.00
G01 Z-0.1026
G01 F240.00
G01 X31.9800 Y12.2108
G01 X31.8133 Y12.2026
G01 X31.6482 Y12.1781
G01 X31.4863 Y12.1375
G01 X31.3292 Y12.0813
G01 X31.1783 Y12.0099
G01 X31.0351 Y11.9241
G01 X30.9011 Y11.8247
G01 X30.7774 Y11.7126
G01 X30.6653 Y11.5889
G01 X30.5659 Y11.4549
G01 X30.4801 Y11.3117
G01 X30.4087 Y11.1608
G01 X30.3525 Y11.0037
G01 X30.3119 Y10.8418
G01 X30.2874 Y10.6767
G01 X30.2792 Y10.5100
G01 X30.2874 Y10.3433
G01 X30.3119 Y10.1782
G01 X30.3525 Y10.0163
G01 X30.4087 Y9.8592
G01 X30.4801 Y9.7083
G01 X30.5606 Y9.5734
G01 X30.5715 Y9.5571
G01 X30.6593 Y9.4388
G01 X30.6717 Y9.4236
G01 X30.7774 Y9.3074
G01 X30.9011 Y9.1953
G01 X31.0351 Y9.0959
G01 X31.1697 Y9.0149
G01 X31.1870 Y9.0057
G01 X31.3202 Y8.9427
G01 X31.3383 Y8.9352
G01 X31.4863 Y8.8825
G01 X31.6482 Y8.8419
G01 X31.8133 Y8.8174
G01 X31.9751 Y8.8093
G01 X40.9900 Y8.8092
G01 X41.1567 Y8.8174
G01 X41.3121 Y8.8403
G01 X41.3314 Y8.8441
G01 X41.4837 Y8.8825
G01 X41.6317 Y8.9352
G01 X41.6498 Y8.9427
G01 X41.7917 Y9.0101
G01 X41.9349 Y9.0959
G01 X42.0689 Y9.1953
G01 X42.1891 Y9.3040
G01 X42.8152 Y9.9300
G01 X43.2100 Y9.9300
G01 X43.2247 Y9.9305
G01 X43.2393 Y9.9322
G01 X43.2586 Y9.9360
G01 X43.2681 Y9.9386
G01 X43.2820 Y9.9434
G01 X43.2999 Y9.9514
G01 X43.3170 Y9.9610
G01 X43.3330 Y9.9723
G01 X43.3479 Y9.9852
G01 X43.3614 Y9.9994
G01 X43.3735 Y10.0148
G01 X43.3815 Y10.0272
G01 X43.3886 Y10.0401
G01 X43.3948 Y10.0535
G01 X43.3983 Y10.0626
G01 X43.4028 Y10.0767
G01 X43.4062 Y10.0910
G01 X43.4085 Y10.1055
G01 X43.4098 Y10.1202
G01 X43.4100 Y10.6284
G01 X43.4773 Y10.7702
G01 X43.4848 Y10.7883
G01 X43.5375 Y10.9363
G01 X43.5759 Y11.0886
G01 X43.5797 Y11.1079
G01 X43.6026 Y11.2633
G01 X43.6105 Y11.4202
G01 X43.6107 Y11.4349
G01 X43.6033 Y11.5869
G01 X43.6014 Y11.6064
G01 X43.5781 Y11.7618
G01 X43.5401 Y11.9142
G01 X43.5344 Y11.9330
G01 X43.4813 Y12.0808
G01 X43.4100 Y12.2316
G01 X43.4100 Y12.7300
G01 X43.4090 Y12.7496
G01 X43.4062 Y12.7690
G01 X43.4014 Y12.7881
G01 X43.3948 Y12.8065
G01 X43.3864 Y12.8243
G01 X43.3763 Y12.8411
G01 X43.3646 Y12.8569
G01 X43.3514 Y12.8714
G01 X43.3406 Y12.8814
G01 X43.3252 Y12.8935
G01 X43.3170 Y12.8990
G01 X43.3043 Y12.9064
G01 X43.2910 Y12.9128
G01 X43.2774 Y12.9183
G01 X43.2633 Y12.9228
G01 X43.2490 Y12.9262
G01 X43.2345 Y12.9285
G01 X43.2198 Y12.9298
G01 X42.7116 Y12.9300
G01 X42.5698 Y12.9973
G01 X42.5517 Y13.0048
G01 X42.4037 Y13.0575
G01 X42.2514 Y13.0959
G01 X42.2321 Y13.0997
G01 X42.0767 Y13.1226
G01 X41.9100 Y13.1308
G01 X41.7433 Y13.1226
G01 X41.5879 Y13.0997
G01 X41.5686 Y13.0959
G01 X41.4163 Y13.0575
G01 X41.2683 Y13.0048
G01 X41.2502 Y12.9973
G01 X41.1084 Y12.9300
G01 X40.6100 Y12.9300
G01 X40.5904 Y12.9290
G01 X40.5758 Y12.9271
G01 X40.5662 Y12.9251
G01 X40.5567 Y12.9228
G01 X40.5426 Y12.9183
G01 X40.5335 Y12.9148
G01 X40.5201 Y12.9086
G01 X40.5072 Y12.9015
G01 X40.4989 Y12.8963
G01 X40.4909 Y12.8906
G01 X40.4794 Y12.8814
G01 X40.4686 Y12.8714
G01 X40.4618 Y12.8643
G01 X40.4523 Y12.8530
G01 X40.4465 Y12.8452
G01 X40.4385 Y12.8328
G01 X40.4336 Y12.8243
G01 X40.4292 Y12.8155
G01 X40.4234 Y12.8020
G01 X40.4172 Y12.7833
G01 X40.4138 Y12.7690
G01 X40.4110 Y12.7496
G01 X40.4101 Y12.7349
G01 X40.4100 Y12.3352
G01 X40.2855 Y12.2108
G00 Z2.0000
M05
G00 Z2.0000
G00 Z5.00


