(G-CODE GENERATED BY FLATCAM v8.994 - www.flatcam.org - Version Date: 2020/11/7)

(Name: zvire-vetrnik-relays-B_Cu.gbr_iso_combined_ncc_cnc)
(Type: G-code from Geometry)
(Units: MM)

(Created on Sobota, 04 února 2023 at 20:52)

(This preprocessor is the default preprocessor used by FlatCAM.)
(It is made to work with MACH3 compatible motion controllers.)

(TOOL DIAMETER: 1.0 mm)
(Feedrate_XY: 200.0 mm/min)
(Feedrate_Z: 80.0 mm/min)
(Feedrate rapids 1500.0 mm/min)

(Z_Cut: -0.08 mm)
(Z_Move: 2.0 mm)
(Z Start: None mm)
(Z End: 5.0 mm)
(X,Y End: None mm)
(Steps per circle: 64)
(Preprocessor Geometry: default)

(X range:   12.5000 ...   47.5000  mm)
(Y range:    5.5000 ...   68.5000  mm)

(Spindle Speed: 10000.0 RPM)
G21
G90
G94

G01 F200.00

M5
G00 Z15.0000
G00 X0.0000 Y0.0000
T1
M6    
(MSG, Change to Tool Dia = 1.0000)
M0
G00 Z15.0000

M03 S10000.0
G4 P1.0
G01 F200.00
G00 X13.4616 Y5.5000
G01 F80.00
G01 Z-0.0800
G01 F200.00
G01 X13.0978 Y5.8729
G01 X12.5000 Y6.5164
G01 X12.5000 Y7.5645
G01 X12.8623 Y7.1548
G01 X13.6048 Y6.3556
G01 X14.3666 Y5.5747
G01 X14.4432 Y5.5000
G01 X15.4455 Y5.5000
G01 X14.8616 Y6.0697
G01 X14.1117 Y6.8382
G01 X13.3809 Y7.6249
G01 X12.6697 Y8.4293
G01 X12.5000 Y8.6309
G01 X12.7587 Y9.4107
G01 X13.1997 Y8.8865
G01 X13.8996 Y8.0950
G01 X14.6187 Y7.3209
G01 X15.3566 Y6.5647
G01 X16.1128 Y5.8268
G01 X16.4646 Y5.5000
G01 X17.4999 Y5.5000
G01 X17.3570 Y5.6263
G01 X16.5955 Y6.3338
G01 X15.8516 Y7.0597
G01 X15.1257 Y7.8036
G01 X14.4183 Y8.5651
G01 X13.7598 Y9.3097
G00 Z2.0000
G00 X14.6942 Y9.3097
G01 F80.00
G01 Z-0.0800
G01 F200.00
G01 X14.9369 Y9.0352
G01 X15.6327 Y8.2863
G01 X16.3465 Y7.5546
G01 X17.0782 Y6.8407
G01 X17.8271 Y6.1450
G01 X18.5566 Y5.5000
G01 X19.6419 Y5.5000
G01 X19.0501 Y5.9979
G01 X18.2972 Y6.6637
G01 X17.5609 Y7.3477
G01 X16.8415 Y8.0496
G01 X16.1396 Y8.7689
G01 X15.6372 Y9.3097
G00 Z2.0000
G00 X16.5926 Y9.3097
G01 F80.00
G01 Z-0.0800
G01 F200.00
G01 X16.6466 Y9.2516
G01 X17.3365 Y8.5446
G01 X18.0435 Y7.8547
G01 X18.7673 Y7.1823
G01 X19.5073 Y6.5280
G01 X20.2632 Y5.8920
G01 X20.7529 Y5.5000
G01 X21.8943 Y5.5000
G01 X21.4651 Y5.8265
G01 X20.7073 Y6.4331
G01 X19.9646 Y7.0580
G01 X19.2374 Y7.7010
G01 X18.5262 Y8.3617
G01 X17.8315 Y9.0396
G01 X17.5678 Y9.3097
G00 Z2.0000
G00 X19.6017 Y8.3179
G01 F80.00
G01 Z-0.0800
G01 F200.00
G01 X19.7075 Y8.2197
G01 X20.4218 Y7.5881
G01 X21.1514 Y6.9742
G01 X21.8958 Y6.3784
G01 X22.6546 Y5.8010
G01 X23.0711 Y5.5000
G01 X24.2893 Y5.5000
G01 X23.8305 Y5.8148
G01 X23.0716 Y6.3633
G01 X22.3265 Y6.9302
G01 X21.5954 Y7.5153
G01 X20.8790 Y8.1181
G01 X20.5163 Y8.4388
G00 Z2.0000
G00 X21.1642 Y8.8002
G01 F80.00
G01 Z-0.0800
G01 F200.00
G01 X21.3362 Y8.6482
G01 X22.0395 Y8.0564
G01 X22.7571 Y7.4821
G01 X23.4886 Y6.9255
G01 X24.2335 Y6.3871
G01 X24.9914 Y5.8671
G01 X25.5557 Y5.5000
G01 X26.8785 Y5.5000
G01 X26.1364 Y5.9573
G01 X25.3803 Y6.4491
G01 X24.6366 Y6.9594
G01 X23.9056 Y7.4878
G01 X23.1878 Y8.0339
G01 X22.4836 Y8.5975
G01 X21.7934 Y9.1782
G01 X21.6308 Y9.3220
G00 Z2.0000
G00 X21.9188 Y10.0017
G01 F80.00
G01 Z-0.0800
G01 F200.00
G01 X22.2507 Y9.7082
G01 X22.9277 Y9.1386
G01 X23.6184 Y8.5857
G01 X24.3226 Y8.0500
G01 X25.0397 Y7.5317
G01 X25.7692 Y7.0311
G01 X26.5109 Y6.5487
G01 X27.2641 Y6.0845
G01 X28.0286 Y5.6390
G01 X28.2811 Y5.5000
G01 X29.7692 Y5.5000
G01 X29.1337 Y5.8297
G01 X28.3736 Y6.2481
G01 X27.6240 Y6.6849
G01 X26.8854 Y7.1401
G01 X26.1581 Y7.6132
G01 X25.4427 Y8.1040
G01 X24.7396 Y8.6122
G01 X24.0491 Y9.1376
G01 X23.3717 Y9.6797
G01 X22.7079 Y10.2383
G01 X22.0579 Y10.8130
G01 X21.9409 Y10.9217
G00 Z2.0000
G00 X20.1520 Y12.6771
G01 F80.00
G01 Z-0.0800
G01 F200.00
G01 X19.6049 Y13.2660
G01 X19.0302 Y13.9160
G01 X18.6993 Y14.3092
G01 X17.7917 Y14.3092
G01 X17.9305 Y14.1358
G01 X18.5002 Y13.4587
G01 X19.0863 Y12.7959
G01 X19.2321 Y12.6389
G00 Z2.0000
G00 X18.5565 Y12.3384
G01 F80.00
G01 Z-0.0800
G01 F200.00
G01 X17.9701 Y13.0015
G01 X17.3894 Y13.6917
G01 X16.8258 Y14.3959
G01 X16.6547 Y14.6208
G00 Z2.0000
G00 X15.6386 Y16.0089
G01 F80.00
G01 Z-0.0800
G01 F200.00
G01 X15.2410 Y16.5884
G01 X14.7492 Y17.3445
G01 X14.2760 Y18.1124
G01 X13.8218 Y18.8916
G01 X13.3869 Y19.6818
G01 X12.9715 Y20.4824
G01 X12.9513 Y20.5239
G00 Z2.0000
G00 X13.4747 Y21.0473
G01 F80.00
G01 Z-0.0800
G01 F200.00
G01 X13.5968 Y20.7971
G01 X14.0043 Y20.0118
G01 X14.4309 Y19.2366
G01 X14.8764 Y18.4722
G01 X15.3406 Y17.7190
G01 X15.6867 Y17.1869
G00 Z2.0000
G00 X16.0651 Y17.8889
G01 F80.00
G01 Z-0.0800
G01 F200.00
G01 X15.9320 Y18.0935
G01 X15.4768 Y18.8321
G01 X15.0400 Y19.5817
G01 X14.6216 Y20.3418
G01 X14.2221 Y21.1119
G01 X14.1255 Y21.3097
G00 Z2.0000
G00 X14.9079 Y21.3097
G01 F80.00
G01 Z-0.0800
G01 F200.00
G01 X15.2390 Y20.6717
G01 X15.6490 Y19.9267
G01 X16.0772 Y19.1920
G01 X16.5234 Y18.4680
G01 X16.5924 Y18.3619
G00 Z2.0000
G00 X17.2447 Y18.6428
G01 F80.00
G01 Z-0.0800
G01 F200.00
G01 X17.1148 Y18.8425
G01 X16.6777 Y19.5518
G01 X16.2581 Y20.2717
G01 X15.8563 Y21.0017
G01 X15.6965 Y21.3097
G00 Z2.0000
G00 X16.4857 Y21.3097
G01 F80.00
G01 Z-0.0800
G01 F200.00
G01 X16.8671 Y20.6168
G01 X17.2781 Y19.9117
G01 X17.7062 Y19.2170
G01 X18.0355 Y18.7108
G01 X18.8780 Y18.7108
G01 X18.7332 Y18.9218
G01 X18.2976 Y19.5915
G01 X17.8785 Y20.2716
G01 X17.4762 Y20.9618
G01 X17.2847 Y21.3097
G01 X18.3662 Y20.8248
G01 X18.4789 Y20.6315
G01 X18.8890 Y19.9660
G01 X19.3152 Y19.3107
G01 X19.7269 Y18.7108
G01 X20.5889 Y18.7108
G01 X20.3298 Y19.0692
G01 X19.8973 Y19.6996
G01 X19.4863 Y20.3313
G00 Z2.0000
G00 X20.2944 Y20.3727
G01 F80.00
G01 Z-0.0800
G01 F200.00
G01 X20.4793 Y20.0885
G01 X20.9021 Y19.4723
G01 X21.3399 Y18.8666
G01 X21.4584 Y18.7108
G01 X22.3380 Y18.7108
G01 X21.9021 Y19.2836
G01 X21.4744 Y19.8753
G01 X21.0613 Y20.4774
G01 X20.9500 Y20.6485
G00 Z2.0000
G00 X21.4814 Y21.1153
G01 F80.00
G01 Z-0.0800
G01 F200.00
G01 X21.6433 Y20.8663
G01 X22.0467 Y20.2784
G01 X22.4644 Y19.7006
G01 X22.8961 Y19.1332
G01 X23.2341 Y18.7108
G01 X24.1434 Y18.7108
G01 X23.8827 Y19.0206
G01 X23.4479 Y19.5638
G01 X23.0266 Y20.1176
G01 X22.6190 Y20.6815
G01 X22.2254 Y21.2552
G01 X21.8643 Y21.8102
G00 Z2.0000
G00 X21.8962 Y23.1083
G01 F80.00
G01 Z-0.0800
G01 F200.00
G01 X22.0813 Y22.7907
G01 X22.4373 Y22.2129
G01 X22.8074 Y21.6441
G01 X23.1913 Y21.0845
G01 X23.5889 Y20.5345
G01 X23.9998 Y19.9945
G01 X24.4238 Y19.4647
G01 X24.8607 Y18.9454
G01 X25.0682 Y18.7108
G01 X26.0113 Y18.7108
G01 X25.8289 Y18.9071
G01 X25.3908 Y19.4026
G01 X24.9649 Y19.9087
G01 X24.5516 Y20.4251
G01 X24.1511 Y20.9515
G01 X23.7636 Y21.4876
G01 X23.3894 Y22.0330
G01 X23.0287 Y22.5874
G01 X22.6818 Y23.1506
G01 X22.3487 Y23.7220
G01 X22.0298 Y24.3015
G01 X21.7251 Y24.8886
G01 X21.4350 Y25.4830
G01 X21.1596 Y26.0844
G01 X20.8990 Y26.6923
G01 X20.6534 Y27.3065
G01 X20.4229 Y27.9264
G01 X20.2078 Y28.5519
G01 X20.1793 Y28.6419
G00 Z2.0000
G00 X20.8323 Y28.8982
G01 F80.00
G01 Z-0.0800
G01 F200.00
G01 X20.8724 Y28.7715
G01 X21.0820 Y28.1623
G01 X21.3065 Y27.5584
G01 X21.5457 Y26.9602
G01 X21.7995 Y26.3680
G01 X22.0678 Y25.7823
G01 X22.3504 Y25.2033
G01 X22.6471 Y24.6315
G01 X22.9578 Y24.0671
G01 X23.2822 Y23.5104
G01 X23.6201 Y22.9619
G01 X23.9715 Y22.4219
G01 X24.3359 Y21.8907
G01 X24.7133 Y21.3685
G01 X25.1034 Y20.8558
G01 X25.5060 Y20.3528
G01 X25.9208 Y19.8598
G01 X26.3476 Y19.3772
G01 X26.7861 Y18.9052
G01 X26.9758 Y18.7108
G01 X27.9649 Y18.7108
G01 X27.7310 Y18.9391
G01 X27.2930 Y19.3879
G01 X26.8662 Y19.8473
G01 X26.4509 Y20.3171
G01 X26.0471 Y20.7969
G01 X25.6553 Y21.2865
G01 X25.2756 Y21.7855
G01 X24.9083 Y22.2937
G01 X24.5535 Y22.8108
G01 X24.2115 Y23.3364
G01 X23.8826 Y23.8703
G01 X23.5668 Y24.4121
G01 X23.2645 Y24.9614
G01 X22.9757 Y25.5181
G01 X22.7006 Y26.0816
G01 X22.4395 Y26.6517
G01 X22.1924 Y27.2281
G01 X21.9596 Y27.8103
G01 X21.7411 Y28.3981
G01 X21.5371 Y28.9911
G01 X21.4187 Y29.3648
G00 Z2.0000
G00 X21.8934 Y30.2204
G01 F80.00
G01 Z-0.0800
G01 F200.00
G01 X22.0176 Y29.7921
G01 X22.2018 Y29.2106
G01 X22.4002 Y28.6339
G01 X22.6127 Y28.0622
G01 X22.8391 Y27.4959
G01 X23.0794 Y26.9354
G01 X23.3334 Y26.3809
G01 X23.6009 Y25.8328
G01 X23.8818 Y25.2914
G01 X24.1759 Y24.7571
G01 X24.4830 Y24.2302
G01 X24.8029 Y23.7109
G01 X25.1355 Y23.1997
G01 X25.4806 Y22.6968
G01 X25.8378 Y22.2025
G01 X26.2071 Y21.7171
G01 X26.5882 Y21.2410
G01 X26.9809 Y20.7743
G01 X27.3849 Y20.3174
G01 X27.8000 Y19.8705
G01 X28.2259 Y19.4340
G01 X28.6625 Y19.0081
G01 X28.9825 Y18.7108
G01 X30.0333 Y18.7108
G01 X30.0234 Y18.7190
G01 X29.5794 Y19.1117
G01 X29.1451 Y19.5151
G01 X28.7209 Y19.9290
G01 X28.3070 Y20.3532
G01 X27.9036 Y20.7875
G01 X27.5109 Y21.2315
G01 X27.1293 Y21.6850
G01 X26.7590 Y22.1478
G01 X26.4001 Y22.6195
G01 X26.0529 Y23.0999
G01 X25.7176 Y23.5886
G01 X25.3943 Y24.0854
G01 X25.0834 Y24.5900
G01 X24.7849 Y25.1021
G01 X24.4991 Y25.6214
G01 X24.2262 Y26.1475
G01 X23.9662 Y26.6802
G01 X23.7194 Y27.2191
G01 X23.4859 Y27.7638
G01 X23.2658 Y28.3142
G01 X23.0593 Y28.8697
G01 X22.8664 Y29.4302
G01 X22.6874 Y29.9953
G01 X22.5224 Y30.5645
G01 X22.3713 Y31.1377
G01 X22.2343 Y31.7143
G01 X22.1116 Y32.2942
G01 X22.0031 Y32.8769
G01 X21.9089 Y33.4621
G01 X21.8292 Y34.0494
G01 X21.7649 Y34.6292
G01 X21.0621 Y34.6292
G01 X21.0672 Y34.5699
G01 X21.1344 Y33.9637
G01 X21.2165 Y33.3594
G01 X21.3134 Y32.7572
G01 X21.3944 Y32.3220
G00 Z2.0000
G00 X20.5852 Y32.8765
G01 F80.00
G01 Z-0.0800
G01 F200.00
G01 X20.5241 Y33.2567
G01 X20.4397 Y33.8780
G01 X20.3706 Y34.5013
G01 X20.3596 Y34.6292
G00 Z2.0000
G00 X19.6570 Y34.6292
G01 F80.00
G01 Z-0.0800
G01 F200.00
G01 X19.6739 Y34.4327
G01 X19.7450 Y33.7923
G01 X19.8317 Y33.1540
G01 X19.8520 Y33.0273
G00 Z2.0000
G00 X19.1572 Y32.9398
G01 F80.00
G01 Z-0.0800
G01 F200.00
G01 X19.1392 Y33.0512
G01 X19.0502 Y33.7067
G01 X18.9773 Y34.3641
G01 X18.9545 Y34.6292
G00 Z2.0000
G00 X18.2519 Y34.6292
G01 F80.00
G01 Z-0.0800
G01 F200.00
G01 X18.2807 Y34.2955
G01 X18.3555 Y33.6210
G01 X18.4468 Y32.9485
G01 X18.5001 Y32.6175
G00 Z2.0000
G00 X17.8889 Y32.0303
G01 F80.00
G01 Z-0.0800
G01 F200.00
G01 X17.8649 Y32.1589
G01 X17.7544 Y32.8458
G01 X17.6607 Y33.5353
G01 X17.5841 Y34.2268
G01 X17.5483 Y34.6416
G00 Z2.0000
G00 X16.8280 Y34.8478
G01 F80.00
G01 Z-0.0800
G01 F200.00
G01 X16.8874 Y34.1582
G01 X16.9660 Y33.4496
G01 X17.0620 Y32.7431
G01 X17.1769 Y32.0303
G00 Z2.0000
G00 X16.4677 Y32.0303
G01 F80.00
G01 Z-0.0800
G01 F200.00
G01 X16.3695 Y32.6404
G01 X16.2713 Y33.3639
G01 X16.1908 Y34.0896
G01 X16.1282 Y34.8171
G01 X16.0912 Y35.4193
G00 Z2.0000
G00 X16.0744 Y38.2207
G01 F80.00
G01 Z-0.0800
G01 F200.00
G01 X16.0834 Y38.4654
G01 X16.1282 Y39.1942
G01 X16.1908 Y39.9216
G01 X16.2713 Y40.6473
G01 X16.3695 Y41.3709
G01 X16.4675 Y41.9797
G00 Z2.0000
G00 X15.7586 Y41.9797
G01 F80.00
G01 Z-0.0800
G01 F200.00
G01 X15.6771 Y41.4736
G01 X15.5765 Y40.7330
G01 X15.4942 Y39.9903
G01 X15.4300 Y39.2457
G01 X15.3842 Y38.4997
G01 X15.3567 Y37.7529
G01 X15.3475 Y37.0056
G01 X15.3567 Y36.2583
G01 X15.3842 Y35.5115
G01 X15.4300 Y34.7656
G01 X15.4942 Y34.0210
G01 X15.5765 Y33.2782
G01 X15.6771 Y32.5377
G01 X15.7588 Y32.0303
G00 Z2.0000
G00 X15.0498 Y32.0303
G01 F80.00
G01 Z-0.0800
G01 F200.00
G01 X14.9847 Y32.4350
G01 X14.8818 Y33.1925
G01 X14.7975 Y33.9524
G01 X14.7319 Y34.7141
G01 X14.6851 Y35.4772
G01 X14.6569 Y36.2412
G01 X14.6475 Y37.0056
G01 X14.6569 Y37.7701
G01 X14.6851 Y38.5341
G01 X14.7319 Y39.2972
G01 X14.7975 Y40.0589
G01 X14.8818 Y40.8187
G01 X14.9847 Y41.5763
G01 X15.0496 Y41.9797
G00 Z2.0000
G00 X14.3407 Y41.9797
G01 F80.00
G01 Z-0.0800
G01 F200.00
G01 X14.2923 Y41.6790
G01 X14.1871 Y40.9044
G01 X14.1009 Y40.1275
G01 X14.0338 Y39.3487
G01 X13.9859 Y38.5684
G01 X13.9571 Y37.7873
G01 X13.9475 Y37.0056
G01 X13.9571 Y36.2240
G01 X13.9859 Y35.4428
G01 X14.0338 Y34.6626
G01 X14.1009 Y33.8838
G01 X14.1871 Y33.1068
G01 X14.2923 Y32.3323
G01 X14.3409 Y32.0303
G00 Z2.0000
G00 X13.6319 Y32.0303
G01 F80.00
G01 Z-0.0800
G01 F200.00
G01 X13.5998 Y32.2296
G01 X13.4923 Y33.0212
G01 X13.4043 Y33.8152
G01 X13.3357 Y34.6111
G01 X13.2868 Y35.4085
G01 X13.2573 Y36.2068
G01 X13.2475 Y37.0056
G01 X13.2573 Y37.8044
G01 X13.2868 Y38.6028
G01 X13.3357 Y39.4002
G01 X13.4043 Y40.1961
G01 X13.4923 Y40.9901
G01 X13.5998 Y41.7817
G01 X13.6317 Y41.9797
G01 X12.9228 Y41.9797
G01 X12.9074 Y41.8844
G01 X12.7976 Y41.0758
G01 X12.7076 Y40.2647
G01 X12.6376 Y39.4517
G01 X12.5876 Y38.6371
G01 X12.5576 Y37.8216
G01 X12.5475 Y37.0056
G01 X12.5576 Y36.1896
G01 X12.5876 Y35.3741
G01 X12.6376 Y34.5596
G01 X12.7076 Y33.7466
G01 X12.7976 Y32.9355
G01 X12.9074 Y32.1268
G01 X12.9230 Y32.0303
G00 Z2.0000
G00 X12.6592 Y29.6297
G01 F80.00
G01 Z-0.0800
G01 F200.00
G01 X12.6725 Y29.5671
G01 X12.8650 Y28.7565
G01 X13.0773 Y27.9507
G01 X13.3094 Y27.1505
G01 X13.5611 Y26.3561
G01 X13.8321 Y25.5682
G01 X14.1224 Y24.7872
G01 X14.4318 Y24.0135
G01 X14.5618 Y23.7103
G00 Z2.0000
G00 X15.3234 Y23.7103
G01 F80.00
G01 Z-0.0800
G01 F200.00
G01 X15.0785 Y24.2814
G01 X14.7755 Y25.0391
G01 X14.4912 Y25.8040
G01 X14.2257 Y26.5757
G01 X13.9793 Y27.3537
G01 X13.7520 Y28.1374
G01 X13.5440 Y28.9265
G01 X13.3770 Y29.6297
G00 Z2.0000
G00 X14.0964 Y29.6297
G01 F80.00
G01 Z-0.0800
G01 F200.00
G01 X14.2230 Y29.0966
G01 X14.4266 Y28.3241
G01 X14.6491 Y27.5569
G01 X14.8904 Y26.7953
G01 X15.1503 Y26.0399
G01 X15.4286 Y25.2910
G01 X15.7253 Y24.5493
G01 X16.0400 Y23.8150
G01 X16.0880 Y23.7103
G00 Z2.0000
G00 X16.6955 Y24.0648
G01 F80.00
G01 Z-0.0800
G01 F200.00
G01 X16.8579 Y23.7103
G01 X17.5690 Y23.8386
G01 X17.6278 Y23.7103
G00 Z2.0000
G00 X16.4800 Y24.5651
G01 F80.00
G01 Z-0.0800
G01 F200.00
G01 X16.3720 Y24.8172
G01 X16.0817 Y25.5430
G01 X15.8094 Y26.2757
G01 X15.5551 Y27.0149
G01 X15.3190 Y27.7601
G01 X15.1013 Y28.5108
G01 X14.9020 Y29.2667
G01 X14.8158 Y29.6297
G01 X15.5352 Y29.6297
G01 X15.5811 Y29.4368
G01 X15.7759 Y28.6975
G01 X15.9889 Y27.9633
G01 X16.2197 Y27.2344
G01 X16.4684 Y26.5115
G01 X16.6753 Y25.9550
G00 Z2.0000
G00 X17.3420 Y26.1702
G01 F80.00
G01 Z-0.0800
G01 F200.00
G01 X17.1275 Y26.7473
G01 X16.9711 Y27.2019
G00 Z2.0000
G00 X17.7392 Y27.1209
G01 F80.00
G01 Z-0.0800
G01 F200.00
G01 X17.7866 Y26.9832
G01 X18.0410 Y26.2988
G01 X18.0724 Y26.2203
G00 Z2.0000
G00 X18.9423 Y25.9299
G01 F80.00
G01 Z-0.0800
G01 F200.00
G01 X18.6941 Y26.5507
G01 X18.4675 Y27.1603
G00 Z2.0000
G00 X19.0760 Y27.5385
G01 F80.00
G01 Z-0.0800
G01 F200.00
G01 X19.1048 Y27.4548
G01 X19.3472 Y26.8026
G01 X19.6056 Y26.1566
G01 X19.8797 Y25.5170
G01 X20.1694 Y24.8844
G01 X20.2839 Y24.6499
G00 Z2.0000
G00 X21.3995 Y23.9964
G01 F80.00
G01 Z-0.0800
G01 F200.00
G01 X21.0999 Y24.5739
G01 X20.8022 Y25.1837
G01 X20.5196 Y25.8007
G01 X20.2523 Y26.4244
G01 X20.0003 Y27.0545
G01 X19.7638 Y27.6906
G01 X19.6267 Y28.0893
G00 Z2.0000
G00 X17.7165 Y29.5739
G01 F80.00
G01 Z-0.0800
G01 F200.00
G01 X17.7018 Y29.6297
G00 Z2.0000
G00 X17.0246 Y29.4525
G01 F80.00
G01 Z-0.0800
G01 F200.00
G01 X16.9779 Y29.6297
G00 Z2.0000
G00 X16.2547 Y29.6297
G01 F80.00
G01 Z-0.0800
G01 F200.00
G01 X16.2601 Y29.6069
G01 X16.4506 Y28.8842
G01 X16.4801 Y28.7823
G00 Z2.0000
G00 X12.5000 Y27.4285
G01 F80.00
G01 Z-0.0800
G01 F200.00
G01 X12.6396 Y26.9473
G01 X12.8964 Y26.1366
G01 X13.1730 Y25.3324
G01 X13.4693 Y24.5353
G01 X13.7851 Y23.7456
G01 X13.8003 Y23.7103
G01 X12.6105 Y24.8369
G01 X12.5140 Y25.0966
G01 X12.5000 Y25.1371
G00 Z2.0000
G00 X12.5000 Y19.8714
G01 F80.00
G01 Z-0.0800
G01 F200.00
G01 X12.7696 Y19.3518
G01 X13.2128 Y18.5466
G01 X13.6756 Y17.7525
G01 X14.1578 Y16.9700
G01 X14.6590 Y16.1995
G01 X15.1790 Y15.4416
G01 X15.7174 Y14.6967
G01 X16.2740 Y13.9652
G01 X16.8483 Y13.2476
G01 X17.4401 Y12.5443
G01 X18.0448 Y11.8604
G01 X17.2432 Y11.7103
G01 X16.9100 Y12.0871
G01 X16.3072 Y12.8035
G01 X15.7221 Y13.5345
G01 X15.1552 Y14.2797
G01 X14.6067 Y15.0385
G01 X14.0770 Y15.8106
G01 X13.5664 Y16.5955
G01 X13.0752 Y17.3926
G01 X12.6037 Y18.2016
G01 X12.5000 Y18.3900
G01 X12.5000 Y16.9918
G01 X12.9750 Y16.2210
G01 X13.4949 Y15.4217
G01 X14.0344 Y14.6355
G01 X14.5929 Y13.8627
G01 X15.1703 Y13.1039
G01 X15.7661 Y12.3594
G01 X16.3123 Y11.7103
G00 Z2.0000
G00 X15.3976 Y11.7103
G01 F80.00
G01 Z-0.0800
G01 F200.00
G01 X15.2250 Y11.9154
G01 X14.6184 Y12.6732
G01 X14.0307 Y13.4457
G01 X13.4621 Y14.2324
G01 X12.9129 Y15.0328
G01 X12.5000 Y15.6675
G01 X12.5000 Y14.3974
G01 X12.8898 Y13.8293
G01 X13.4684 Y13.0287
G01 X14.0666 Y12.2426
G01 X14.4926 Y11.7103
G01 X13.1306 Y12.3168
G01 X12.9062 Y12.6117
G01 X12.5000 Y13.1737
G00 Z2.0000
G00 X12.5000 Y9.5653
G01 F80.00
G01 Z-0.0800
G01 F200.00
G01 X12.5500 Y9.5282
G01 X12.5783 Y9.5087
G01 X12.6022 Y9.4936
G01 X12.6443 Y9.4684
G01 X12.6645 Y9.4568
G01 X12.6950 Y9.4408
G01 X12.7548 Y9.4124
G01 X12.7864 Y9.3988
G01 X12.8127 Y9.3887
G01 X12.8694 Y9.3686
G01 X12.9022 Y9.3583
G01 X12.9247 Y9.3523
G01 X12.9783 Y9.3389
G01 X13.0119 Y9.3317
G01 X13.0336 Y9.3279
G01 X13.0883 Y9.3197
G01 X13.1163 Y9.3162
G01 X13.1456 Y9.3136
G01 X13.2057 Y9.3106
G01 X13.2400 Y9.3097
G01 X17.9367 Y9.3097
G01 X17.9542 Y9.2827
G01 X17.9706 Y9.2597
G01 X18.0619 Y9.1365
G01 X18.0755 Y9.1191
G01 X18.0945 Y9.0966
G01 X18.2007 Y8.9792
G01 X18.2201 Y8.9587
G01 X18.2447 Y8.9348
G01 X18.3583 Y8.8318
G01 X18.3796 Y8.8133
G01 X18.4065 Y8.7919
G01 X18.5297 Y8.7006
G01 X18.5527 Y8.6842
G01 X18.5670 Y8.6747
G01 X18.5868 Y8.6624
G01 X18.7183 Y8.5836
G01 X18.7484 Y8.5669
G01 X18.7736 Y8.5543
G01 X18.9122 Y8.4888
G01 X18.9438 Y8.4752
G01 X18.9702 Y8.4651
G01 X19.1145 Y8.4135
G01 X19.1355 Y8.4065
G01 X19.1685 Y8.3971
G01 X19.3173 Y8.3598
G01 X19.3400 Y8.3545
G01 X19.3568 Y8.3511
G01 X19.3847 Y8.3464
G01 X19.5303 Y8.3248
G01 X19.5583 Y8.3212
G01 X19.5925 Y8.3184
G01 X19.7457 Y8.3108
G01 X19.7739 Y8.3100
G01 X19.8082 Y8.3106
G01 X19.9614 Y8.3181
G01 X19.9846 Y8.3196
G01 X20.0017 Y8.3212
G01 X20.0297 Y8.3248
G01 X20.1753 Y8.3464
G01 X20.1983 Y8.3502
G01 X20.2152 Y8.3535
G01 X20.2427 Y8.3598
G01 X20.3855 Y8.3956
G01 X20.4127 Y8.4030
G01 X20.4292 Y8.4080
G01 X20.4512 Y8.4155
G01 X20.5898 Y8.4651
G01 X20.6162 Y8.4752
G01 X20.6321 Y8.4818
G01 X20.6533 Y8.4914
G01 X20.7864 Y8.5543
G01 X20.8116 Y8.5669
G01 X20.8268 Y8.5751
G01 X20.8470 Y8.5867
G01 X20.9732 Y8.6624
G01 X20.9971 Y8.6774
G01 X21.0114 Y8.6870
G01 X21.0303 Y8.7006
G01 X21.1486 Y8.7882
G01 X21.1709 Y8.8055
G01 X21.1841 Y8.8165
G01 X21.2017 Y8.8318
G01 X21.3108 Y8.9307
G01 X21.3313 Y8.9501
G01 X21.3552 Y8.9747
G01 X21.4582 Y9.0883
G01 X21.4735 Y9.1059
G01 X21.4845 Y9.1191
G01 X21.5018 Y9.1414
G01 X21.5959 Y9.2686
G01 X21.6126 Y9.2929
G01 X21.6276 Y9.3168
G01 X21.7064 Y9.4483
G01 X21.7173 Y9.4675
G01 X21.7253 Y9.4827
G01 X21.7357 Y9.5036
G01 X21.8012 Y9.6422
G01 X21.8102 Y9.6624
G01 X21.8228 Y9.6944
G01 X21.8745 Y9.8388
G01 X21.8820 Y9.8608
G01 X21.8870 Y9.8773
G01 X21.8944 Y9.9045
G01 X21.9302 Y10.0473
G01 X21.9355 Y10.0700
G01 X21.9389 Y10.0868
G01 X21.9436 Y10.1147
G01 X21.9652 Y10.2603
G01 X21.9682 Y10.2834
G01 X21.9700 Y10.3005
G01 X21.9719 Y10.3286
G01 X21.9792 Y10.4757
G01 X21.9799 Y10.4990
G01 X21.9800 Y10.5161
G01 X21.9792 Y10.5443
G01 X21.9719 Y10.6914
G01 X21.9700 Y10.7195
G01 X21.9682 Y10.7366
G01 X21.9652 Y10.7597
G01 X21.9427 Y10.9114
G01 X21.9389 Y10.9332
G01 X21.9328 Y10.9620
G01 X21.8944 Y11.1155
G01 X21.8884 Y11.1380
G01 X21.8835 Y11.1545
G01 X21.8745 Y11.1812
G01 X21.8228 Y11.3256
G01 X21.8102 Y11.3576
G01 X21.7986 Y11.3833
G01 X21.7357 Y11.5164
G01 X21.7253 Y11.5373
G01 X21.7173 Y11.5525
G01 X21.7033 Y11.5770
G01 X21.6276 Y11.7032
G01 X21.6126 Y11.7271
G01 X21.6030 Y11.7414
G01 X21.5894 Y11.7603
G01 X21.4981 Y11.8835
G01 X21.4845 Y11.9009
G01 X21.4655 Y11.9234
G01 X21.3593 Y12.0408
G01 X21.3399 Y12.0613
G01 X21.3278 Y12.0734
G01 X21.3108 Y12.0893
G01 X21.1971 Y12.1923
G01 X21.1709 Y12.2145
G01 X21.1486 Y12.2318
G01 X21.0303 Y12.3194
G01 X21.0114 Y12.3330
G01 X20.9971 Y12.3426
G01 X20.9732 Y12.3576
G01 X20.8470 Y12.4333
G01 X20.8225 Y12.4473
G01 X20.8073 Y12.4553
G01 X20.7864 Y12.4657
G01 X20.6478 Y12.5312
G01 X20.6276 Y12.5402
G01 X20.6002 Y12.5511
G01 X20.4512 Y12.6045
G01 X20.4245 Y12.6135
G01 X20.4080 Y12.6184
G01 X20.3855 Y12.6244
G01 X20.2368 Y12.6617
G01 X20.2032 Y12.6689
G01 X20.1753 Y12.6736
G01 X20.0297 Y12.6952
G01 X20.0017 Y12.6988
G01 X19.9846 Y12.7004
G01 X19.9614 Y12.7019
G01 X19.8143 Y12.7092
G01 X19.7861 Y12.7100
G01 X19.7518 Y12.7094
G01 X19.5986 Y12.7019
G01 X19.5754 Y12.7004
G01 X19.5583 Y12.6988
G01 X19.5303 Y12.6952
G01 X19.3786 Y12.6727
G01 X19.3568 Y12.6689
G01 X19.3280 Y12.6628
G01 X19.1745 Y12.6244
G01 X19.1473 Y12.6170
G01 X19.1308 Y12.6120
G01 X19.1088 Y12.6045
G01 X18.9598 Y12.5511
G01 X18.9324 Y12.5402
G01 X18.9122 Y12.5312
G01 X18.7736 Y12.4657
G01 X18.7527 Y12.4553
G01 X18.7375 Y12.4473
G01 X18.7130 Y12.4333
G01 X18.5815 Y12.3544
G01 X18.5527 Y12.3358
G01 X18.5297 Y12.3194
G01 X18.4114 Y12.2318
G01 X18.3929 Y12.2176
G01 X18.3796 Y12.2067
G01 X18.3583 Y12.1882
G01 X18.2492 Y12.0893
G01 X18.2287 Y12.0699
G01 X18.2166 Y12.0578
G01 X18.2007 Y12.0408
G01 X18.0977 Y11.9271
G01 X18.0755 Y11.9009
G01 X18.0582 Y11.8786
G01 X17.9641 Y11.7514
G01 X17.9474 Y11.7271
G01 X17.9367 Y11.7103
G01 X13.7372 Y11.7103
G01 X12.5000 Y12.9474
G01 X12.5000 Y20.0726
G01 X13.7372 Y21.3097
G01 X17.9367 Y21.3097
G01 X17.9474 Y21.2929
G01 X17.9641 Y21.2686
G01 X18.0582 Y21.1414
G01 X18.0755 Y21.1191
G01 X18.0977 Y21.0929
G01 X18.2007 Y20.9792
G01 X18.2166 Y20.9622
G01 X18.2287 Y20.9501
G01 X18.2492 Y20.9307
G01 X18.3583 Y20.8318
G01 X18.3796 Y20.8133
G01 X18.3929 Y20.8024
G01 X18.4114 Y20.7882
G01 X18.5297 Y20.7006
G01 X18.5527 Y20.6842
G01 X18.5815 Y20.6656
G01 X18.7130 Y20.5867
G01 X18.7375 Y20.5727
G01 X18.7527 Y20.5647
G01 X18.7736 Y20.5543
G01 X18.9122 Y20.4888
G01 X18.9324 Y20.4798
G01 X18.9598 Y20.4689
G01 X19.1088 Y20.4155
G01 X19.1308 Y20.4080
G01 X19.1473 Y20.4030
G01 X19.1745 Y20.3956
G01 X19.3280 Y20.3572
G01 X19.3568 Y20.3511
G01 X19.3786 Y20.3473
G01 X19.5303 Y20.3248
G01 X19.5583 Y20.3212
G01 X19.5754 Y20.3196
G01 X19.5986 Y20.3181
G01 X19.7518 Y20.3106
G01 X19.7861 Y20.3100
G01 X19.8143 Y20.3108
G01 X19.9614 Y20.3181
G01 X19.9846 Y20.3196
G01 X20.0017 Y20.3212
G01 X20.0297 Y20.3248
G01 X20.1753 Y20.3464
G01 X20.2032 Y20.3511
G01 X20.2200 Y20.3545
G01 X20.2427 Y20.3598
G01 X20.3915 Y20.3971
G01 X20.4127 Y20.4030
G01 X20.4408 Y20.4119
G01 X20.5898 Y20.4651
G01 X20.6162 Y20.4752
G01 X20.6321 Y20.4818
G01 X20.6533 Y20.4914
G01 X20.7919 Y20.5570
G01 X20.8225 Y20.5727
G01 X20.8470 Y20.5867
G01 X20.9732 Y20.6624
G01 X20.9930 Y20.6747
G01 X21.0073 Y20.6842
G01 X21.0303 Y20.7006
G01 X21.1486 Y20.7882
G01 X21.1709 Y20.8055
G01 X21.1841 Y20.8165
G01 X21.2017 Y20.8318
G01 X21.3153 Y20.9348
G01 X21.3313 Y20.9501
G01 X21.3518 Y20.9711
G01 X21.4582 Y21.0883
G01 X21.4767 Y21.1096
G01 X21.4876 Y21.1229
G01 X21.5018 Y21.1414
G01 X21.5931 Y21.2646
G01 X21.6126 Y21.2929
G01 X21.6276 Y21.3168
G01 X21.7033 Y21.4430
G01 X21.7149 Y21.4632
G01 X21.7231 Y21.4784
G01 X21.7357 Y21.5036
G01 X21.7986 Y21.6367
G01 X21.8102 Y21.6624
G01 X21.8167 Y21.6783
G01 X21.8249 Y21.7002
G01 X21.8765 Y21.8445
G01 X21.8835 Y21.8655
G01 X21.8917 Y21.8938
G01 X21.9302 Y22.0473
G01 X21.9365 Y22.0748
G01 X21.9398 Y22.0917
G01 X21.9436 Y22.1147
G01 X21.9661 Y22.2663
G01 X21.9700 Y22.3005
G01 X21.9719 Y22.3286
G01 X21.9792 Y22.4757
G01 X21.9799 Y22.4990
G01 X21.9800 Y22.5161
G01 X21.9792 Y22.5443
G01 X21.9719 Y22.6914
G01 X21.9704 Y22.7146
G01 X21.9688 Y22.7317
G01 X21.9652 Y22.7597
G01 X21.9436 Y22.9053
G01 X21.9398 Y22.9283
G01 X21.9365 Y22.9452
G01 X21.9302 Y22.9727
G01 X21.8944 Y23.1155
G01 X21.8884 Y23.1380
G01 X21.8835 Y23.1545
G01 X21.8745 Y23.1812
G01 X21.8249 Y23.3198
G01 X21.8148 Y23.3462
G01 X21.8082 Y23.3621
G01 X21.7986 Y23.3833
G01 X21.7357 Y23.5164
G01 X21.7231 Y23.5416
G01 X21.7149 Y23.5568
G01 X21.7033 Y23.5770
G01 X21.6276 Y23.7032
G01 X21.6126 Y23.7271
G01 X21.6030 Y23.7414
G01 X21.5894 Y23.7603
G01 X21.5018 Y23.8786
G01 X21.4845 Y23.9009
G01 X21.4735 Y23.9141
G01 X21.4582 Y23.9317
G01 X21.3593 Y24.0408
G01 X21.3434 Y24.0578
G01 X21.3278 Y24.0734
G01 X21.3153 Y24.0852
G01 X21.1971 Y24.1923
G01 X21.1709 Y24.2145
G01 X21.1486 Y24.2318
G01 X21.0254 Y24.3231
G01 X20.9971 Y24.3426
G01 X20.9732 Y24.3576
G01 X20.8470 Y24.4333
G01 X20.8225 Y24.4473
G01 X20.8073 Y24.4553
G01 X20.7864 Y24.4657
G01 X20.6478 Y24.5312
G01 X20.6162 Y24.5448
G01 X20.5898 Y24.5549
G01 X20.4455 Y24.6065
G01 X20.4127 Y24.6170
G01 X20.3855 Y24.6244
G01 X20.2427 Y24.6602
G01 X20.2099 Y24.6676
G01 X19.0087 Y25.8687
G01 X18.9883 Y25.8882
G01 X18.9392 Y25.9327
G01 X18.9167 Y25.9517
G01 X18.9032 Y25.9623
G01 X18.8549 Y25.9982
G01 X18.8319 Y26.0145
G01 X18.8072 Y26.0306
G01 X18.7557 Y26.0616
G01 X18.7355 Y26.0732
G01 X18.7045 Y26.0902
G01 X18.6848 Y26.1001
G01 X18.6580 Y26.1124
G01 X18.6250 Y26.1265
G01 X18.5976 Y26.1374
G01 X18.5410 Y26.1578
G01 X18.5190 Y26.1653
G01 X18.4978 Y26.1717
G01 X18.4753 Y26.1777
G01 X18.4169 Y26.1922
G01 X18.4002 Y26.1960
G01 X18.3712 Y26.2013
G01 X18.3008 Y26.2118
G01 X18.2715 Y26.2150
G01 X18.2495 Y26.2167
G01 X18.1882 Y26.2197
G01 X18.1661 Y26.2202
G01 X17.7690 Y26.2202
G01 X17.7457 Y26.2194
G01 X17.6966 Y26.2170
G01 X17.6685 Y26.2150
G01 X17.6392 Y26.2118
G01 X17.5797 Y26.2031
G01 X17.5519 Y26.1983
G01 X17.5231 Y26.1922
G01 X17.4647 Y26.1777
G01 X17.4376 Y26.1704
G01 X17.1793 Y26.1700
G01 X17.1567 Y26.1696
G01 X17.1395 Y26.1688
G01 X17.1053 Y26.1660
G01 X17.0712 Y26.1615
G01 X17.0374 Y26.1553
G01 X17.0040 Y26.1475
G01 X16.9874 Y26.1430
G01 X16.9663 Y26.1366
G01 X16.9384 Y26.1270
G01 X16.9224 Y26.1209
G01 X16.9065 Y26.1143
G01 X16.8863 Y26.1054
G01 X16.8598 Y26.0925
G01 X16.8403 Y26.0821
G01 X16.8149 Y26.0672
G01 X16.8003 Y26.0581
G01 X16.7820 Y26.0458
G01 X16.7581 Y26.0286
G01 X16.7445 Y26.0180
G01 X16.7274 Y26.0040
G01 X16.7054 Y25.9845
G01 X16.6929 Y25.9727
G01 X16.6773 Y25.9571
G01 X16.6572 Y25.9355
G01 X16.6460 Y25.9226
G01 X16.6320 Y25.9055
G01 X16.6214 Y25.8919
G01 X16.6042 Y25.8680
G01 X16.5919 Y25.8497
G01 X16.5765 Y25.8246
G01 X16.5656 Y25.8054
G01 X16.5575 Y25.7902
G01 X16.5446 Y25.7637
G01 X16.5357 Y25.7435
G01 X16.5247 Y25.7162
G01 X16.5189 Y25.7000
G01 X16.5120 Y25.6791
G01 X16.5070 Y25.6626
G01 X16.4995 Y25.6341
G01 X16.4957 Y25.6174
G01 X16.4914 Y25.5957
G01 X16.4885 Y25.5788
G01 X16.4861 Y25.5618
G01 X16.4828 Y25.5325
G01 X16.4812 Y25.5105
G01 X16.4801 Y25.4810
G01 X16.4800 Y24.5700
G01 X16.4804 Y24.5467
G01 X16.4812 Y24.5295
G01 X16.4824 Y24.5124
G01 X16.4846 Y24.4904
G01 X16.4885 Y24.4612
G01 X16.4923 Y24.4395
G01 X16.4957 Y24.4226
G01 X16.5025 Y24.3940
G01 X16.5084 Y24.3727
G01 X16.5134 Y24.3563
G01 X16.5230 Y24.3284
G01 X16.5310 Y24.3078
G01 X16.5426 Y24.2807
G01 X16.5499 Y24.2652
G01 X16.5598 Y24.2455
G01 X16.5679 Y24.2303
G01 X16.5765 Y24.2154
G01 X16.5919 Y24.1903
G01 X16.6042 Y24.1720
G01 X16.6214 Y24.1481
G01 X16.6350 Y24.1307
G01 X16.6540 Y24.1082
G01 X16.6773 Y24.0829
G01 X16.6929 Y24.0673
G01 X16.7145 Y24.0472
G01 X16.7312 Y24.0328
G01 X16.7542 Y24.0144
G01 X16.7719 Y24.0013
G01 X16.7962 Y23.9846
G01 X16.8254 Y23.9665
G01 X16.8446 Y23.9556
G01 X16.8708 Y23.9420
G01 X16.8907 Y23.9326
G01 X16.9178 Y23.9210
G01 X16.9384 Y23.9130
G01 X16.9663 Y23.9034
G01 X16.9827 Y23.8984
G01 X17.0040 Y23.8925
G01 X17.0326 Y23.8857
G01 X17.0495 Y23.8823
G01 X17.0712 Y23.8785
G01 X17.0882 Y23.8761
G01 X17.1175 Y23.8728
G01 X17.1346 Y23.8715
G01 X17.1690 Y23.8701
G01 X17.4364 Y23.8700
G01 X17.4647 Y23.8623
G01 X17.5183 Y23.8489
G01 X17.5398 Y23.8440
G01 X17.5567 Y23.8408
G01 X17.5797 Y23.8369
G01 X17.6343 Y23.8289
G01 X17.6564 Y23.8261
G01 X17.7723 Y23.7103
G01 X13.7372 Y23.7103
G01 X12.5000 Y24.9474
G01 X12.5000 Y29.6297
G01 X17.7723 Y29.6297
G01 X17.6564 Y29.5139
G01 X17.6283 Y29.5103
G01 X17.5736 Y29.5021
G01 X17.5519 Y29.4983
G01 X17.5350 Y29.4949
G01 X17.5123 Y29.4897
G01 X17.4588 Y29.4762
G01 X17.4376 Y29.4704
G01 X17.1690 Y29.4699
G01 X17.1395 Y29.4688
G01 X17.1224 Y29.4676
G01 X17.0882 Y29.4639
G01 X17.0712 Y29.4615
G01 X17.0495 Y29.4577
G01 X17.0207 Y29.4516
G01 X17.0040 Y29.4475
G01 X16.9874 Y29.4430
G01 X16.9663 Y29.4366
G01 X16.9384 Y29.4270
G01 X16.9224 Y29.4209
G01 X16.9020 Y29.4124
G01 X16.8752 Y29.4001
G01 X16.8555 Y29.3902
G01 X16.8297 Y29.3760
G01 X16.8107 Y29.3646
G01 X16.7860 Y29.3486
G01 X16.7680 Y29.3359
G01 X16.7445 Y29.3180
G01 X16.7274 Y29.3040
G01 X16.7054 Y29.2845
G01 X16.6894 Y29.2693
G01 X16.6688 Y29.2482
G01 X16.6460 Y29.2226
G01 X16.6320 Y29.2055
G01 X16.6141 Y29.1820
G01 X16.6014 Y29.1640
G01 X16.5919 Y29.1497
G01 X16.5765 Y29.1246
G01 X16.5656 Y29.1054
G01 X16.5575 Y29.0902
G01 X16.5446 Y29.0637
G01 X16.5357 Y29.0435
G01 X16.5247 Y29.0162
G01 X16.5189 Y29.0000
G01 X16.5120 Y28.9791
G01 X16.5070 Y28.9626
G01 X16.4995 Y28.9341
G01 X16.4957 Y28.9174
G01 X16.4914 Y28.8957
G01 X16.4885 Y28.8788
G01 X16.4846 Y28.8496
G01 X16.4824 Y28.8276
G01 X16.4806 Y28.7982
G01 X16.4800 Y28.7700
G01 X16.4800 Y27.8639
G01 X16.4812 Y27.8295
G01 X16.4840 Y27.7953
G01 X16.4885 Y27.7612
G01 X16.4947 Y27.7274
G01 X16.4995 Y27.7059
G01 X16.5070 Y27.6774
G01 X16.5120 Y27.6609
G01 X16.5189 Y27.6400
G01 X16.5291 Y27.6124
G01 X16.5357 Y27.5965
G01 X16.5446 Y27.5763
G01 X16.5575 Y27.5498
G01 X16.5656 Y27.5346
G01 X16.5765 Y27.5154
G01 X16.5854 Y27.5007
G01 X16.6014 Y27.4760
G01 X16.6141 Y27.4580
G01 X16.6320 Y27.4345
G01 X16.6428 Y27.4212
G01 X16.6572 Y27.4045
G01 X16.6773 Y27.3829
G01 X16.6929 Y27.3673
G01 X16.7145 Y27.3472
G01 X16.7274 Y27.3360
G01 X16.7445 Y27.3220
G01 X16.7581 Y27.3114
G01 X16.7719 Y27.3013
G01 X16.7962 Y27.2846
G01 X16.8149 Y27.2728
G01 X16.8297 Y27.2640
G01 X16.8555 Y27.2498
G01 X16.8752 Y27.2399
G01 X16.8907 Y27.2326
G01 X16.9178 Y27.2210
G01 X16.9384 Y27.2130
G01 X16.9546 Y27.2073
G01 X16.9827 Y27.1984
G01 X16.9992 Y27.1938
G01 X17.0207 Y27.1884
G01 X17.0374 Y27.1847
G01 X17.0664 Y27.1793
G01 X17.0834 Y27.1767
G01 X17.1053 Y27.1740
G01 X17.1224 Y27.1724
G01 X17.1518 Y27.1706
G01 X17.1739 Y27.1700
G01 X17.4364 Y27.1700
G01 X17.4588 Y27.1638
G01 X17.5183 Y27.1489
G01 X17.5398 Y27.1440
G01 X17.5567 Y27.1408
G01 X17.5797 Y27.1369
G01 X17.6392 Y27.1282
G01 X17.6685 Y27.1250
G01 X17.6905 Y27.1233
G01 X17.7518 Y27.1203
G01 X17.7739 Y27.1198
G01 X18.1661 Y27.1198
G01 X18.1943 Y27.1206
G01 X18.2544 Y27.1236
G01 X18.2837 Y27.1262
G01 X18.3008 Y27.1282
G01 X18.3603 Y27.1369
G01 X18.3881 Y27.1417
G01 X18.4217 Y27.1489
G01 X18.4812 Y27.1638
G01 X18.5143 Y27.1732
G01 X18.5352 Y27.1802
G01 X18.5930 Y27.2009
G01 X18.6250 Y27.2135
G01 X18.6657 Y27.2310
G01 X18.6963 Y27.2455
G01 X18.7113 Y27.2534
G01 X18.7367 Y27.2674
G01 X18.7683 Y27.2860
G01 X18.8072 Y27.3094
G01 X18.8360 Y27.3282
G01 X18.8549 Y27.3418
G01 X18.8943 Y27.3711
G01 X18.9167 Y27.3883
G01 X18.9299 Y27.3993
G01 X18.9474 Y27.4146
G01 X18.9883 Y27.4518
G01 X19.0087 Y27.4713
G01 X20.2099 Y28.6724
G01 X20.2427 Y28.6798
G01 X20.3855 Y28.7156
G01 X20.4127 Y28.7230
G01 X20.4455 Y28.7335
G01 X20.5898 Y28.7851
G01 X20.6162 Y28.7952
G01 X20.6478 Y28.8088
G01 X20.7864 Y28.8743
G01 X20.8073 Y28.8847
G01 X20.8225 Y28.8927
G01 X20.8470 Y28.9067
G01 X20.9732 Y28.9824
G01 X20.9971 Y28.9974
G01 X21.0254 Y29.0169
G01 X21.1486 Y29.1082
G01 X21.1709 Y29.1255
G01 X21.1971 Y29.1477
G01 X21.3108 Y29.2507
G01 X21.3278 Y29.2666
G01 X21.3399 Y29.2787
G01 X21.3593 Y29.2992
G01 X21.4582 Y29.4083
G01 X21.4735 Y29.4259
G01 X21.4845 Y29.4391
G01 X21.5018 Y29.4614
G01 X21.5894 Y29.5797
G01 X21.6030 Y29.5986
G01 X21.6126 Y29.6129
G01 X21.6276 Y29.6368
G01 X21.7033 Y29.7630
G01 X21.7149 Y29.7832
G01 X21.7231 Y29.7984
G01 X21.7357 Y29.8236
G01 X21.7986 Y29.9567
G01 X21.8082 Y29.9779
G01 X21.8148 Y29.9938
G01 X21.8249 Y30.0202
G01 X21.8745 Y30.1588
G01 X21.8820 Y30.1808
G01 X21.8870 Y30.1973
G01 X21.8944 Y30.2245
G01 X21.9302 Y30.3673
G01 X21.9355 Y30.3900
G01 X21.9389 Y30.4068
G01 X21.9436 Y30.4347
G01 X21.9652 Y30.5803
G01 X21.9682 Y30.6034
G01 X21.9700 Y30.6205
G01 X21.9719 Y30.6486
G01 X21.9792 Y30.7957
G01 X21.9799 Y30.8190
G01 X21.9800 Y30.8361
G01 X21.9792 Y30.8643
G01 X21.9719 Y31.0114
G01 X21.9704 Y31.0346
G01 X21.9688 Y31.0517
G01 X21.9652 Y31.0797
G01 X21.9436 Y31.2253
G01 X21.9389 Y31.2532
G01 X21.9355 Y31.2700
G01 X21.9302 Y31.2927
G01 X21.8944 Y31.4355
G01 X21.8870 Y31.4627
G01 X21.8820 Y31.4792
G01 X21.8745 Y31.5012
G01 X21.8228 Y31.6456
G01 X21.8148 Y31.6662
G01 X21.8012 Y31.6978
G01 X21.7357 Y31.8364
G01 X21.7253 Y31.8573
G01 X21.7149 Y31.8768
G01 X21.7064 Y31.8917
G01 X21.6276 Y32.0232
G01 X21.6153 Y32.0430
G01 X21.6058 Y32.0573
G01 X21.5894 Y32.0803
G01 X21.4951 Y32.2074
G01 X21.4767 Y32.2304
G01 X21.4582 Y32.2517
G01 X21.3552 Y32.3653
G01 X21.3313 Y32.3899
G01 X21.3108 Y32.4093
G01 X21.2017 Y32.5082
G01 X21.1841 Y32.5235
G01 X21.1709 Y32.5345
G01 X21.1486 Y32.5518
G01 X21.0303 Y32.6394
G01 X21.0114 Y32.6530
G01 X20.9971 Y32.6626
G01 X20.9732 Y32.6776
G01 X20.8470 Y32.7533
G01 X20.8268 Y32.7649
G01 X20.8116 Y32.7731
G01 X20.7864 Y32.7857
G01 X20.6533 Y32.8486
G01 X20.6276 Y32.8602
G01 X20.6117 Y32.8667
G01 X20.5898 Y32.8749
G01 X20.4512 Y32.9245
G01 X20.4245 Y32.9335
G01 X20.4080 Y32.9384
G01 X20.3855 Y32.9444
G01 X20.2427 Y32.9802
G01 X20.2152 Y32.9865
G01 X20.1983 Y32.9898
G01 X20.1753 Y32.9936
G01 X20.0188 Y33.0167
G01 X19.9895 Y33.0200
G01 X19.9675 Y33.0216
G01 X19.8143 Y33.0292
G01 X19.7861 Y33.0300
G01 X19.7518 Y33.0294
G01 X19.5986 Y33.0219
G01 X19.5754 Y33.0204
G01 X19.5583 Y33.0188
G01 X19.5303 Y33.0152
G01 X19.3847 Y32.9936
G01 X19.3617 Y32.9898
G01 X19.3448 Y32.9865
G01 X19.3232 Y32.9817
G01 X19.1745 Y32.9444
G01 X19.1473 Y32.9370
G01 X19.1145 Y32.9265
G01 X18.9702 Y32.8749
G01 X18.9438 Y32.8648
G01 X18.9122 Y32.8512
G01 X18.7736 Y32.7857
G01 X18.7484 Y32.7731
G01 X18.7183 Y32.7564
G01 X18.5868 Y32.6776
G01 X18.5629 Y32.6626
G01 X18.5486 Y32.6530
G01 X18.5297 Y32.6394
G01 X18.4065 Y32.5481
G01 X18.3796 Y32.5267
G01 X18.3583 Y32.5082
G01 X18.2447 Y32.4052
G01 X18.2201 Y32.3813
G01 X18.2007 Y32.3608
G01 X18.0945 Y32.2434
G01 X18.0755 Y32.2209
G01 X18.0619 Y32.2035
G01 X17.9706 Y32.0803
G01 X17.9542 Y32.0573
G01 X17.9367 Y32.0303
G01 X12.5000 Y32.0303
G01 X12.5000 Y41.9797
G01 X17.7510 Y41.9797
G01 X17.7614 Y41.9567
G01 X17.8243 Y41.8236
G01 X17.8369 Y41.7984
G01 X17.8451 Y41.7832
G01 X17.8567 Y41.7630
G01 X17.9356 Y41.6315
G01 X17.9474 Y41.6129
G01 X17.9641 Y41.5886
G01 X18.0582 Y41.4614
G01 X18.0724 Y41.4429
G01 X18.0833 Y41.4296
G01 X18.1018 Y41.4083
G01 X18.2048 Y41.2947
G01 X18.2287 Y41.2701
G01 X18.2492 Y41.2507
G01 X18.3583 Y41.1518
G01 X18.3759 Y41.1365
G01 X18.3891 Y41.1255
G01 X18.4114 Y41.1082
G01 X18.5297 Y41.0206
G01 X18.5527 Y41.0042
G01 X18.5815 Y40.9856
G01 X18.7130 Y40.9067
G01 X18.7375 Y40.8927
G01 X18.7527 Y40.8847
G01 X18.7736 Y40.8743
G01 X18.9167 Y40.8068
G01 X18.9438 Y40.7952
G01 X18.9644 Y40.7872
G01 X19.1088 Y40.7355
G01 X19.1308 Y40.7280
G01 X19.1473 Y40.7230
G01 X19.1745 Y40.7156
G01 X19.3173 Y40.6798
G01 X19.3448 Y40.6735
G01 X19.3617 Y40.6702
G01 X19.3847 Y40.6664
G01 X19.5363 Y40.6439
G01 X19.5705 Y40.6400
G01 X19.5986 Y40.6381
G01 X19.7518 Y40.6306
G01 X19.7861 Y40.6300
G01 X19.8143 Y40.6308
G01 X19.9614 Y40.6381
G01 X19.9895 Y40.6400
G01 X20.0066 Y40.6418
G01 X20.0297 Y40.6448
G01 X20.1753 Y40.6664
G01 X20.2032 Y40.6711
G01 X20.2200 Y40.6745
G01 X20.2427 Y40.6798
G01 X20.3855 Y40.7156
G01 X20.4127 Y40.7230
G01 X20.4292 Y40.7280
G01 X20.4512 Y40.7355
G01 X20.5898 Y40.7851
G01 X20.6162 Y40.7952
G01 X20.6321 Y40.8018
G01 X20.6533 Y40.8114
G01 X20.7864 Y40.8743
G01 X20.8116 Y40.8869
G01 X20.8268 Y40.8951
G01 X20.8470 Y40.9067
G01 X20.9732 Y40.9824
G01 X20.9971 Y40.9974
G01 X21.0114 Y41.0070
G01 X21.0303 Y41.0206
G01 X21.1486 Y41.1082
G01 X21.1709 Y41.1255
G01 X21.1841 Y41.1365
G01 X21.2017 Y41.1518
G01 X21.3108 Y41.2507
G01 X21.3313 Y41.2701
G01 X21.3552 Y41.2947
G01 X21.4582 Y41.4083
G01 X21.4767 Y41.4296
G01 X21.4951 Y41.4526
G01 X21.5894 Y41.5797
G01 X21.6030 Y41.5986
G01 X21.6126 Y41.6129
G01 X21.6276 Y41.6368
G01 X21.7064 Y41.7683
G01 X21.7149 Y41.7832
G01 X21.7253 Y41.8027
G01 X21.7357 Y41.8236
G01 X21.8012 Y41.9622
G01 X21.8148 Y41.9938
G01 X21.8228 Y42.0144
G01 X21.8745 Y42.1588
G01 X21.8820 Y42.1808
G01 X21.8870 Y42.1973
G01 X21.8944 Y42.2245
G01 X21.9302 Y42.3673
G01 X21.9355 Y42.3900
G01 X21.9389 Y42.4068
G01 X21.9436 Y42.4347
G01 X21.9652 Y42.5803
G01 X21.9682 Y42.6034
G01 X21.9700 Y42.6205
G01 X21.9719 Y42.6486
G01 X21.9792 Y42.7957
G01 X21.9799 Y42.8190
G01 X21.9800 Y42.8361
G01 X21.9792 Y42.8643
G01 X21.9719 Y43.0114
G01 X21.9704 Y43.0346
G01 X21.9688 Y43.0517
G01 X21.9652 Y43.0797
G01 X21.9436 Y43.2253
G01 X21.9398 Y43.2483
G01 X21.9365 Y43.2652
G01 X21.9302 Y43.2927
G01 X21.8944 Y43.4355
G01 X21.8884 Y43.4580
G01 X21.8835 Y43.4745
G01 X21.8745 Y43.5012
G01 X21.8249 Y43.6398
G01 X21.8148 Y43.6662
G01 X21.8082 Y43.6821
G01 X21.7986 Y43.7033
G01 X21.7357 Y43.8364
G01 X21.7231 Y43.8616
G01 X21.7149 Y43.8768
G01 X21.7033 Y43.8970
G01 X21.6276 Y44.0232
G01 X21.6126 Y44.0471
G01 X21.6030 Y44.0614
G01 X21.5894 Y44.0803
G01 X21.5018 Y44.1986
G01 X21.4845 Y44.2209
G01 X21.4735 Y44.2341
G01 X21.4582 Y44.2517
G01 X21.3593 Y44.3608
G01 X21.3434 Y44.3778
G01 X21.3278 Y44.3934
G01 X21.3108 Y44.4093
G01 X21.1971 Y44.5123
G01 X21.1709 Y44.5345
G01 X21.1486 Y44.5518
G01 X21.0254 Y44.6431
G01 X20.9971 Y44.6626
G01 X20.9732 Y44.6776
G01 X20.8417 Y44.7564
G01 X20.8116 Y44.7731
G01 X20.7864 Y44.7857
G01 X20.6478 Y44.8512
G01 X20.6162 Y44.8648
G01 X20.5956 Y44.8728
G01 X20.4512 Y44.9245
G01 X20.4292 Y44.9320
G01 X20.4127 Y44.9370
G01 X20.3855 Y44.9444
G01 X20.2368 Y44.9817
G01 X20.2032 Y44.9889
G01 X20.1753 Y44.9936
G01 X20.0237 Y45.0161
G01 X19.9895 Y45.0200
G01 X19.9614 Y45.0219
G01 X19.8082 Y45.0294
G01 X19.7861 Y45.0300
G01 X19.7518 Y45.0294
G01 X19.5986 Y45.0219
G01 X19.5705 Y45.0200
G01 X19.5363 Y45.0161
G01 X19.3847 Y44.9936
G01 X19.3568 Y44.9889
G01 X19.3253 Y44.9821
G01 X19.0800 Y45.2274
G01 X19.0800 Y45.7900
G01 X19.0794 Y45.8182
G01 X19.0772 Y45.8525
G01 X19.0733 Y45.8866
G01 X19.0707 Y45.9036
G01 X19.0653 Y45.9326
G01 X19.0575 Y45.9660
G01 X19.0480 Y45.9991
G01 X19.0370 Y46.0316
G01 X19.0290 Y46.0522
G01 X19.0224 Y46.0680
G01 X19.0080 Y46.0992
G01 X18.9921 Y46.1297
G01 X18.9835 Y46.1446
G01 X18.9681 Y46.1697
G01 X18.9487 Y46.1981
G01 X18.9280 Y46.2255
G01 X18.9172 Y46.2388
G01 X18.9028 Y46.2555
G01 X18.8793 Y46.2806
G01 X18.8671 Y46.2927
G01 X18.8455 Y46.3128
G01 X18.8193 Y46.3350
G01 X18.8019 Y46.3486
G01 X18.7881 Y46.3587
G01 X18.7638 Y46.3754
G01 X18.7493 Y46.3846
G01 X18.7346 Y46.3935
G01 X18.7154 Y46.4044
G01 X18.6848 Y46.4201
G01 X18.6693 Y46.4274
G01 X18.6422 Y46.4390
G01 X18.6100 Y46.4511
G01 X18.5937 Y46.4566
G01 X18.5726 Y46.4630
G01 X18.5393 Y46.4716
G01 X18.5105 Y46.4777
G01 X18.4936 Y46.4807
G01 X18.4718 Y46.4839
G01 X18.4425 Y46.4872
G01 X18.4205 Y46.4888
G01 X18.4033 Y46.4896
G01 X18.3800 Y46.4900
G01 X18.1236 Y46.4900
G01 X18.0953 Y46.4977
G01 X18.0369 Y46.5122
G01 X18.0081 Y46.5183
G01 X17.9803 Y46.5231
G01 X17.9208 Y46.5318
G01 X17.8915 Y46.5350
G01 X17.8634 Y46.5370
G01 X17.8082 Y46.5397
G01 X17.7861 Y46.5402
G01 X17.7518 Y46.5397
G01 X17.6856 Y46.5364
G01 X17.6563 Y46.5338
G01 X17.6283 Y46.5303
G01 X17.5688 Y46.5213
G01 X17.5398 Y46.5160
G01 X17.5123 Y46.5097
G01 X17.4588 Y46.4962
G01 X17.4376 Y46.4904
G01 X17.1690 Y46.4899
G01 X17.1518 Y46.4894
G01 X17.1224 Y46.4876
G01 X17.0882 Y46.4839
G01 X17.0543 Y46.4786
G01 X17.0326 Y46.4743
G01 X16.9992 Y46.4662
G01 X16.9663 Y46.4566
G01 X16.9338 Y46.4453
G01 X16.9020 Y46.4324
G01 X16.8752 Y46.4201
G01 X16.8446 Y46.4044
G01 X16.8254 Y46.3935
G01 X16.7962 Y46.3754
G01 X16.7680 Y46.3559
G01 X16.7407 Y46.3350
G01 X16.7145 Y46.3128
G01 X16.6929 Y46.2927
G01 X16.6688 Y46.2682
G01 X16.6540 Y46.2518
G01 X16.6350 Y46.2293
G01 X16.6214 Y46.2119
G01 X16.6042 Y46.1880
G01 X16.5919 Y46.1697
G01 X16.5765 Y46.1446
G01 X16.5656 Y46.1254
G01 X16.5520 Y46.0992
G01 X16.5426 Y46.0793
G01 X16.5310 Y46.0522
G01 X16.5230 Y46.0316
G01 X16.5134 Y46.0037
G01 X16.5070 Y45.9826
G01 X16.4995 Y45.9541
G01 X16.4947 Y45.9326
G01 X16.4893 Y45.9036
G01 X16.4861 Y45.8818
G01 X16.4828 Y45.8525
G01 X16.4815 Y45.8354
G01 X16.4804 Y45.8133
G01 X16.4800 Y45.7900
G01 X16.4800 Y44.8839
G01 X16.4812 Y44.8495
G01 X16.4828 Y44.8275
G01 X16.4867 Y44.7934
G01 X16.4923 Y44.7595
G01 X16.4995 Y44.7259
G01 X16.5070 Y44.6974
G01 X16.5173 Y44.6646
G01 X16.5247 Y44.6438
G01 X16.5376 Y44.6120
G01 X16.5499 Y44.5852
G01 X16.5598 Y44.5655
G01 X16.5765 Y44.5354
G01 X16.5946 Y44.5062
G01 X16.6113 Y44.4819
G01 X16.6320 Y44.4545
G01 X16.6466 Y44.4367
G01 X16.6609 Y44.3970
G01 X16.6672 Y44.3803
G01 X12.5000 Y44.3803
G01 X12.5000 Y49.9497
G01 X17.7723 Y49.9497
G01 X17.6564 Y49.8339
G01 X17.6283 Y49.8303
G01 X17.5736 Y49.8221
G01 X17.5519 Y49.8183
G01 X17.5350 Y49.8149
G01 X17.5123 Y49.8097
G01 X17.4588 Y49.7962
G01 X17.4376 Y49.7904
G01 X17.1690 Y49.7899
G01 X17.1346 Y49.7885
G01 X17.1175 Y49.7872
G01 X17.0882 Y49.7839
G01 X17.0664 Y49.7807
G01 X17.0495 Y49.7777
G01 X17.0326 Y49.7743
G01 X17.0040 Y49.7675
G01 X16.9874 Y49.7630
G01 X16.9663 Y49.7566
G01 X16.9384 Y49.7470
G01 X16.9224 Y49.7409
G01 X16.8907 Y49.7274
G01 X16.8708 Y49.7180
G01 X16.8446 Y49.7044
G01 X16.8254 Y49.6935
G01 X16.8003 Y49.6781
G01 X16.7820 Y49.6658
G01 X16.7581 Y49.6486
G01 X16.7407 Y49.6350
G01 X16.7182 Y49.6160
G01 X16.7018 Y49.6012
G01 X16.6807 Y49.5806
G01 X16.6655 Y49.5646
G01 X16.6460 Y49.5426
G01 X16.6320 Y49.5255
G01 X16.6141 Y49.5020
G01 X16.6014 Y49.4840
G01 X16.5854 Y49.4593
G01 X16.5765 Y49.4446
G01 X16.5656 Y49.4254
G01 X16.5520 Y49.3992
G01 X16.5446 Y49.3837
G01 X16.5357 Y49.3635
G01 X16.5247 Y49.3362
G01 X16.5189 Y49.3200
G01 X16.5120 Y49.2991
G01 X16.5070 Y49.2826
G01 X16.4995 Y49.2541
G01 X16.4957 Y49.2374
G01 X16.4914 Y49.2157
G01 X16.4867 Y49.1866
G01 X16.4840 Y49.1647
G01 X16.4824 Y49.1476
G01 X16.4806 Y49.1182
G01 X16.4800 Y49.0900
G01 X16.4800 Y48.1839
G01 X16.4812 Y48.1495
G01 X16.4840 Y48.1153
G01 X16.4885 Y48.0812
G01 X16.4947 Y48.0474
G01 X16.4995 Y48.0259
G01 X16.5070 Y47.9974
G01 X16.5120 Y47.9809
G01 X16.5189 Y47.9600
G01 X16.5247 Y47.9438
G01 X16.5357 Y47.9165
G01 X16.5446 Y47.8963
G01 X16.5575 Y47.8698
G01 X16.5679 Y47.8503
G01 X16.5765 Y47.8354
G01 X16.5919 Y47.8103
G01 X16.6014 Y47.7960
G01 X16.6141 Y47.7780
G01 X16.6320 Y47.7545
G01 X16.6460 Y47.7374
G01 X16.6572 Y47.7245
G01 X16.6688 Y47.7118
G01 X16.6894 Y47.6907
G01 X16.7018 Y47.6788
G01 X16.7182 Y47.6640
G01 X16.7407 Y47.6450
G01 X16.7581 Y47.6314
G01 X16.7719 Y47.6213
G01 X16.7962 Y47.6046
G01 X16.8107 Y47.5954
G01 X16.8297 Y47.5840
G01 X16.8555 Y47.5698
G01 X16.8752 Y47.5599
G01 X16.9020 Y47.5476
G01 X16.9178 Y47.5410
G01 X16.9384 Y47.5330
G01 X16.9546 Y47.5273
G01 X16.9827 Y47.5184
G01 X16.9992 Y47.5138
G01 X17.0207 Y47.5084
G01 X17.0374 Y47.5047
G01 X17.0543 Y47.5014
G01 X17.0834 Y47.4967
G01 X17.1004 Y47.4946
G01 X17.1224 Y47.4924
G01 X17.1518 Y47.4906
G01 X17.1739 Y47.4900
G01 X17.4364 Y47.4900
G01 X17.4588 Y47.4838
G01 X17.5183 Y47.4689
G01 X17.5350 Y47.4651
G01 X17.5567 Y47.4608
G01 X17.5797 Y47.4569
G01 X17.6392 Y47.4482
G01 X17.6685 Y47.4450
G01 X17.6905 Y47.4433
G01 X17.7518 Y47.4403
G01 X17.7739 Y47.4398
G01 X18.1661 Y47.4398
G01 X18.1943 Y47.4406
G01 X18.2544 Y47.4436
G01 X18.2837 Y47.4462
G01 X18.3008 Y47.4482
G01 X18.3603 Y47.4569
G01 X18.3881 Y47.4617
G01 X18.4217 Y47.4689
G01 X18.4812 Y47.4838
G01 X18.5143 Y47.4932
G01 X18.5352 Y47.5002
G01 X18.5930 Y47.5209
G01 X18.6250 Y47.5335
G01 X18.6657 Y47.5510
G01 X18.6963 Y47.5655
G01 X18.7209 Y47.5786
G01 X18.7557 Y47.5984
G01 X18.8072 Y47.6294
G01 X18.8319 Y47.6455
G01 X18.8500 Y47.6582
G01 X18.8717 Y47.6743
G01 X18.8993 Y47.6947
G01 X18.9167 Y47.7083
G01 X18.9299 Y47.7193
G01 X18.9474 Y47.7346
G01 X18.9883 Y47.7718
G01 X19.0087 Y47.7913
G01 X20.2099 Y48.9924
G01 X20.2427 Y48.9998
G01 X20.3855 Y49.0356
G01 X20.4127 Y49.0430
G01 X20.4455 Y49.0535
G01 X20.5898 Y49.1051
G01 X20.6162 Y49.1152
G01 X20.6478 Y49.1288
G01 X20.7864 Y49.1943
G01 X20.8073 Y49.2047
G01 X20.8225 Y49.2127
G01 X20.8470 Y49.2267
G01 X20.9732 Y49.3024
G01 X20.9971 Y49.3174
G01 X21.0254 Y49.3369
G01 X21.1486 Y49.4282
G01 X21.1709 Y49.4455
G01 X21.1971 Y49.4677
G01 X21.3108 Y49.5707
G01 X21.3278 Y49.5866
G01 X21.3399 Y49.5987
G01 X21.3593 Y49.6192
G01 X21.4582 Y49.7283
G01 X21.4735 Y49.7459
G01 X21.4845 Y49.7591
G01 X21.5018 Y49.7814
G01 X21.5894 Y49.8997
G01 X21.6030 Y49.9186
G01 X21.6126 Y49.9329
G01 X21.6276 Y49.9568
G01 X21.7033 Y50.0830
G01 X21.7149 Y50.1032
G01 X21.7231 Y50.1184
G01 X21.7357 Y50.1436
G01 X21.7986 Y50.2767
G01 X21.8082 Y50.2979
G01 X21.8148 Y50.3138
G01 X21.8249 Y50.3402
G01 X21.8745 Y50.4788
G01 X21.8820 Y50.5008
G01 X21.8870 Y50.5173
G01 X21.8944 Y50.5445
G01 X21.9302 Y50.6873
G01 X21.9355 Y50.7100
G01 X21.9389 Y50.7268
G01 X21.9436 Y50.7547
G01 X21.9652 Y50.9003
G01 X21.9682 Y50.9234
G01 X21.9700 Y50.9405
G01 X21.9719 Y50.9686
G01 X21.9792 Y51.1157
G01 X21.9799 Y51.1390
G01 X21.9800 Y51.1561
G01 X21.9792 Y51.1843
G01 X21.9719 Y51.3314
G01 X21.9704 Y51.3546
G01 X21.9688 Y51.3717
G01 X21.9652 Y51.3997
G01 X21.9436 Y51.5453
G01 X21.9389 Y51.5732
G01 X21.9355 Y51.5900
G01 X21.9302 Y51.6127
G01 X21.8944 Y51.7555
G01 X21.8870 Y51.7827
G01 X21.8820 Y51.7992
G01 X21.8745 Y51.8212
G01 X21.8228 Y51.9656
G01 X21.8148 Y51.9862
G01 X21.8012 Y52.0178
G01 X21.7357 Y52.1564
G01 X21.7253 Y52.1773
G01 X21.7173 Y52.1925
G01 X21.7064 Y52.2117
G01 X21.6276 Y52.3432
G01 X21.6126 Y52.3671
G01 X21.6030 Y52.3814
G01 X21.5894 Y52.4003
G01 X21.4951 Y52.5274
G01 X21.4767 Y52.5504
G01 X21.4582 Y52.5717
G01 X21.3552 Y52.6853
G01 X21.3313 Y52.7099
G01 X21.3108 Y52.7293
G01 X21.2017 Y52.8282
G01 X21.1841 Y52.8435
G01 X21.1709 Y52.8545
G01 X21.1486 Y52.8718
G01 X21.0303 Y52.9594
G01 X21.0114 Y52.9730
G01 X20.9971 Y52.9826
G01 X20.9732 Y52.9976
G01 X20.8470 Y53.0733
G01 X20.8268 Y53.0849
G01 X20.8116 Y53.0931
G01 X20.7864 Y53.1057
G01 X20.6533 Y53.1686
G01 X20.6276 Y53.1802
G01 X20.6117 Y53.1867
G01 X20.5898 Y53.1949
G01 X20.4512 Y53.2445
G01 X20.4245 Y53.2535
G01 X20.4080 Y53.2584
G01 X20.3855 Y53.2644
G01 X20.2427 Y53.3002
G01 X20.2152 Y53.3065
G01 X20.1983 Y53.3098
G01 X20.1753 Y53.3136
G01 X20.0188 Y53.3367
G01 X19.9895 Y53.3400
G01 X19.9675 Y53.3416
G01 X19.8143 Y53.3492
G01 X19.7861 Y53.3500
G01 X19.7518 Y53.3494
G01 X19.5986 Y53.3419
G01 X19.5754 Y53.3404
G01 X19.5583 Y53.3388
G01 X19.5303 Y53.3352
G01 X19.3847 Y53.3136
G01 X19.3617 Y53.3098
G01 X19.3400 Y53.3055
G01 X19.3232 Y53.3017
G01 X19.1745 Y53.2644
G01 X19.1473 Y53.2570
G01 X19.1145 Y53.2465
G01 X18.9702 Y53.1949
G01 X18.9438 Y53.1848
G01 X18.9122 Y53.1712
G01 X18.7736 Y53.1057
G01 X18.7484 Y53.0931
G01 X18.7183 Y53.0764
G01 X18.5868 Y52.9976
G01 X18.5670 Y52.9853
G01 X18.5527 Y52.9758
G01 X18.5297 Y52.9594
G01 X18.4065 Y52.8681
G01 X18.3796 Y52.8467
G01 X18.3583 Y52.8282
G01 X18.2447 Y52.7252
G01 X18.2201 Y52.7013
G01 X18.2007 Y52.6808
G01 X18.0945 Y52.5634
G01 X18.0755 Y52.5409
G01 X18.0619 Y52.5235
G01 X17.9706 Y52.4003
G01 X17.9542 Y52.3773
G01 X17.9367 Y52.3503
G01 X12.5000 Y52.3503
G01 X12.5000 Y62.2997
G01 X17.7510 Y62.2997
G01 X17.7614 Y62.2767
G01 X17.8243 Y62.1436
G01 X17.8369 Y62.1184
G01 X17.8451 Y62.1032
G01 X17.8567 Y62.0830
G01 X17.9356 Y61.9515
G01 X17.9474 Y61.9329
G01 X17.9641 Y61.9086
G01 X18.0582 Y61.7814
G01 X18.0724 Y61.7629
G01 X18.0833 Y61.7496
G01 X18.1018 Y61.7283
G01 X18.2048 Y61.6147
G01 X18.2287 Y61.5901
G01 X18.2492 Y61.5707
G01 X18.3583 Y61.4718
G01 X18.3796 Y61.4533
G01 X18.3929 Y61.4424
G01 X18.4114 Y61.4282
G01 X18.5297 Y61.3406
G01 X18.5527 Y61.3242
G01 X18.5815 Y61.3056
G01 X18.7130 Y61.2267
G01 X18.7332 Y61.2151
G01 X18.7484 Y61.2069
G01 X18.7736 Y61.1943
G01 X18.9167 Y61.1268
G01 X18.9438 Y61.1152
G01 X18.9644 Y61.1072
G01 X19.1088 Y61.0555
G01 X19.1308 Y61.0480
G01 X19.1473 Y61.0430
G01 X19.1745 Y61.0356
G01 X19.3173 Y60.9998
G01 X19.3448 Y60.9935
G01 X19.3617 Y60.9902
G01 X19.3847 Y60.9864
G01 X19.5363 Y60.9639
G01 X19.5705 Y60.9600
G01 X19.5986 Y60.9581
G01 X19.7518 Y60.9506
G01 X19.7861 Y60.9500
G01 X19.8143 Y60.9508
G01 X19.9614 Y60.9581
G01 X19.9895 Y60.9600
G01 X20.0066 Y60.9618
G01 X20.0297 Y60.9648
G01 X20.1753 Y60.9864
G01 X20.2032 Y60.9911
G01 X20.2200 Y60.9945
G01 X20.2427 Y60.9998
G01 X20.3855 Y61.0356
G01 X20.4127 Y61.0430
G01 X20.4292 Y61.0480
G01 X20.4512 Y61.0555
G01 X20.5898 Y61.1051
G01 X20.6162 Y61.1152
G01 X20.6321 Y61.1218
G01 X20.6533 Y61.1314
G01 X20.7864 Y61.1943
G01 X20.8116 Y61.2069
G01 X20.8268 Y61.2151
G01 X20.8470 Y61.2267
G01 X20.9732 Y61.3024
G01 X20.9971 Y61.3174
G01 X21.0114 Y61.3270
G01 X21.0303 Y61.3406
G01 X21.1486 Y61.4282
G01 X21.1709 Y61.4455
G01 X21.1841 Y61.4565
G01 X21.2017 Y61.4718
G01 X21.3108 Y61.5707
G01 X21.3313 Y61.5901
G01 X21.3552 Y61.6147
G01 X21.4582 Y61.7283
G01 X21.4735 Y61.7459
G01 X21.4845 Y61.7591
G01 X21.5018 Y61.7814
G01 X21.5959 Y61.9086
G01 X21.6126 Y61.9329
G01 X21.6276 Y61.9568
G01 X21.7064 Y62.0883
G01 X21.7149 Y62.1032
G01 X21.7253 Y62.1227
G01 X21.7357 Y62.1436
G01 X21.8012 Y62.2822
G01 X21.8102 Y62.3024
G01 X21.8228 Y62.3344
G01 X21.8745 Y62.4788
G01 X21.8820 Y62.5008
G01 X21.8870 Y62.5173
G01 X21.8944 Y62.5445
G01 X21.9302 Y62.6873
G01 X21.9355 Y62.7100
G01 X21.9389 Y62.7268
G01 X21.9436 Y62.7547
G01 X21.9652 Y62.9003
G01 X21.9682 Y62.9234
G01 X21.9700 Y62.9405
G01 X21.9719 Y62.9686
G01 X21.9792 Y63.1157
G01 X21.9799 Y63.1390
G01 X21.9800 Y63.1561
G01 X21.9792 Y63.1843
G01 X21.9719 Y63.3314
G01 X21.9704 Y63.3546
G01 X21.9688 Y63.3717
G01 X21.9652 Y63.3997
G01 X21.9436 Y63.5453
G01 X21.9389 Y63.5732
G01 X21.9355 Y63.5900
G01 X21.9302 Y63.6127
G01 X21.8944 Y63.7555
G01 X21.8870 Y63.7827
G01 X21.8765 Y63.8155
G01 X21.8249 Y63.9598
G01 X21.8167 Y63.9817
G01 X21.8102 Y63.9976
G01 X21.7986 Y64.0233
G01 X21.7309 Y64.1663
G01 X21.7173 Y64.1925
G01 X21.7064 Y64.2117
G01 X21.6276 Y64.3432
G01 X21.6153 Y64.3630
G01 X21.6058 Y64.3773
G01 X21.5894 Y64.4003
G01 X21.5018 Y64.5186
G01 X21.4876 Y64.5371
G01 X21.4767 Y64.5504
G01 X21.4582 Y64.5717
G01 X21.3593 Y64.6808
G01 X21.3399 Y64.7013
G01 X21.3278 Y64.7134
G01 X21.3108 Y64.7293
G01 X21.2017 Y64.8282
G01 X21.1804 Y64.8467
G01 X21.1671 Y64.8576
G01 X21.1486 Y64.8718
G01 X21.0303 Y64.9594
G01 X21.0073 Y64.9758
G01 X20.9930 Y64.9853
G01 X20.9732 Y64.9976
G01 X20.8417 Y65.0764
G01 X20.8225 Y65.0873
G01 X20.7963 Y65.1009
G01 X20.6533 Y65.1686
G01 X20.6321 Y65.1782
G01 X20.6162 Y65.1848
G01 X20.5898 Y65.1949
G01 X20.4455 Y65.2465
G01 X20.4245 Y65.2535
G01 X20.4080 Y65.2584
G01 X20.3855 Y65.2644
G01 X20.2368 Y65.3017
G01 X20.2152 Y65.3065
G01 X20.1863 Y65.3119
G01 X20.0188 Y65.3367
G01 X19.9895 Y65.3400
G01 X19.9614 Y65.3419
G01 X19.8082 Y65.3494
G01 X19.7739 Y65.3500
G01 X19.7457 Y65.3492
G01 X19.5925 Y65.3416
G01 X19.5705 Y65.3400
G01 X19.5363 Y65.3361
G01 X19.3847 Y65.3136
G01 X19.3568 Y65.3089
G01 X19.3232 Y65.3017
G01 X19.1745 Y65.2644
G01 X19.1520 Y65.2584
G01 X19.1355 Y65.2535
G01 X19.1088 Y65.2445
G01 X18.9644 Y65.1928
G01 X18.9324 Y65.1802
G01 X18.9067 Y65.1686
G01 X18.7736 Y65.1057
G01 X18.7484 Y65.0931
G01 X18.7183 Y65.0764
G01 X18.5868 Y64.9976
G01 X18.5629 Y64.9826
G01 X18.5346 Y64.9631
G01 X18.4114 Y64.8718
G01 X18.3891 Y64.8545
G01 X18.3629 Y64.8323
G01 X18.2492 Y64.7293
G01 X18.2322 Y64.7134
G01 X18.2191 Y64.7003
G01 X12.5000 Y64.7003
G01 X12.5000 Y68.5000
G01 X47.5000 Y68.5000
G01 X47.5000 Y5.5000
G01 X12.5000 Y5.5000
G01 X12.5000 Y9.5653
G00 Z2.0000
G00 X19.6168 Y14.3092
G01 F80.00
G01 Z-0.0800
G01 F200.00
G01 X20.1236 Y13.7361
G01 X20.7024 Y13.1130
G01 X21.2963 Y12.5044
G01 X21.9050 Y11.9105
G01 X22.5280 Y11.3317
G01 X23.1651 Y10.7683
G01 X23.8158 Y10.2208
G01 X24.4798 Y9.6894
G01 X25.1566 Y9.1745
G01 X25.8458 Y8.6763
G01 X26.5470 Y8.1952
G01 X27.2599 Y7.7315
G01 X27.9839 Y7.2853
G01 X28.7186 Y6.8571
G01 X29.4636 Y6.4471
G01 X30.2185 Y6.0554
G01 X30.9828 Y5.6824
G01 X31.3810 Y5.5000
G01 X33.1553 Y5.5000
G01 X32.8054 Y5.6399
G01 X32.0396 Y5.9682
G01 X31.2820 Y6.3152
G01 X30.5332 Y6.6807
G01 X29.7936 Y7.0644
G01 X29.0636 Y7.4662
G01 X28.3438 Y7.8857
G01 X27.6344 Y8.3229
G01 X26.9359 Y8.7772
G01 X26.2489 Y9.2486
G01 X25.5736 Y9.7367
G01 X24.9104 Y10.2413
G01 X24.2599 Y10.7619
G01 X23.6223 Y11.2984
G01 X22.9981 Y11.8503
G01 X22.3876 Y12.4174
G01 X21.7913 Y12.9994
G01 X21.2094 Y13.5957
G01 X20.6423 Y14.2062
G01 X20.5511 Y14.3092
G00 Z2.0000
G00 X21.5019 Y14.3092
G01 F80.00
G01 Z-0.0800
G01 F200.00
G01 X21.7163 Y14.0784
G01 X22.2862 Y13.4943
G01 X22.8703 Y12.9244
G01 X23.4682 Y12.3690
G01 X24.0795 Y11.8284
G01 X24.7040 Y11.3030
G01 X25.3411 Y10.7931
G01 X25.9905 Y10.2990
G01 X26.6519 Y9.8209
G01 X27.3248 Y9.3593
G01 X28.0089 Y8.9142
G01 X28.7036 Y8.4862
G01 X29.4087 Y8.0752
G01 X30.1236 Y7.6817
G01 X30.8480 Y7.3059
G01 X31.5813 Y6.9480
G01 X32.3233 Y6.6082
G01 X33.0733 Y6.2866
G01 X33.8310 Y5.9836
G01 X34.5960 Y5.6993
G01 X35.1752 Y5.5000
G01 X37.6272 Y5.5000
G01 X37.1160 Y5.6347
G01 X36.3488 Y5.8572
G01 X35.5872 Y6.0985
G01 X34.8318 Y6.3584
G01 X34.0830 Y6.6367
G01 X33.3412 Y6.9333
G01 X32.6069 Y7.2481
G01 X31.8806 Y7.5808
G01 X31.1627 Y7.9312
G01 X30.4536 Y8.2991
G01 X29.7537 Y8.6843
G01 X29.0635 Y9.0866
G01 X28.3834 Y9.5056
G01 X27.7137 Y9.9413
G01 X27.0550 Y10.3932
G01 X26.4075 Y10.8612
G01 X25.7718 Y11.3450
G01 X25.1480 Y11.8441
G01 X24.5368 Y12.3585
G01 X23.9383 Y12.8877
G01 X23.3530 Y13.4314
G01 X22.7812 Y13.9893
G01 X22.4690 Y14.3092
G00 Z2.0000
G00 X23.4556 Y14.3092
G01 F80.00
G01 Z-0.0800
G01 F200.00
G01 X23.8357 Y13.9384
G01 X24.4084 Y13.4063
G01 X24.9940 Y12.8885
G01 X25.5921 Y12.3852
G01 X26.2024 Y11.8968
G01 X26.8245 Y11.4235
G01 X27.4581 Y10.9656
G01 X28.1026 Y10.5233
G01 X28.7579 Y10.0970
G01 X29.4234 Y9.6870
G01 X30.0987 Y9.2934
G01 X30.1763 Y9.2507
G00 Z2.0000
G00 X29.7911 Y10.2828
G01 F80.00
G01 Z-0.0800
G01 F200.00
G01 X29.1324 Y10.6884
G01 X28.4915 Y11.1054
G01 X27.8611 Y11.5379
G01 X27.2415 Y11.9857
G01 X26.6331 Y12.4486
G01 X26.0362 Y12.9264
G01 X25.4512 Y13.4186
G01 X24.8785 Y13.9250
G01 X24.4648 Y14.3092
G01 X25.5006 Y14.3092
G01 X25.9084 Y13.9486
G01 X26.4803 Y13.4675
G01 X27.0637 Y13.0005
G01 X27.6585 Y12.5480
G01 X28.2642 Y12.1102
G01 X28.8804 Y11.6874
G01 X29.5069 Y11.2798
G01 X29.8526 Y11.0668
G00 Z2.0000
G00 X30.1377 Y11.7133
G01 F80.00
G01 Z-0.0800
G01 F200.00
G01 X29.8814 Y11.8712
G01 X29.2693 Y12.2694
G01 X28.6672 Y12.6825
G01 X28.0755 Y13.1102
G01 X27.4944 Y13.5523
G01 X26.9243 Y14.0086
G01 X26.5670 Y14.3092
G01 X27.6688 Y14.3092
G01 X27.9251 Y14.1042
G01 X28.4925 Y13.6724
G01 X29.0703 Y13.2548
G01 X29.6582 Y12.8514
G01 X30.2559 Y12.4626
G01 X30.6194 Y12.2386
G00 Z2.0000
G00 X31.3457 Y12.6173
G01 F80.00
G01 Z-0.0800
G01 F200.00
G01 X31.2227 Y12.6890
G01 X30.6304 Y13.0540
G01 X30.0471 Y13.4335
G01 X29.4734 Y13.8271
G01 X28.9095 Y14.2347
G01 X28.8115 Y14.3092
G00 Z2.0000
G00 X30.0079 Y14.3092
G01 F80.00
G01 Z-0.0800
G01 F200.00
G01 X30.4360 Y14.0155
G01 X31.0049 Y13.6454
G01 X31.5826 Y13.2894
G01 X32.1689 Y12.9477
G01 X32.5995 Y12.7108
G00 Z2.0000
G00 X34.1364 Y12.7108
G01 F80.00
G01 Z-0.0800
G01 F200.00
G01 X33.6805 Y12.9332
G01 X33.0934 Y13.2379
G01 X32.5139 Y13.5568
G01 X31.9425 Y13.8898
G01 X31.3794 Y14.2368
G01 X31.2680 Y14.3092
G00 Z2.0000
G00 X32.6129 Y14.3092
G01 F80.00
G01 Z-0.0800
G01 F200.00
G01 X32.8590 Y14.1658
G01 X33.4234 Y13.8552
G01 X33.9952 Y13.5585
G01 X34.5742 Y13.2759
G01 X35.1600 Y13.0076
G01 X35.7521 Y12.7538
G01 X35.8597 Y12.7108
G01 X35.6798 Y14.3092
G01 X35.7273 Y14.2875
G01 X36.2879 Y14.0472
G01 X36.8542 Y13.8208
G01 X37.4258 Y13.6083
G01 X38.0026 Y13.4099
G01 X38.5840 Y13.2257
G01 X39.1697 Y13.0558
G01 X39.7595 Y12.9004
G01 X39.9225 Y12.8616
G00 Z2.0000
G00 X39.9100 Y12.7108
G01 F80.00
G01 Z-0.0800
G01 F200.00
G01 X31.9739 Y12.7107
G01 X31.9457 Y12.7099
G01 X31.7924 Y12.7023
G01 X31.7582 Y12.6995
G01 X31.7302 Y12.6959
G01 X31.5784 Y12.6734
G01 X31.5446 Y12.6672
G01 X31.5171 Y12.6609
G01 X31.3743 Y12.6252
G01 X31.3518 Y12.6191
G01 X31.3306 Y12.6127
G01 X31.3085 Y12.6052
G01 X31.1699 Y12.5556
G01 X31.1435 Y12.5455
G01 X31.1276 Y12.5389
G01 X31.1064 Y12.5293
G01 X30.9733 Y12.4663
G01 X30.9480 Y12.4537
G01 X30.9329 Y12.4456
G01 X30.9127 Y12.4340
G01 X30.7864 Y12.3582
G01 X30.7625 Y12.3432
G01 X30.7482 Y12.3336
G01 X30.7292 Y12.3201
G01 X30.6109 Y12.2323
G01 X30.5886 Y12.2151
G01 X30.5754 Y12.2041
G01 X30.5578 Y12.1888
G01 X30.4487 Y12.0899
G01 X30.4282 Y12.0705
G01 X30.4161 Y12.0583
G01 X30.4001 Y12.0413
G01 X30.3012 Y11.9322
G01 X30.2827 Y11.9109
G01 X30.2719 Y11.8975
G01 X30.2577 Y11.8791
G01 X30.1699 Y11.7608
G01 X30.1536 Y11.7378
G01 X30.1441 Y11.7234
G01 X30.1318 Y11.7036
G01 X30.0560 Y11.5773
G01 X30.0420 Y11.5528
G01 X30.0340 Y11.5376
G01 X30.0237 Y11.5167
G01 X29.9607 Y11.3836
G01 X29.9492 Y11.3578
G01 X29.9426 Y11.3419
G01 X29.9344 Y11.3201
G01 X29.8848 Y11.1815
G01 X29.8758 Y11.1547
G01 X29.8709 Y11.1382
G01 X29.8648 Y11.1157
G01 X29.8291 Y10.9729
G01 X29.8228 Y10.9454
G01 X29.8195 Y10.9285
G01 X29.8157 Y10.9055
G01 X29.7941 Y10.7598
G01 X29.7905 Y10.7318
G01 X29.7889 Y10.7147
G01 X29.7873 Y10.6914
G01 X29.7801 Y10.5443
G01 X29.7793 Y10.5161
G01 X29.7793 Y10.4990
G01 X29.7801 Y10.4757
G01 X29.7873 Y10.3286
G01 X29.7893 Y10.3004
G01 X29.7910 Y10.2833
G01 X29.7941 Y10.2602
G01 X29.8157 Y10.1145
G01 X29.8204 Y10.0867
G01 X29.8238 Y10.0698
G01 X29.8291 Y10.0471
G01 X29.8648 Y9.9043
G01 X29.8709 Y9.8818
G01 X29.8773 Y9.8606
G01 X29.8828 Y9.8443
G01 X29.9365 Y9.6941
G01 X29.9492 Y9.6622
G01 X29.9607 Y9.6364
G01 X30.0263 Y9.4977
G01 X30.0420 Y9.4672
G01 X30.0560 Y9.4427
G01 X30.1318 Y9.3164
G01 X30.1441 Y9.2966
G01 X30.1536 Y9.2822
G01 X30.1699 Y9.2592
G01 X30.2577 Y9.1409
G01 X30.2749 Y9.1186
G01 X30.2859 Y9.1054
G01 X30.3012 Y9.0878
G01 X30.4043 Y8.9742
G01 X30.4195 Y8.9582
G01 X30.4406 Y8.9376
G01 X30.5578 Y8.8312
G01 X30.5791 Y8.8127
G01 X30.5925 Y8.8019
G01 X30.6109 Y8.7877
G01 X30.7342 Y8.6963
G01 X30.7625 Y8.6768
G01 X30.7864 Y8.6618
G01 X30.9127 Y8.5860
G01 X30.9329 Y8.5744
G01 X30.9480 Y8.5663
G01 X30.9733 Y8.5537
G01 X31.1064 Y8.4907
G01 X31.1322 Y8.4792
G01 X31.1641 Y8.4665
G01 X31.3085 Y8.4148
G01 X31.3353 Y8.4058
G01 X31.3518 Y8.4009
G01 X31.3743 Y8.3948
G01 X31.5279 Y8.3565
G01 X31.5567 Y8.3504
G01 X31.5784 Y8.3466
G01 X31.7302 Y8.3241
G01 X31.7533 Y8.3210
G01 X31.7704 Y8.3193
G01 X31.7986 Y8.3173
G01 X31.9457 Y8.3101
G01 X31.9690 Y8.3093
G01 X40.9900 Y8.3092
G01 X41.0243 Y8.3101
G01 X41.1714 Y8.3173
G01 X41.1947 Y8.3189
G01 X41.2167 Y8.3210
G01 X41.2398 Y8.3241
G01 X41.3855 Y8.3457
G01 X41.4085 Y8.3495
G01 X41.4254 Y8.3528
G01 X41.4529 Y8.3591
G01 X41.5957 Y8.3948
G01 X41.6182 Y8.4009
G01 X41.6347 Y8.4058
G01 X41.6615 Y8.4148
G01 X41.8001 Y8.4644
G01 X41.8219 Y8.4726
G01 X41.8378 Y8.4792
G01 X41.8636 Y8.4907
G01 X41.9967 Y8.5537
G01 X42.0176 Y8.5640
G01 X42.0328 Y8.5720
G01 X42.0573 Y8.5860
G01 X42.1836 Y8.6618
G01 X42.2034 Y8.6741
G01 X42.2178 Y8.6836
G01 X42.2408 Y8.6999
G01 X42.3640 Y8.7913
G01 X42.3814 Y8.8049
G01 X42.4039 Y8.8239
G01 X42.5213 Y8.9301
G01 X42.5418 Y8.9495
G01 X43.0223 Y9.4300
G01 X43.2210 Y9.4301
G01 X43.2554 Y9.4315
G01 X43.2847 Y9.4340
G01 X43.3066 Y9.4367
G01 X43.3236 Y9.4393
G01 X43.3526 Y9.4447
G01 X43.3693 Y9.4484
G01 X43.3860 Y9.4525
G01 X43.4073 Y9.4584
G01 X43.4237 Y9.4634
G01 X43.4516 Y9.4730
G01 X43.4722 Y9.4810
G01 X43.4993 Y9.4926
G01 X43.5148 Y9.4999
G01 X43.5345 Y9.5098
G01 X43.5603 Y9.5240
G01 X43.5793 Y9.5354
G01 X43.6040 Y9.5514
G01 X43.6181 Y9.5613
G01 X43.6358 Y9.5744
G01 X43.6493 Y9.5850
G01 X43.6718 Y9.6040
G01 X43.6882 Y9.6188
G01 X43.7093 Y9.6394
G01 X43.7245 Y9.6554
G01 X43.7440 Y9.6774
G01 X43.7580 Y9.6945
G01 X43.7759 Y9.7180
G01 X43.7858 Y9.7320
G01 X43.8046 Y9.7607
G01 X43.8160 Y9.7797
G01 X43.8244 Y9.7946
G01 X43.8380 Y9.8208
G01 X43.8454 Y9.8363
G01 X43.8590 Y9.8678
G01 X43.8670 Y9.8884
G01 X43.8727 Y9.9046
G01 X43.8780 Y9.9209
G01 X43.8862 Y9.9492
G01 X43.8905 Y9.9659
G01 X43.8953 Y9.9874
G01 X43.9007 Y10.0164
G01 X43.9054 Y10.0504
G01 X43.9076 Y10.0724
G01 X43.9096 Y10.1067
G01 X43.9100 Y10.1300
G01 X43.9100 Y10.5156
G01 X43.9339 Y10.5664
G01 X43.9474 Y10.5981
G01 X43.9556 Y10.6199
G01 X44.0052 Y10.7585
G01 X44.0127 Y10.7806
G01 X44.0191 Y10.8018
G01 X44.0252 Y10.8243
G01 X44.0609 Y10.9671
G01 X44.0662 Y10.9898
G01 X44.0705 Y11.0115
G01 X44.0743 Y11.0345
G01 X44.0968 Y11.1863
G01 X44.1007 Y11.2204
G01 X44.1027 Y11.2486
G01 X44.1102 Y11.4018
G01 X44.1107 Y11.4239
G01 X44.1104 Y11.4533
G01 X44.1027 Y11.6114
G01 X44.1011 Y11.6347
G01 X44.0995 Y11.6518
G01 X44.0959 Y11.6798
G01 X44.0743 Y11.8255
G01 X44.0705 Y11.8485
G01 X44.0662 Y11.8702
G01 X44.0609 Y11.8929
G01 X44.0252 Y12.0357
G01 X44.0191 Y12.0582
G01 X44.0127 Y12.0794
G01 X44.0052 Y12.1015
G01 X43.9518 Y12.2505
G01 X43.9389 Y12.2824
G01 X43.9134 Y12.3373
G01 X43.9100 Y12.7343
G01 X43.9094 Y12.7582
G01 X43.9072 Y12.7925
G01 X43.9033 Y12.8266
G01 X43.8986 Y12.8557
G01 X43.8953 Y12.8726
G01 X43.8875 Y12.9060
G01 X43.8816 Y12.9273
G01 X43.8727 Y12.9554
G01 X43.8653 Y12.9762
G01 X43.8524 Y13.0080
G01 X43.8380 Y13.0392
G01 X43.8244 Y13.0654
G01 X43.8072 Y13.0951
G01 X43.7954 Y13.1138
G01 X43.7787 Y13.1381
G01 X43.7656 Y13.1558
G01 X43.7472 Y13.1788
G01 X43.7245 Y13.2046
G01 X43.7093 Y13.2206
G01 X43.6882 Y13.2412
G01 X43.6626 Y13.2640
G01 X43.6455 Y13.2780
G01 X43.6181 Y13.2987
G01 X43.5938 Y13.3154
G01 X43.5793 Y13.3246
G01 X43.5497 Y13.3421
G01 X43.5345 Y13.3502
G01 X43.5148 Y13.3601
G01 X43.4993 Y13.3674
G01 X43.4722 Y13.3790
G01 X43.4400 Y13.3911
G01 X43.4191 Y13.3980
G01 X43.4026 Y13.4030
G01 X43.3693 Y13.4116
G01 X43.3357 Y13.4186
G01 X43.3018 Y13.4239
G01 X43.2676 Y13.4276
G01 X43.2333 Y13.4296
G01 X43.2100 Y13.4300
G01 X42.8244 Y13.4300
G01 X42.7736 Y13.4539
G01 X42.7419 Y13.4674
G01 X42.7201 Y13.4756
G01 X42.5815 Y13.5252
G01 X42.5547 Y13.5342
G01 X42.5382 Y13.5391
G01 X42.5157 Y13.5452
G01 X42.3669 Y13.5824
G01 X42.3333 Y13.5896
G01 X42.3055 Y13.5943
G01 X42.1537 Y13.6168
G01 X42.1196 Y13.6207
G01 X42.0914 Y13.6227
G01 X41.9443 Y13.6299
G01 X41.9161 Y13.6307
G01 X41.8990 Y13.6307
G01 X41.8757 Y13.6299
G01 X41.7286 Y13.6227
G01 X41.7004 Y13.6207
G01 X41.6663 Y13.6168
G01 X41.5145 Y13.5943
G01 X41.4867 Y13.5896
G01 X41.4531 Y13.5824
G01 X41.3043 Y13.5452
G01 X41.2818 Y13.5391
G01 X41.2653 Y13.5342
G01 X41.2385 Y13.5252
G01 X41.0895 Y13.4718
G01 X41.0576 Y13.4589
G01 X41.0027 Y13.4334
G01 X40.5990 Y13.4299
G01 X40.5646 Y13.4285
G01 X40.5353 Y13.4260
G01 X40.5182 Y13.4239
G01 X40.4843 Y13.4186
G01 X40.4507 Y13.4116
G01 X40.4174 Y13.4030
G01 X40.3846 Y13.3927
G01 X40.3524 Y13.3809
G01 X40.3320 Y13.3724
G01 X40.3008 Y13.3580
G01 X40.2703 Y13.3421
G01 X40.2449 Y13.3272
G01 X40.2262 Y13.3154
G01 X40.2120 Y13.3058
G01 X40.1881 Y13.2886
G01 X40.1707 Y13.2750
G01 X40.1574 Y13.2640
G01 X40.1354 Y13.2445
G01 X40.1194 Y13.2293
G01 X40.0988 Y13.2082
G01 X40.0840 Y13.1918
G01 X40.0650 Y13.1693
G01 X40.0544 Y13.1558
G01 X40.0413 Y13.1381
G01 X40.0246 Y13.1138
G01 X40.0128 Y13.0951
G01 X40.0040 Y13.0803
G01 X39.9898 Y13.0545
G01 X39.9799 Y13.0348
G01 X39.9726 Y13.0193
G01 X39.9610 Y12.9922
G01 X39.9530 Y12.9716
G01 X39.9434 Y12.9437
G01 X39.9370 Y12.9226
G01 X39.9325 Y12.9060
G01 X39.9257 Y12.8774
G01 X39.9223 Y12.8605
G01 X39.9185 Y12.8388
G01 X39.9146 Y12.8096
G01 X39.9124 Y12.7876
G01 X39.9106 Y12.7582
G01 X39.9100 Y12.7361
G01 X39.9100 Y12.7108
G00 Z2.0000
G00 X40.5703 Y13.4289
G01 F80.00
G01 Z-0.0800
G01 F200.00
G01 X40.5062 Y13.4424
G01 X39.9296 Y13.5794
G01 X39.3564 Y13.7304
G01 X38.7872 Y13.8955
G01 X38.2221 Y14.0745
G01 X37.6617 Y14.2673
G01 X37.5489 Y14.3092
G01 X37.8917 Y12.7108
G01 X37.7830 Y12.7452
G01 X37.1900 Y12.9492
G01 X36.6022 Y13.1677
G01 X36.0200 Y13.4005
G01 X35.4436 Y13.6476
G01 X34.8735 Y13.9087
G01 X34.3100 Y14.1837
G01 X34.0681 Y14.3092
G00 Z2.0000
G00 X33.4903 Y18.7108
G01 F80.00
G01 Z-0.0800
G01 F200.00
G01 X33.1010 Y18.9779
G01 X32.6624 Y19.2949
G01 X32.2317 Y19.6226
G01 X31.8092 Y19.9607
G01 X31.3951 Y20.3092
G01 X31.2533 Y20.4346
G00 Z2.0000
G00 X32.4939 Y20.3092
G01 F80.00
G01 Z-0.0800
G01 F200.00
G01 X32.6623 Y20.1744
G01 X33.0794 Y19.8571
G01 X33.5040 Y19.5502
G01 X33.9361 Y19.2538
G01 X34.3753 Y18.9680
G01 X34.7928 Y18.7108
G01 X36.2236 Y18.7108
G01 X36.0632 Y18.7940
G01 X35.6192 Y19.0383
G01 X35.1813 Y19.2935
G01 X34.7498 Y19.5594
G01 X34.3250 Y19.8358
G01 X33.9071 Y20.1225
G01 X33.6487 Y20.3092
G00 Z2.0000
G00 X34.8808 Y20.3092
G01 F80.00
G01 Z-0.0800
G01 F200.00
G01 X35.1243 Y20.1508
G01 X35.5412 Y19.8939
G01 X35.9642 Y19.6474
G01 X36.3932 Y19.4113
G01 X36.8278 Y19.1858
G01 X37.2678 Y18.9710
G01 X37.7130 Y18.7671
G01 X37.8445 Y18.7108
G01 X37.7176 Y20.3092
G01 X37.8664 Y20.2366
G01 X38.2803 Y20.0470
G01 X38.6988 Y19.8677
G01 X39.1215 Y19.6986
G01 X39.5482 Y19.5400
G01 X39.9787 Y19.3919
G01 X40.4128 Y19.2544
G01 X40.8500 Y19.1276
G01 X41.2903 Y19.0115
G01 X41.7332 Y18.9064
G01 X42.1786 Y18.8121
G01 X42.6262 Y18.7287
G01 X43.0757 Y18.6564
G01 X43.5268 Y18.5951
G01 X43.9793 Y18.5450
G01 X44.4329 Y18.5059
G01 X44.8873 Y18.4780
G01 X45.3423 Y18.4612
G01 X45.7975 Y18.4556
G01 X46.2528 Y18.4612
G01 X46.7077 Y18.4780
G01 X47.1622 Y18.5059
G01 X47.5000 Y18.5350
G01 X47.5000 Y19.2375
G01 X47.1107 Y19.2040
G01 X46.6734 Y19.1771
G01 X46.2356 Y19.1610
G01 X45.7975 Y19.1556
G01 X45.3595 Y19.1610
G01 X44.9217 Y19.1771
G01 X44.4844 Y19.2040
G01 X44.0479 Y19.2416
G01 X43.6125 Y19.2899
G01 X43.1784 Y19.3488
G01 X42.7862 Y19.4119
G00 Z2.0000
G00 X43.5820 Y20.0004
G01 F80.00
G01 Z-0.0800
G01 F200.00
G01 X43.6982 Y19.9846
G01 X44.1165 Y19.9382
G01 X44.5359 Y19.9021
G01 X44.9560 Y19.8763
G01 X45.3767 Y19.8608
G01 X45.7975 Y19.8556
G01 X46.2184 Y19.8608
G01 X46.6391 Y19.8763
G01 X47.0592 Y19.9021
G01 X47.4785 Y19.9382
G01 X47.5000 Y19.9406
G01 X47.5000 Y20.6448
G01 X47.4099 Y20.6348
G01 X47.0077 Y20.6002
G01 X46.6047 Y20.5754
G01 X46.2012 Y20.5606
G01 X45.7975 Y20.5556
G01 X45.3938 Y20.5606
G01 X44.9904 Y20.5754
G01 X44.5874 Y20.6002
G01 X44.1852 Y20.6348
G01 X43.9695 Y20.6588
G00 Z2.0000
G00 X44.1076 Y21.3477
G01 F80.00
G01 Z-0.0800
G01 F200.00
G01 X44.2538 Y21.3315
G01 X44.6389 Y21.2983
G01 X45.0247 Y21.2746
G01 X45.4110 Y21.2604
G01 X45.7975 Y21.2556
G01 X46.1841 Y21.2604
G01 X46.5704 Y21.2746
G01 X46.9562 Y21.2983
G01 X47.3413 Y21.3315
G01 X47.5000 Y21.3491
G01 X47.5000 Y22.0533
G01 X47.2727 Y22.0281
G01 X46.9047 Y21.9964
G01 X46.5360 Y21.9738
G01 X46.1669 Y21.9602
G01 X45.7975 Y21.9556
G01 X45.4282 Y21.9602
G01 X45.0591 Y21.9738
G01 X44.6904 Y21.9964
G01 X44.3224 Y22.0281
G01 X44.0181 Y22.0618
G00 Z2.0000
G00 X43.6132 Y22.8236
G01 F80.00
G01 Z-0.0800
G01 F200.00
G01 X43.6920 Y22.8109
G01 X44.0409 Y22.7635
G01 X44.3910 Y22.7247
G01 X44.7419 Y22.6945
G01 X45.0934 Y22.6729
G01 X45.4454 Y22.6600
G01 X45.7975 Y22.6556
G01 X46.1497 Y22.6600
G01 X46.5017 Y22.6729
G01 X46.8532 Y22.6945
G01 X47.2041 Y22.7247
G01 X47.5000 Y22.7575
G01 X47.5000 Y23.4626
G01 X47.4684 Y23.4583
G01 X47.1355 Y23.4214
G01 X46.8017 Y23.3926
G01 X46.4673 Y23.3721
G01 X46.1325 Y23.3597
G01 X45.7975 Y23.3556
G01 X45.4626 Y23.3597
G01 X45.1278 Y23.3721
G01 X44.7934 Y23.3926
G01 X44.4596 Y23.4214
G01 X44.1266 Y23.4583
G01 X43.7947 Y23.5034
G01 X43.4639 Y23.5566
G01 X43.1346 Y23.6179
G01 X42.8068 Y23.6873
G01 X42.7520 Y23.7003
G00 Z2.0000
G00 X39.8701 Y24.7108
G01 F80.00
G01 Z-0.0800
G01 F200.00
G01 X39.6603 Y24.8131
G01 X39.3630 Y24.9674
G01 X39.0695 Y25.1289
G01 X38.7800 Y25.2976
G01 X38.4948 Y25.4734
G01 X38.2140 Y25.6561
G01 X37.9378 Y25.8456
G01 X37.6662 Y26.0418
G01 X37.3996 Y26.2447
G01 X37.1381 Y26.4540
G01 X36.8817 Y26.6697
G01 X36.6308 Y26.8916
G01 X36.3853 Y27.1197
G01 X36.1455 Y27.3536
G01 X35.9116 Y27.5934
G01 X35.6836 Y27.8388
G01 X35.4616 Y28.0898
G01 X35.2459 Y28.3462
G01 X35.0366 Y28.6077
G01 X35.0202 Y28.6292
G00 Z2.0000
G00 X34.1473 Y28.6292
G01 F80.00
G01 Z-0.0800
G01 F200.00
G01 X34.2715 Y28.4573
G01 X34.4848 Y28.1771
G01 X34.7048 Y27.9021
G01 X34.9316 Y27.6326
G01 X35.1649 Y27.3688
G01 X35.4046 Y27.1107
G01 X35.6506 Y26.8586
G01 X35.9026 Y26.6127
G01 X36.1607 Y26.3730
G01 X36.4245 Y26.1397
G01 X36.6940 Y25.9129
G01 X36.9690 Y25.6929
G01 X37.2493 Y25.4796
G01 X37.5347 Y25.2733
G01 X37.8251 Y25.0740
G01 X38.1203 Y24.8820
G01 X38.3982 Y24.7108
G00 Z2.0000
G00 X37.1181 Y24.7108
G01 F80.00
G01 Z-0.0800
G01 F200.00
G01 X36.8323 Y24.9174
G01 X36.5383 Y25.1410
G01 X36.2499 Y25.3718
G01 X35.9673 Y25.6096
G01 X35.6906 Y25.8543
G01 X35.4200 Y26.1057
G01 X35.1556 Y26.3637
G01 X34.8976 Y26.6280
G01 X34.6462 Y26.8987
G01 X34.4015 Y27.1754
G01 X34.1637 Y27.4580
G01 X33.9329 Y27.7464
G01 X33.7093 Y28.0404
G01 X33.4929 Y28.3397
G01 X33.2942 Y28.6292
G00 Z2.0000
G00 X32.4604 Y28.6292
G01 F80.00
G01 Z-0.0800
G01 F200.00
G01 X32.4911 Y28.5794
G01 X32.7019 Y28.2554
G01 X32.9206 Y27.9366
G01 X33.1470 Y27.6234
G01 X33.3811 Y27.3157
G01 X33.6226 Y27.0139
G01 X33.8715 Y26.7182
G01 X34.1276 Y26.4286
G01 X34.3907 Y26.1454
G01 X34.6606 Y25.8687
G01 X34.9373 Y25.5987
G01 X35.2205 Y25.3356
G01 X35.5101 Y25.0796
G01 X35.8058 Y24.8307
G01 X35.9557 Y24.7108
G01 X34.8705 Y24.7108
G01 X34.7504 Y24.8170
G01 X34.4546 Y25.0918
G01 X34.1656 Y25.3737
G01 X33.8837 Y25.6627
G01 X33.6089 Y25.9585
G01 X33.3415 Y26.2609
G01 X33.0815 Y26.5699
G01 X32.8292 Y26.8851
G01 X32.5848 Y27.2064
G01 X32.3483 Y27.5336
G01 X32.1199 Y27.8665
G01 X31.8997 Y28.2049
G01 X31.6879 Y28.5486
G01 X31.6230 Y28.6599
G00 Z2.0000
G00 X30.5491 Y29.1591
G01 F80.00
G01 Z-0.0800
G01 F200.00
G01 X30.6726 Y28.9212
G01 X30.8756 Y28.5524
G01 X31.0875 Y28.1888
G01 X31.3083 Y27.8304
G01 X31.5378 Y27.4776
G01 X31.7760 Y27.1305
G01 X32.0225 Y26.7894
G01 X32.2774 Y26.4544
G01 X32.5404 Y26.1258
G01 X32.8114 Y25.8037
G01 X33.0902 Y25.4884
G01 X33.3767 Y25.1800
G01 X33.6707 Y24.8787
G01 X33.8428 Y24.7108
G00 Z2.0000
G00 X32.8573 Y24.7108
G01 F80.00
G01 Z-0.0800
G01 F200.00
G01 X32.5716 Y25.0183
G01 X32.2814 Y25.3465
G01 X31.9993 Y25.6817
G01 X31.7256 Y26.0237
G01 X31.4603 Y26.3724
G01 X31.2037 Y26.7275
G01 X30.9558 Y27.0887
G01 X30.7169 Y27.4559
G01 X30.4871 Y27.8289
G01 X30.2665 Y28.2074
G01 X30.0552 Y28.5912
G01 X29.8535 Y28.9801
G01 X29.6613 Y29.3738
G01 X29.4789 Y29.7721
G01 X29.3063 Y30.1747
G01 X29.1436 Y30.5815
G01 X28.9910 Y30.9921
G01 X28.8485 Y31.4064
G01 X28.7162 Y31.8240
G01 X28.5941 Y32.2448
G01 X28.4825 Y32.6684
G01 X28.3813 Y33.0947
G01 X28.2905 Y33.5233
G01 X28.2103 Y33.9540
G01 X28.1407 Y34.3865
G01 X28.1078 Y34.6292
G00 Z2.0000
G00 X27.4014 Y34.6292
G01 F80.00
G01 Z-0.0800
G01 F200.00
G01 X27.4483 Y34.2838
G01 X27.5206 Y33.8343
G01 X27.6040 Y33.3867
G01 X27.6983 Y32.9413
G01 X27.8035 Y32.4983
G01 X27.9195 Y32.0581
G01 X28.0463 Y31.6208
G01 X28.1838 Y31.1868
G01 X28.3319 Y30.7563
G01 X28.4905 Y30.3296
G01 X28.6596 Y29.9069
G01 X28.8390 Y29.4884
G01 X29.0285 Y29.0745
G01 X29.2282 Y28.6653
G01 X29.4379 Y28.2612
G01 X29.6574 Y27.8624
G01 X29.8867 Y27.4690
G01 X30.1255 Y27.0814
G01 X30.3738 Y26.6998
G01 X30.6313 Y26.3244
G01 X30.8980 Y25.9554
G01 X31.1737 Y25.5931
G01 X31.4582 Y25.2376
G01 X31.7513 Y24.8893
G01 X31.9114 Y24.7082
G00 Z2.0000
G00 X31.1304 Y24.5401
G01 F80.00
G01 Z-0.0800
G01 F200.00
G01 X30.9171 Y24.7936
G01 X30.6219 Y25.1624
G01 X30.3358 Y25.5384
G01 X30.0590 Y25.9213
G01 X29.7918 Y26.3109
G01 X29.5341 Y26.7069
G01 X29.2863 Y27.1092
G01 X29.0484 Y27.5173
G01 X28.8206 Y27.9312
G01 X28.6030 Y28.3506
G01 X28.3957 Y28.7752
G01 X28.1990 Y29.2047
G01 X28.0129 Y29.6390
G01 X27.8374 Y30.0776
G01 X27.6728 Y30.5205
G01 X27.5191 Y30.9673
G01 X27.3764 Y31.4176
G01 X27.2449 Y31.8714
G01 X27.1244 Y32.3283
G01 X27.0153 Y32.7879
G01 X26.9174 Y33.2501
G01 X26.8309 Y33.7146
G01 X26.7559 Y34.1811
G01 X26.6950 Y34.6292
G00 Z2.0000
G00 X25.9903 Y34.6292
G01 F80.00
G01 Z-0.0800
G01 F200.00
G01 X25.9976 Y34.5635
G01 X26.0635 Y34.0784
G01 X26.1413 Y33.5949
G01 X26.2309 Y33.1136
G01 X26.3323 Y32.6346
G01 X26.4454 Y32.1582
G01 X26.5702 Y31.6847
G01 X26.7066 Y31.2144
G01 X26.8545 Y30.7477
G01 X27.0137 Y30.2847
G01 X27.1843 Y29.8257
G01 X27.3661 Y29.3711
G01 X27.5591 Y28.9211
G01 X27.7630 Y28.4759
G01 X27.9777 Y28.0359
G01 X28.2032 Y27.6013
G01 X28.4393 Y27.1723
G01 X28.6859 Y26.7493
G01 X28.9427 Y26.3324
G01 X29.2097 Y25.9220
G01 X29.4867 Y25.5183
G01 X29.7736 Y25.1214
G01 X30.0700 Y24.7318
G01 X30.3760 Y24.3495
G01 X30.5314 Y24.1648
G00 Z2.0000
G00 X30.0789 Y23.6154
G01 F80.00
G01 Z-0.0800
G01 F200.00
G01 X29.8349 Y23.9054
G01 X29.5182 Y24.3011
G01 X29.2113 Y24.7044
G01 X28.9144 Y25.1152
G01 X28.6277 Y25.5331
G01 X28.3513 Y25.9579
G01 X28.0854 Y26.3894
G01 X27.8302 Y26.8273
G01 X27.5859 Y27.2713
G01 X27.3525 Y27.7212
G01 X27.1302 Y28.1766
G01 X26.9191 Y28.6374
G01 X26.7194 Y29.1032
G01 X26.5312 Y29.5738
G01 X26.3547 Y30.0489
G01 X26.1898 Y30.5281
G01 X26.0367 Y31.0113
G01 X25.8956 Y31.4980
G01 X25.7664 Y31.9881
G01 X25.6493 Y32.4812
G01 X25.5443 Y32.9770
G01 X25.4516 Y33.4753
G01 X25.3710 Y33.9756
G01 X25.3028 Y34.4778
G01 X25.2860 Y34.6292
G01 X24.5818 Y34.6292
G01 X24.6081 Y34.3922
G01 X24.6786 Y33.8729
G01 X24.7619 Y33.3556
G01 X24.8578 Y32.8405
G01 X24.9663 Y32.3278
G01 X25.0874 Y31.8180
G01 X25.2209 Y31.3113
G01 X25.3669 Y30.8081
G01 X25.5251 Y30.3085
G01 X25.6956 Y29.8130
G01 X25.8781 Y29.3219
G01 X26.0727 Y28.8353
G01 X26.2792 Y28.3537
G01 X26.4974 Y27.8773
G01 X26.7272 Y27.4064
G01 X26.9685 Y26.9413
G01 X27.2212 Y26.4823
G01 X27.4850 Y26.0295
G01 X27.7599 Y25.5834
G01 X28.0457 Y25.1442
G01 X28.3421 Y24.7121
G01 X28.6491 Y24.2874
G01 X28.9663 Y23.8704
G01 X29.2938 Y23.4613
G01 X29.6311 Y23.0604
G01 X29.8088 Y22.8594
G00 Z2.0000
G00 X29.9391 Y21.6873
G01 F80.00
G01 Z-0.0800
G01 F200.00
G01 X29.8279 Y21.8013
G01 X29.4596 Y22.1978
G01 X29.1011 Y22.6032
G01 X28.7527 Y23.0173
G01 X28.4145 Y23.4398
G01 X28.0868 Y23.8705
G01 X27.7698 Y24.3091
G01 X27.4636 Y24.7553
G01 X27.1685 Y25.2089
G01 X26.8846 Y25.6697
G01 X26.6121 Y26.1372
G01 X26.3512 Y26.6113
G01 X26.1019 Y27.0917
G01 X25.8646 Y27.5780
G01 X25.6392 Y28.0701
G01 X25.4260 Y28.5675
G01 X25.2251 Y29.0699
G01 X25.0365 Y29.5772
G01 X24.8604 Y30.0889
G01 X24.6970 Y30.6049
G01 X24.5463 Y31.1246
G01 X24.4084 Y31.6479
G01 X24.2833 Y32.1744
G01 X24.1712 Y32.7039
G01 X24.0722 Y33.2359
G01 X23.9862 Y33.7702
G01 X23.9134 Y34.3065
G01 X23.8776 Y34.6292
G00 Z2.0000
G00 X23.1733 Y34.6292
G01 F80.00
G01 Z-0.0800
G01 F200.00
G01 X23.2186 Y34.2208
G01 X23.2938 Y33.6675
G01 X23.3825 Y33.1162
G01 X23.4847 Y32.5673
G01 X23.6003 Y32.0211
G01 X23.7293 Y31.4778
G01 X23.8716 Y30.9379
G01 X24.0271 Y30.4017
G01 X24.1958 Y29.8694
G01 X24.3774 Y29.3414
G01 X24.5720 Y28.8180
G01 X24.7793 Y28.2996
G01 X24.9993 Y27.7864
G01 X25.2318 Y27.2788
G01 X25.4767 Y26.7770
G01 X25.7338 Y26.2814
G01 X26.0031 Y25.7922
G01 X26.2842 Y25.3098
G01 X26.5771 Y24.8344
G01 X26.8816 Y24.3664
G01 X27.1975 Y23.9060
G01 X27.5246 Y23.4535
G01 X27.8627 Y23.0091
G01 X28.2116 Y22.5732
G01 X28.5710 Y22.1459
G01 X28.9409 Y21.7277
G01 X29.3209 Y21.3186
G01 X29.7109 Y20.9189
G01 X30.1105 Y20.5290
G01 X30.5196 Y20.1490
G01 X30.9379 Y19.7791
G01 X31.3651 Y19.4196
G01 X31.8010 Y19.0707
G01 X32.2454 Y18.7327
G01 X32.2757 Y18.7108
G01 X31.1307 Y18.7108
G01 X30.9210 Y18.8785
G01 X30.4806 Y19.2491
G01 X30.0495 Y19.6303
G01 X29.6278 Y20.0220
G01 X29.2159 Y20.4240
G01 X28.8139 Y20.8359
G01 X28.4222 Y21.2576
G01 X28.0410 Y21.6887
G01 X27.6704 Y22.1291
G01 X27.3108 Y22.5784
G01 X26.9623 Y23.0365
G01 X26.6252 Y23.5029
G01 X26.2996 Y23.9775
G01 X25.9857 Y24.4599
G01 X25.6838 Y24.9499
G01 X25.3940 Y25.4472
G01 X25.1165 Y25.9514
G01 X24.8514 Y26.4622
G01 X24.5990 Y26.9795
G01 X24.3593 Y27.5027
G01 X24.1326 Y28.0317
G01 X23.9189 Y28.5661
G01 X23.7183 Y29.1056
G01 X23.5311 Y29.6498
G01 X23.3573 Y30.1985
G01 X23.1970 Y30.7512
G01 X23.0503 Y31.3077
G01 X22.9173 Y31.8677
G01 X22.7981 Y32.4308
G01 X22.6928 Y32.9966
G01 X22.6014 Y33.5648
G01 X22.5239 Y34.1351
G01 X22.4691 Y34.6292
G00 Z2.0000
G00 X22.4369 Y39.0308
G01 F80.00
G01 Z-0.0800
G01 F200.00
G01 X22.4605 Y39.3041
G01 X22.5239 Y39.8762
G01 X22.6014 Y40.4465
G01 X22.6928 Y41.0147
G01 X22.7981 Y41.5805
G01 X22.9173 Y42.1436
G01 X23.0503 Y42.7035
G01 X23.1970 Y43.2600
G01 X23.3573 Y43.8128
G01 X23.5311 Y44.3615
G01 X23.7183 Y44.9057
G01 X23.9189 Y45.4452
G01 X24.1326 Y45.9796
G01 X24.3593 Y46.5085
G01 X24.5990 Y47.0318
G01 X24.8514 Y47.5490
G01 X25.1165 Y48.0599
G01 X25.3940 Y48.5641
G01 X25.6838 Y49.0613
G01 X25.9857 Y49.5513
G01 X26.2996 Y50.0338
G01 X26.6252 Y50.5083
G01 X26.9623 Y50.9748
G01 X27.3108 Y51.4328
G01 X27.6704 Y51.8822
G01 X28.0410 Y52.3225
G01 X28.4222 Y52.7537
G01 X28.8139 Y53.1754
G01 X29.2159 Y53.5873
G01 X29.6278 Y53.9892
G01 X30.0495 Y54.3809
G01 X30.4806 Y54.7622
G01 X30.7030 Y54.9492
G00 Z2.0000
G00 X29.6355 Y54.9492
G01 F80.00
G01 Z-0.0800
G01 F200.00
G01 X29.5794 Y54.8996
G01 X29.1451 Y54.4962
G01 X28.7209 Y54.0823
G01 X28.3070 Y53.6580
G01 X27.9036 Y53.2238
G01 X27.5109 Y52.7798
G01 X27.1293 Y52.3262
G01 X26.7590 Y51.8635
G01 X26.4001 Y51.3918
G01 X26.0529 Y50.9114
G01 X25.7176 Y50.4226
G01 X25.3943 Y49.9258
G01 X25.0834 Y49.4212
G01 X24.7849 Y48.9091
G01 X24.4991 Y48.3899
G01 X24.2262 Y47.8637
G01 X23.9662 Y47.3311
G01 X23.7194 Y46.7922
G01 X23.4859 Y46.2474
G01 X23.2658 Y45.6971
G01 X23.0593 Y45.1415
G01 X22.8664 Y44.5810
G01 X22.6874 Y44.0160
G01 X22.5224 Y43.4467
G01 X22.3713 Y42.8736
G01 X22.2343 Y42.2969
G01 X22.1116 Y41.7171
G01 X22.0031 Y41.1344
G01 X21.9089 Y40.5492
G01 X21.8292 Y39.9618
G01 X21.7638 Y39.3727
G01 X21.7344 Y39.0308
G01 X21.0318 Y39.0308
G01 X21.0672 Y39.4414
G01 X21.1344 Y40.0475
G01 X21.2165 Y40.6519
G01 X21.3132 Y41.2529
G00 Z2.0000
G00 X20.5253 Y40.7620
G01 F80.00
G01 Z-0.0800
G01 F200.00
G01 X20.4397 Y40.1332
G01 X20.3706 Y39.5100
G01 X20.3293 Y39.0308
G01 X19.6268 Y39.0308
G01 X19.6739 Y39.5786
G01 X19.7450 Y40.2189
G01 X19.8008 Y40.6303
G00 Z2.0000
G00 X19.1087 Y40.7355
G01 F80.00
G01 Z-0.0800
G01 F200.00
G01 X19.0502 Y40.3046
G01 X18.9773 Y39.6472
G01 X18.9242 Y39.0308
G01 X18.2219 Y39.0308
G01 X18.2807 Y39.7158
G01 X18.3555 Y40.3903
G01 X18.4468 Y41.0627
G01 X18.4496 Y41.0799
G00 Z2.0000
G00 X17.8519 Y41.7713
G01 F80.00
G01 Z-0.0800
G01 F200.00
G01 X17.7544 Y41.1654
G01 X17.6607 Y40.4760
G01 X17.5841 Y39.7844
G01 X17.5244 Y39.0912
G01 X17.5196 Y39.0144
G00 Z2.0000
G00 X16.8053 Y38.8015
G01 F80.00
G01 Z-0.0800
G01 F200.00
G01 X16.8263 Y39.1427
G01 X16.8874 Y39.8530
G01 X16.9660 Y40.5617
G01 X17.0620 Y41.2681
G01 X17.1767 Y41.9797
G00 Z2.0000
G00 X16.2544 Y44.3803
G01 F80.00
G01 Z-0.0800
G01 F200.00
G01 X16.2601 Y44.4044
G01 X16.4506 Y45.1270
G01 X16.4800 Y45.2285
G00 Z2.0000
G00 X16.8341 Y46.3985
G01 F80.00
G01 Z-0.0800
G01 F200.00
G01 X16.8844 Y46.5572
G01 X17.1275 Y47.2639
G01 X17.2116 Y47.4900
G00 Z2.0000
G00 X16.5869 Y47.8183
G01 F80.00
G01 Z-0.0800
G01 F200.00
G01 X16.4684 Y47.4997
G01 X16.2197 Y46.7768
G01 X15.9889 Y46.0480
G01 X15.7759 Y45.3137
G01 X15.5811 Y44.5745
G01 X15.5349 Y44.3803
G00 Z2.0000
G00 X14.8155 Y44.3803
G01 F80.00
G01 Z-0.0800
G01 F200.00
G01 X14.9020 Y44.7445
G01 X15.1013 Y45.5004
G01 X15.3190 Y46.2512
G01 X15.5551 Y46.9964
G01 X15.8094 Y47.7356
G01 X16.0817 Y48.4683
G01 X16.3720 Y49.1941
G01 X16.6800 Y49.9126
G01 X16.6970 Y49.9497
G01 X17.3938 Y49.7903
G01 X17.4669 Y49.9497
G00 Z2.0000
G00 X15.9344 Y49.9497
G01 F80.00
G01 Z-0.0800
G01 F200.00
G01 X15.7253 Y49.4620
G01 X15.4286 Y48.7202
G01 X15.1503 Y47.9714
G01 X14.8904 Y47.2160
G01 X14.6491 Y46.4544
G01 X14.4266 Y45.6871
G01 X14.2230 Y44.9146
G01 X14.0961 Y44.3803
G00 Z2.0000
G00 X13.3767 Y44.3803
G01 F80.00
G01 Z-0.0800
G01 F200.00
G01 X13.5440 Y45.0847
G01 X13.7520 Y45.8738
G01 X13.9793 Y46.6576
G01 X14.2257 Y47.4355
G01 X14.4912 Y48.2072
G01 X14.7755 Y48.9721
G01 X15.0785 Y49.7299
G01 X15.1728 Y49.9497
G00 Z2.0000
G00 X14.4126 Y49.9497
G01 F80.00
G01 Z-0.0800
G01 F200.00
G01 X14.1224 Y49.2241
G01 X13.8321 Y48.4430
G01 X13.5611 Y47.6551
G01 X13.3094 Y46.8608
G01 X13.0773 Y46.0605
G01 X12.8650 Y45.2548
G01 X12.6725 Y44.4441
G01 X12.6589 Y44.3803
G01 X12.5000 Y46.5827
G01 X12.6396 Y47.0640
G01 X12.8964 Y47.8747
G01 X13.1730 Y48.6789
G01 X13.4693 Y49.4760
G01 X13.6588 Y49.9497
G00 Z2.0000
G00 X12.9050 Y49.9497
G01 F80.00
G01 Z-0.0800
G01 F200.00
G01 X12.8162 Y49.7279
G01 X12.5140 Y48.9147
G01 X12.5000 Y48.8741
G00 Z2.0000
G00 X13.1772 Y52.3503
G01 F80.00
G01 Z-0.0800
G01 F200.00
G01 X13.2087 Y52.4190
G01 X13.5968 Y53.2141
G01 X14.0043 Y53.9995
G01 X14.4309 Y54.7746
G01 X14.8764 Y55.5390
G01 X15.3406 Y56.2923
G01 X15.6210 Y56.7234
G00 Z2.0000
G00 X15.9441 Y55.9365
G01 F80.00
G01 Z-0.0800
G01 F200.00
G01 X15.9320 Y55.9178
G01 X15.4768 Y55.1792
G01 X15.0400 Y54.4296
G01 X14.6216 Y53.6695
G01 X14.2221 Y52.8994
G01 X13.9540 Y52.3503
G00 Z2.0000
G00 X14.7329 Y52.3503
G01 F80.00
G01 Z-0.0800
G01 F200.00
G01 X14.8473 Y52.5847
G01 X15.2390 Y53.3395
G01 X15.6490 Y54.0846
G01 X16.0772 Y54.8193
G01 X16.4392 Y55.4067
G00 Z2.0000
G00 X17.0561 Y55.0736
G01 F80.00
G01 Z-0.0800
G01 F200.00
G01 X16.6777 Y54.4594
G01 X16.2581 Y53.7395
G01 X15.8563 Y53.0095
G01 X15.5142 Y52.3503
G00 Z2.0000
G00 X16.3028 Y52.3503
G01 F80.00
G01 Z-0.0800
G01 F200.00
G01 X16.4737 Y52.6796
G01 X16.8671 Y53.3945
G01 X17.2781 Y54.0995
G01 X17.7062 Y54.7943
G01 X17.8070 Y54.9492
G00 Z2.0000
G00 X18.6420 Y54.9492
G01 F80.00
G01 Z-0.0800
G01 F200.00
G01 X18.2976 Y54.4198
G01 X17.8785 Y53.7397
G01 X17.4762 Y53.0495
G01 X17.0914 Y52.3503
G01 X17.8903 Y52.3503
G01 X18.0853 Y52.7044
G01 X18.4789 Y53.3798
G01 X18.8890 Y54.0453
G01 X19.3152 Y54.7005
G01 X19.4859 Y54.9492
G01 X20.3350 Y54.9492
G01 X19.8973 Y54.3116
G01 X19.4804 Y53.6708
G01 X19.2401 Y53.2809
G00 Z2.0000
G00 X20.0911 Y53.3261
G01 F80.00
G01 Z-0.0800
G01 F200.00
G01 X20.4793 Y53.9227
G01 X20.9021 Y54.5390
G01 X21.1986 Y54.9492
G00 Z2.0000
G00 X22.0707 Y54.9492
G01 F80.00
G01 Z-0.0800
G01 F200.00
G01 X21.9021 Y54.7277
G01 X21.4744 Y54.1359
G01 X21.0613 Y53.5338
G01 X20.7836 Y53.1070
G00 Z2.0000
G00 X21.3487 Y52.6921
G01 F80.00
G01 Z-0.0800
G01 F200.00
G01 X21.6433 Y53.1449
G01 X22.0467 Y53.7329
G01 X22.4644 Y54.3107
G01 X22.8961 Y54.8781
G01 X22.9530 Y54.9492
G00 Z2.0000
G00 X23.8495 Y54.9492
G01 F80.00
G01 Z-0.0800
G01 F200.00
G01 X23.4479 Y54.4474
G01 X23.0266 Y53.8937
G01 X22.6190 Y53.3298
G01 X22.2254 Y52.7560
G01 X21.8459 Y52.1728
G01 X21.7792 Y52.0644
G00 Z2.0000
G00 X21.9754 Y51.0388
G01 F80.00
G01 Z-0.0800
G01 F200.00
G01 X22.0813 Y51.2206
G01 X22.4373 Y51.7983
G01 X22.8074 Y52.3671
G01 X23.1913 Y52.9267
G01 X23.5889 Y53.4767
G01 X23.9998 Y54.0168
G01 X24.4238 Y54.5466
G01 X24.7626 Y54.9492
G00 Z2.0000
G00 X25.6919 Y54.9492
G01 F80.00
G01 Z-0.0800
G01 F200.00
G01 X25.3908 Y54.6086
G01 X24.9649 Y54.1025
G01 X24.5516 Y53.5861
G01 X24.1511 Y53.0597
G01 X23.7636 Y52.5237
G01 X23.3894 Y51.9782
G01 X23.0287 Y51.4238
G01 X22.6818 Y50.8607
G01 X22.3487 Y50.2892
G01 X22.0298 Y49.7098
G01 X21.7251 Y49.1227
G01 X21.4350 Y48.5282
G01 X21.1596 Y47.9269
G01 X20.8990 Y47.3189
G01 X20.6534 Y46.7048
G01 X20.4229 Y46.0848
G01 X20.2078 Y45.4594
G01 X20.0654 Y45.0099
G00 Z2.0000
G00 X20.7361 Y44.8095
G01 F80.00
G01 Z-0.0800
G01 F200.00
G01 X20.8724 Y45.2398
G01 X21.0820 Y45.8490
G01 X21.3065 Y46.4529
G01 X21.5457 Y47.0511
G01 X21.7995 Y47.6432
G01 X22.0678 Y48.2289
G01 X22.3504 Y48.8079
G01 X22.6471 Y49.3798
G01 X22.9578 Y49.9442
G01 X23.2822 Y50.5008
G01 X23.6201 Y51.0493
G01 X23.9715 Y51.5893
G01 X24.3359 Y52.1206
G01 X24.7133 Y52.6427
G01 X25.1034 Y53.1555
G01 X25.5060 Y53.6585
G01 X25.9208 Y54.1514
G01 X26.3476 Y54.6341
G01 X26.6404 Y54.9492
G00 Z2.0000
G00 X27.6110 Y54.9492
G01 F80.00
G01 Z-0.0800
G01 F200.00
G01 X27.2930 Y54.6234
G01 X26.8662 Y54.1640
G01 X26.4509 Y53.6942
G01 X26.0471 Y53.2144
G01 X25.6553 Y52.7248
G01 X25.2756 Y52.2257
G01 X24.9083 Y51.7175
G01 X24.5535 Y51.2004
G01 X24.2115 Y50.6748
G01 X23.8826 Y50.1410
G01 X23.5668 Y49.5992
G01 X23.2645 Y49.0498
G01 X22.9757 Y48.4932
G01 X22.7006 Y47.9297
G01 X22.4395 Y47.3595
G01 X22.1924 Y46.7832
G01 X21.9596 Y46.2009
G01 X21.7411 Y45.6132
G01 X21.5371 Y45.0202
G01 X21.3477 Y44.4224
G01 X21.3367 Y44.3845
G00 Z2.0000
G00 X21.8390 Y43.6004
G01 F80.00
G01 Z-0.0800
G01 F200.00
G01 X21.8477 Y43.6334
G01 X22.0176 Y44.2192
G01 X22.2018 Y44.8006
G01 X22.4002 Y45.3773
G01 X22.6127 Y45.9490
G01 X22.8391 Y46.5153
G01 X23.0794 Y47.0759
G01 X23.3334 Y47.6304
G01 X23.6009 Y48.1785
G01 X23.8818 Y48.7198
G01 X24.1759 Y49.2541
G01 X24.4830 Y49.7811
G01 X24.8029 Y50.3003
G01 X25.1355 Y50.8115
G01 X25.4806 Y51.3145
G01 X25.8378 Y51.8088
G01 X26.2071 Y52.2941
G01 X26.5882 Y52.7703
G01 X26.9809 Y53.2370
G01 X27.3849 Y53.6939
G01 X27.8000 Y54.1407
G01 X28.2259 Y54.5772
G01 X28.6072 Y54.9492
G00 Z2.0000
G00 X31.8125 Y54.9492
G01 F80.00
G01 Z-0.0800
G01 F200.00
G01 X31.8010 Y54.9405
G01 X31.3651 Y54.5916
G01 X30.9379 Y54.2321
G01 X30.5196 Y53.8623
G01 X30.1105 Y53.4822
G01 X29.7109 Y53.0923
G01 X29.3209 Y52.6927
G01 X28.9409 Y52.2836
G01 X28.5710 Y51.8653
G01 X28.2116 Y51.4381
G01 X27.8627 Y51.0021
G01 X27.5246 Y50.5578
G01 X27.1975 Y50.1053
G01 X26.8816 Y49.6449
G01 X26.5771 Y49.1768
G01 X26.2842 Y48.7015
G01 X26.0031 Y48.2191
G01 X25.7338 Y47.7299
G01 X25.4767 Y47.2343
G01 X25.2318 Y46.7325
G01 X24.9993 Y46.2249
G01 X24.7793 Y45.7117
G01 X24.5720 Y45.1932
G01 X24.3774 Y44.6699
G01 X24.1958 Y44.1419
G01 X24.0271 Y43.6096
G01 X23.8716 Y43.0733
G01 X23.7293 Y42.5334
G01 X23.6003 Y41.9902
G01 X23.4847 Y41.4439
G01 X23.3825 Y40.8950
G01 X23.2938 Y40.3437
G01 X23.2186 Y39.7905
G01 X23.1571 Y39.2355
G01 X23.1395 Y39.0308
G01 X23.8420 Y39.0308
G01 X23.8537 Y39.1669
G01 X23.9134 Y39.7048
G01 X23.9862 Y40.2410
G01 X24.0722 Y40.7753
G01 X24.1712 Y41.3074
G01 X24.2833 Y41.8368
G01 X24.4084 Y42.3633
G01 X24.5463 Y42.8866
G01 X24.6970 Y43.4064
G01 X24.8604 Y43.9223
G01 X25.0365 Y44.4340
G01 X25.2251 Y44.9413
G01 X25.4260 Y45.4438
G01 X25.6392 Y45.9412
G01 X25.8646 Y46.4332
G01 X26.1019 Y46.9196
G01 X26.3512 Y47.3999
G01 X26.6121 Y47.8740
G01 X26.8846 Y48.3416
G01 X27.1685 Y48.8023
G01 X27.4636 Y49.2560
G01 X27.7698 Y49.7022
G01 X28.0868 Y50.1408
G01 X28.4145 Y50.5715
G01 X28.7527 Y50.9940
G01 X29.1011 Y51.4081
G01 X29.4596 Y51.8135
G01 X29.8279 Y52.2100
G01 X30.2058 Y52.5973
G01 X30.5932 Y52.9753
G01 X30.9897 Y53.3436
G01 X31.3951 Y53.7021
G01 X31.8092 Y54.0505
G01 X32.2317 Y54.3887
G01 X32.6624 Y54.7164
G01 X32.9846 Y54.9492
G00 Z2.0000
G00 X34.2309 Y54.9492
G01 F80.00
G01 Z-0.0800
G01 F200.00
G01 X33.9361 Y54.7575
G01 X33.5040 Y54.4611
G01 X33.0794 Y54.1541
G01 X32.6623 Y53.8368
G01 X32.2532 Y53.5094
G01 X32.0647 Y53.3508
G01 X33.1795 Y53.3508
G01 X33.4964 Y53.5919
G01 X33.9071 Y53.8888
G01 X34.3250 Y54.1755
G01 X34.7498 Y54.4519
G01 X35.1813 Y54.7177
G01 X35.5786 Y54.9492
G00 Z2.0000
G00 X37.0814 Y54.9492
G01 F80.00
G01 Z-0.0800
G01 F200.00
G01 X36.8278 Y54.8255
G01 X36.3932 Y54.6000
G01 X35.9642 Y54.3639
G01 X35.5412 Y54.1173
G01 X35.1243 Y53.8605
G01 X34.7139 Y53.5934
G01 X34.3602 Y53.3508
G00 Z2.0000
G00 X35.6314 Y53.3508
G01 F80.00
G01 Z-0.0800
G01 F200.00
G01 X35.9011 Y53.5169
G01 X36.3093 Y53.7548
G01 X36.7232 Y53.9826
G01 X37.1425 Y54.2002
G01 X37.5671 Y54.4074
G01 X37.9966 Y54.6042
G01 X38.4309 Y54.7903
G01 X38.8283 Y54.9492
G01 X38.6258 Y53.3508
G01 X38.9666 Y53.4969
G01 X39.3734 Y53.6596
G01 X39.7841 Y53.8122
G01 X40.0885 Y53.9169
G00 Z2.0000
G00 X39.9100 Y53.3508
G01 F80.00
G01 Z-0.0800
G01 F200.00
G01 X31.9739 Y53.3507
G01 X31.9457 Y53.3499
G01 X31.7924 Y53.3423
G01 X31.7582 Y53.3395
G01 X31.7302 Y53.3359
G01 X31.5784 Y53.3134
G01 X31.5446 Y53.3072
G01 X31.5171 Y53.3009
G01 X31.3743 Y53.2652
G01 X31.3518 Y53.2591
G01 X31.3306 Y53.2527
G01 X31.3085 Y53.2452
G01 X31.1699 Y53.1956
G01 X31.1435 Y53.1855
G01 X31.1276 Y53.1789
G01 X31.1064 Y53.1693
G01 X30.9733 Y53.1063
G01 X30.9480 Y53.0937
G01 X30.9329 Y53.0856
G01 X30.9127 Y53.0740
G01 X30.7864 Y52.9982
G01 X30.7625 Y52.9832
G01 X30.7482 Y52.9736
G01 X30.7292 Y52.9601
G01 X30.6109 Y52.8723
G01 X30.5886 Y52.8551
G01 X30.5754 Y52.8441
G01 X30.5578 Y52.8288
G01 X30.4487 Y52.7299
G01 X30.4282 Y52.7105
G01 X30.4161 Y52.6983
G01 X30.4001 Y52.6813
G01 X30.3012 Y52.5722
G01 X30.2827 Y52.5509
G01 X30.2719 Y52.5375
G01 X30.2577 Y52.5191
G01 X30.1699 Y52.4008
G01 X30.1536 Y52.3778
G01 X30.1441 Y52.3634
G01 X30.1318 Y52.3436
G01 X30.0560 Y52.2173
G01 X30.0420 Y52.1928
G01 X30.0340 Y52.1776
G01 X30.0237 Y52.1567
G01 X29.9607 Y52.0236
G01 X29.9492 Y51.9978
G01 X29.9426 Y51.9819
G01 X29.9344 Y51.9601
G01 X29.8848 Y51.8215
G01 X29.8758 Y51.7947
G01 X29.8709 Y51.7782
G01 X29.8648 Y51.7557
G01 X29.8291 Y51.6129
G01 X29.8228 Y51.5854
G01 X29.8195 Y51.5685
G01 X29.8157 Y51.5455
G01 X29.7941 Y51.3998
G01 X29.7905 Y51.3718
G01 X29.7889 Y51.3547
G01 X29.7873 Y51.3314
G01 X29.7801 Y51.1843
G01 X29.7793 Y51.1561
G01 X29.7793 Y51.1390
G01 X29.7801 Y51.1157
G01 X29.7873 Y50.9686
G01 X29.7893 Y50.9404
G01 X29.7910 Y50.9233
G01 X29.7941 Y50.9002
G01 X29.8157 Y50.7545
G01 X29.8204 Y50.7267
G01 X29.8238 Y50.7098
G01 X29.8291 Y50.6871
G01 X29.8648 Y50.5443
G01 X29.8709 Y50.5218
G01 X29.8773 Y50.5006
G01 X29.8828 Y50.4843
G01 X29.9365 Y50.3341
G01 X29.9492 Y50.3022
G01 X29.9607 Y50.2764
G01 X30.0263 Y50.1377
G01 X30.0420 Y50.1072
G01 X30.0560 Y50.0827
G01 X30.1318 Y49.9564
G01 X30.1441 Y49.9366
G01 X30.1536 Y49.9222
G01 X30.1699 Y49.8992
G01 X30.2577 Y49.7809
G01 X30.2749 Y49.7586
G01 X30.2859 Y49.7454
G01 X30.3012 Y49.7278
G01 X30.4043 Y49.6142
G01 X30.4195 Y49.5982
G01 X30.4406 Y49.5776
G01 X30.5578 Y49.4712
G01 X30.5754 Y49.4559
G01 X30.5886 Y49.4449
G01 X30.6109 Y49.4277
G01 X30.7342 Y49.3363
G01 X30.7625 Y49.3168
G01 X30.7864 Y49.3018
G01 X30.9127 Y49.2260
G01 X30.9329 Y49.2144
G01 X30.9480 Y49.2063
G01 X30.9733 Y49.1937
G01 X31.1064 Y49.1307
G01 X31.1322 Y49.1192
G01 X31.1641 Y49.1065
G01 X31.3085 Y49.0548
G01 X31.3306 Y49.0473
G01 X31.3470 Y49.0423
G01 X31.3743 Y49.0348
G01 X31.5279 Y48.9965
G01 X31.5567 Y48.9904
G01 X31.5784 Y48.9866
G01 X31.7302 Y48.9641
G01 X31.7533 Y48.9610
G01 X31.7704 Y48.9593
G01 X31.7986 Y48.9573
G01 X31.9457 Y48.9501
G01 X31.9739 Y48.9493
G01 X40.9100 Y48.9492
G01 X40.9443 Y48.9501
G01 X41.0976 Y48.9577
G01 X41.1196 Y48.9593
G01 X41.1489 Y48.9625
G01 X41.3055 Y48.9857
G01 X41.3285 Y48.9895
G01 X41.3454 Y48.9928
G01 X41.3729 Y48.9991
G01 X41.5157 Y49.0348
G01 X41.5382 Y49.0409
G01 X41.5547 Y49.0458
G01 X41.5815 Y49.0548
G01 X41.7201 Y49.1044
G01 X41.7419 Y49.1126
G01 X41.7578 Y49.1192
G01 X41.7836 Y49.1307
G01 X41.9167 Y49.1937
G01 X41.9376 Y49.2040
G01 X41.9571 Y49.2144
G01 X41.9773 Y49.2260
G01 X42.1036 Y49.3018
G01 X42.1234 Y49.3141
G01 X42.1378 Y49.3236
G01 X42.1608 Y49.3399
G01 X42.2840 Y49.4313
G01 X42.3014 Y49.4449
G01 X42.3239 Y49.4639
G01 X42.4413 Y49.5701
G01 X42.4618 Y49.5895
G01 X43.0223 Y50.1500
G01 X43.2210 Y50.1501
G01 X43.2554 Y50.1515
G01 X43.2847 Y50.1540
G01 X43.3018 Y50.1561
G01 X43.3236 Y50.1593
G01 X43.3526 Y50.1647
G01 X43.3741 Y50.1695
G01 X43.3908 Y50.1738
G01 X43.4191 Y50.1820
G01 X43.4354 Y50.1873
G01 X43.4562 Y50.1947
G01 X43.4835 Y50.2057
G01 X43.5037 Y50.2146
G01 X43.5302 Y50.2275
G01 X43.5454 Y50.2356
G01 X43.5646 Y50.2465
G01 X43.5897 Y50.2619
G01 X43.6080 Y50.2742
G01 X43.6319 Y50.2914
G01 X43.6493 Y50.3050
G01 X43.6718 Y50.3240
G01 X43.6882 Y50.3388
G01 X43.7093 Y50.3594
G01 X43.7245 Y50.3754
G01 X43.7360 Y50.3882
G01 X43.7550 Y50.4107
G01 X43.7686 Y50.4281
G01 X43.7787 Y50.4419
G01 X43.7954 Y50.4662
G01 X43.8046 Y50.4807
G01 X43.8160 Y50.4997
G01 X43.8325 Y50.5298
G01 X43.8401 Y50.5452
G01 X43.8524 Y50.5720
G01 X43.8653 Y50.6038
G01 X43.8727 Y50.6246
G01 X43.8780 Y50.6409
G01 X43.8862 Y50.6692
G01 X43.8905 Y50.6859
G01 X43.8977 Y50.7195
G01 X43.9033 Y50.7534
G01 X43.9060 Y50.7753
G01 X43.9085 Y50.8046
G01 X43.9099 Y50.8390
G01 X43.9100 Y51.2356
G01 X43.9339 Y51.2864
G01 X43.9474 Y51.3181
G01 X43.9556 Y51.3399
G01 X44.0052 Y51.4785
G01 X44.0127 Y51.5006
G01 X44.0191 Y51.5218
G01 X44.0252 Y51.5443
G01 X44.0609 Y51.6871
G01 X44.0662 Y51.7098
G01 X44.0705 Y51.7315
G01 X44.0743 Y51.7545
G01 X44.0968 Y51.9063
G01 X44.1007 Y51.9404
G01 X44.1027 Y51.9686
G01 X44.1102 Y52.1218
G01 X44.1107 Y52.1439
G01 X44.1102 Y52.1782
G01 X44.1027 Y52.3314
G01 X44.1011 Y52.3547
G01 X44.0995 Y52.3718
G01 X44.0959 Y52.3998
G01 X44.0743 Y52.5455
G01 X44.0705 Y52.5685
G01 X44.0662 Y52.5902
G01 X44.0609 Y52.6129
G01 X44.0252 Y52.7557
G01 X44.0191 Y52.7782
G01 X44.0127 Y52.7994
G01 X44.0052 Y52.8215
G01 X43.9518 Y52.9705
G01 X43.9389 Y53.0024
G01 X43.9134 Y53.0573
G01 X43.9100 Y53.4543
G01 X43.9094 Y53.4782
G01 X43.9072 Y53.5125
G01 X43.9033 Y53.5466
G01 X43.8986 Y53.5757
G01 X43.8953 Y53.5926
G01 X43.8875 Y53.6260
G01 X43.8780 Y53.6591
G01 X43.8711 Y53.6800
G01 X43.8590 Y53.7122
G01 X43.8474 Y53.7393
G01 X43.8325 Y53.7702
G01 X43.8221 Y53.7897
G01 X43.8046 Y53.8193
G01 X43.7886 Y53.8440
G01 X43.7686 Y53.8719
G01 X43.7550 Y53.8893
G01 X43.7360 Y53.9118
G01 X43.7212 Y53.9282
G01 X43.6971 Y53.9527
G01 X43.6755 Y53.9728
G01 X43.6493 Y53.9950
G01 X43.6319 Y54.0086
G01 X43.6080 Y54.0258
G01 X43.5938 Y54.0354
G01 X43.5646 Y54.0535
G01 X43.5497 Y54.0621
G01 X43.5302 Y54.0725
G01 X43.4993 Y54.0874
G01 X43.4722 Y54.0990
G01 X43.4562 Y54.1053
G01 X43.4237 Y54.1166
G01 X43.3908 Y54.1262
G01 X43.3693 Y54.1316
G01 X43.3526 Y54.1353
G01 X43.3236 Y54.1407
G01 X43.2896 Y54.1454
G01 X43.2554 Y54.1485
G01 X43.2333 Y54.1496
G01 X43.2100 Y54.1500
G01 X42.8244 Y54.1500
G01 X42.7736 Y54.1739
G01 X42.7419 Y54.1874
G01 X42.7201 Y54.1956
G01 X42.5710 Y54.2488
G01 X42.5430 Y54.2577
G01 X42.5217 Y54.2636
G01 X42.3621 Y54.3035
G01 X42.3333 Y54.3096
G01 X42.3116 Y54.3134
G01 X42.1598 Y54.3359
G01 X42.1318 Y54.3395
G01 X42.1147 Y54.3411
G01 X42.0914 Y54.3427
G01 X41.9382 Y54.3502
G01 X41.9161 Y54.3507
G01 X41.8818 Y54.3502
G01 X41.7286 Y54.3427
G01 X41.7004 Y54.3407
G01 X41.6833 Y54.3390
G01 X41.6602 Y54.3359
G01 X41.5084 Y54.3134
G01 X41.4746 Y54.3072
G01 X41.4471 Y54.3009
G01 X41.3043 Y54.2652
G01 X41.2818 Y54.2591
G01 X41.2606 Y54.2527
G01 X41.2385 Y54.2452
G01 X41.0895 Y54.1918
G01 X41.0576 Y54.1789
G01 X41.0027 Y54.1534
G01 X40.5867 Y54.1496
G01 X40.5646 Y54.1485
G01 X40.5353 Y54.1460
G01 X40.5134 Y54.1433
G01 X40.4843 Y54.1386
G01 X40.4507 Y54.1316
G01 X40.4174 Y54.1230
G01 X40.3846 Y54.1127
G01 X40.3524 Y54.1009
G01 X40.3207 Y54.0874
G01 X40.2898 Y54.0725
G01 X40.2703 Y54.0621
G01 X40.2407 Y54.0446
G01 X40.2120 Y54.0258
G01 X40.1842 Y54.0056
G01 X40.1574 Y53.9840
G01 X40.1354 Y53.9645
G01 X40.1107 Y53.9406
G01 X40.0872 Y53.9155
G01 X40.0650 Y53.8893
G01 X40.0441 Y53.8620
G01 X40.0246 Y53.8338
G01 X40.0065 Y53.8046
G01 X39.9898 Y53.7745
G01 X39.9746 Y53.7437
G01 X39.9610 Y53.7122
G01 X39.9489 Y53.6800
G01 X39.9420 Y53.6591
G01 X39.9325 Y53.6260
G01 X39.9257 Y53.5974
G01 X39.9193 Y53.5636
G01 X39.9146 Y53.5296
G01 X39.9124 Y53.5076
G01 X39.9112 Y53.4905
G01 X39.9101 Y53.4610
G01 X39.9100 Y53.3508
G00 Z2.0000
G00 X40.8400 Y54.1520
G01 F80.00
G01 Z-0.0800
G01 F200.00
G01 X41.0367 Y54.2090
G01 X41.4603 Y54.3207
G01 X41.8866 Y54.4219
G01 X42.3152 Y54.5126
G01 X42.7459 Y54.5928
G01 X43.1784 Y54.6624
G01 X43.6125 Y54.7214
G01 X44.0479 Y54.7697
G01 X44.4844 Y54.8073
G01 X44.9217 Y54.8341
G01 X45.3595 Y54.8503
G01 X45.7975 Y54.8556
G01 X46.2356 Y54.8503
G01 X46.6734 Y54.8341
G01 X47.1107 Y54.8073
G01 X47.5000 Y54.7737
G01 X47.5000 Y55.4763
G01 X47.1622 Y55.5054
G01 X46.7077 Y55.5333
G01 X46.2528 Y55.5500
G01 X45.7975 Y55.5556
G01 X45.3423 Y55.5500
G01 X44.8873 Y55.5333
G01 X44.4329 Y55.5054
G01 X43.9793 Y55.4663
G01 X43.5268 Y55.4161
G01 X43.2045 Y55.3723
G00 Z2.0000
G00 X43.8737 Y56.1588
G01 F80.00
G01 Z-0.0800
G01 F200.00
G01 X43.9107 Y56.1629
G01 X44.3814 Y56.2035
G01 X44.8530 Y56.2324
G01 X45.3251 Y56.2498
G01 X45.7975 Y56.2556
G01 X46.2700 Y56.2498
G01 X46.7421 Y56.2324
G01 X47.2137 Y56.2035
G01 X47.5000 Y56.1788
G01 X47.5000 Y56.8813
G01 X47.2652 Y56.9016
G01 X46.7764 Y56.9316
G01 X46.2871 Y56.9496
G01 X45.7975 Y56.9556
G01 X45.3079 Y56.9496
G01 X44.8186 Y56.9316
G01 X44.3299 Y56.9016
G01 X44.0931 Y56.8812
G00 Z2.0000
G00 X44.0680 Y57.5816
G01 F80.00
G01 Z-0.0800
G01 F200.00
G01 X44.2784 Y57.5997
G01 X44.7843 Y57.6308
G01 X45.2908 Y57.6494
G01 X45.7975 Y57.6556
G01 X46.3043 Y57.6494
G01 X46.8108 Y57.6308
G01 X47.3167 Y57.5997
G01 X47.5000 Y57.5839
G01 X47.5000 Y58.2864
G01 X47.3681 Y58.2978
G01 X46.8451 Y58.3299
G01 X46.3215 Y58.3492
G01 X45.7975 Y58.3556
G01 X45.2736 Y58.3492
G01 X44.7499 Y58.3299
G01 X44.2269 Y58.2978
G01 X43.8074 Y58.2616
G00 Z2.0000
G00 X43.2351 Y58.9050
G01 F80.00
G01 Z-0.0800
G01 F200.00
G01 X43.6363 Y58.9495
G01 X44.1754 Y58.9959
G01 X44.7156 Y59.0291
G01 X45.2564 Y59.0490
G01 X45.7975 Y59.0556
G01 X46.3387 Y59.0490
G01 X46.8795 Y59.0291
G01 X47.4196 Y58.9959
G01 X47.5000 Y58.9890
G01 X47.5000 Y59.6915
G01 X47.4711 Y59.6940
G01 X46.9138 Y59.7282
G01 X46.3559 Y59.7488
G01 X45.7975 Y59.7556
G01 X45.2392 Y59.7488
G01 X44.6813 Y59.7282
G01 X44.1239 Y59.6940
G01 X43.5677 Y59.6461
G01 X43.0127 Y59.5845
G01 X42.4594 Y59.5094
G01 X41.9082 Y59.4207
G01 X41.5325 Y59.3508
G01 X41.3377 Y60.0265
G01 X41.2227 Y60.0050
G01 X40.6596 Y59.8858
G01 X40.0997 Y59.7529
G01 X39.5431 Y59.6062
G01 X38.9904 Y59.4459
G01 X38.6901 Y59.3508
G01 X39.1483 Y60.9492
G01 X38.5840 Y60.7856
G01 X38.0026 Y60.6014
G01 X37.4258 Y60.4030
G01 X36.8542 Y60.1905
G01 X36.2879 Y59.9640
G01 X35.7273 Y59.7237
G01 X35.1728 Y59.4698
G01 X34.9290 Y59.3508
G00 Z2.0000
G00 X33.4118 Y59.3508
G01 F80.00
G01 Z-0.0800
G01 F200.00
G01 X33.7534 Y59.5387
G01 X34.3100 Y59.8275
G01 X34.8735 Y60.1026
G01 X35.4436 Y60.3637
G01 X36.0200 Y60.6108
G01 X36.6022 Y60.8436
G01 X36.8865 Y60.9492
G01 X36.6393 Y59.3508
G01 X37.1061 Y59.5374
G01 X37.6617 Y59.7439
G01 X38.2221 Y59.9367
G01 X38.7872 Y60.1157
G01 X39.3564 Y60.2808
G01 X39.9296 Y60.4319
G01 X40.4063 Y60.5451
G00 Z2.0000
G00 X39.9984 Y60.9492
G01 F80.00
G01 Z-0.0800
G01 F200.00
G01 X40.3617 Y60.5861
G01 X40.3787 Y60.5701
G01 X40.4878 Y60.4712
G01 X40.5054 Y60.4559
G01 X40.5225 Y60.4419
G01 X40.5409 Y60.4277
G01 X40.6682 Y60.3334
G01 X40.6925 Y60.3168
G01 X40.7164 Y60.3018
G01 X40.8480 Y60.2229
G01 X40.8780 Y60.2063
G01 X40.9033 Y60.1937
G01 X41.0364 Y60.1307
G01 X41.0622 Y60.1192
G01 X41.0941 Y60.1065
G01 X41.2385 Y60.0548
G01 X41.2653 Y60.0458
G01 X41.2818 Y60.0409
G01 X41.3043 Y60.0348
G01 X41.4531 Y59.9976
G01 X41.4867 Y59.9904
G01 X41.5084 Y59.9866
G01 X41.6602 Y59.9641
G01 X41.6882 Y59.9605
G01 X41.7224 Y59.9577
G01 X41.8757 Y59.9501
G01 X41.9039 Y59.9493
G01 X41.9382 Y59.9498
G01 X42.0914 Y59.9573
G01 X42.1196 Y59.9593
G01 X42.1367 Y59.9610
G01 X42.1598 Y59.9641
G01 X42.3116 Y59.9866
G01 X42.3333 Y59.9904
G01 X42.3669 Y59.9976
G01 X42.5157 Y60.0348
G01 X42.5382 Y60.0409
G01 X42.5547 Y60.0458
G01 X42.5815 Y60.0548
G01 X42.7259 Y60.1065
G01 X42.7465 Y60.1145
G01 X42.7780 Y60.1281
G01 X42.9167 Y60.1937
G01 X42.9376 Y60.2040
G01 X42.9528 Y60.2120
G01 X42.9773 Y60.2260
G01 X43.1089 Y60.3049
G01 X43.1378 Y60.3236
G01 X43.1608 Y60.3399
G01 X43.2840 Y60.4313
G01 X43.3109 Y60.4527
G01 X43.3322 Y60.4712
G01 X43.4458 Y60.5743
G01 X43.4705 Y60.5982
G01 X43.4857 Y60.6142
G01 X43.5888 Y60.7278
G01 X43.6041 Y60.7454
G01 X43.6151 Y60.7586
G01 X43.6323 Y60.7809
G01 X43.7201 Y60.8992
G01 X43.7364 Y60.9222
G01 X43.7551 Y60.9511
G01 X43.8340 Y61.0827
G01 X43.8480 Y61.1072
G01 X43.8637 Y61.1377
G01 X43.9293 Y61.2764
G01 X43.9408 Y61.3022
G01 X43.9535 Y61.3341
G01 X44.0052 Y61.4785
G01 X44.0127 Y61.5006
G01 X44.0177 Y61.5170
G01 X44.0252 Y61.5443
G01 X44.0624 Y61.6931
G01 X44.0696 Y61.7267
G01 X44.0734 Y61.7484
G01 X44.0975 Y61.9111
G01 X44.1007 Y61.9404
G01 X44.1027 Y61.9686
G01 X44.1099 Y62.1157
G01 X44.1107 Y62.1439
G01 X44.1102 Y62.1782
G01 X44.1027 Y62.3314
G01 X44.1007 Y62.3596
G01 X44.0968 Y62.3937
G01 X44.0743 Y62.5455
G01 X44.0696 Y62.5733
G01 X44.0662 Y62.5902
G01 X44.0609 Y62.6129
G01 X44.0252 Y62.7557
G01 X44.0177 Y62.7830
G01 X44.0127 Y62.7994
G01 X44.0052 Y62.8215
G01 X43.9535 Y62.9659
G01 X43.9408 Y62.9978
G01 X43.9293 Y63.0236
G01 X43.8663 Y63.1567
G01 X43.8560 Y63.1776
G01 X43.8456 Y63.1971
G01 X43.8340 Y63.2173
G01 X43.7525 Y63.3531
G01 X43.7364 Y63.3778
G01 X43.7201 Y63.4008
G01 X43.6287 Y63.5240
G01 X43.6073 Y63.5509
G01 X43.5888 Y63.5722
G01 X43.4899 Y63.6813
G01 X43.4662 Y63.7062
G01 X42.4662 Y64.7062
G01 X42.4494 Y64.7224
G01 X42.3322 Y64.8288
G01 X42.3146 Y64.8441
G01 X42.3014 Y64.8551
G01 X42.2791 Y64.8723
G01 X42.1608 Y64.9601
G01 X42.1418 Y64.9736
G01 X42.1275 Y64.9832
G01 X42.1036 Y64.9982
G01 X41.9773 Y65.0740
G01 X41.9528 Y65.0880
G01 X41.9376 Y65.0960
G01 X41.9167 Y65.1063
G01 X41.7836 Y65.1693
G01 X41.7578 Y65.1808
G01 X41.7419 Y65.1874
G01 X41.7201 Y65.1956
G01 X41.5815 Y65.2452
G01 X41.5547 Y65.2542
G01 X41.5382 Y65.2591
G01 X41.5157 Y65.2652
G01 X41.3729 Y65.3009
G01 X41.3454 Y65.3072
G01 X41.3285 Y65.3105
G01 X41.3055 Y65.3143
G01 X41.1598 Y65.3359
G01 X41.1318 Y65.3395
G01 X41.1147 Y65.3411
G01 X41.0914 Y65.3427
G01 X40.9443 Y65.3499
G01 X40.9210 Y65.3507
G01 X31.9800 Y65.3508
G01 X31.9457 Y65.3499
G01 X31.7986 Y65.3427
G01 X31.7753 Y65.3411
G01 X31.7533 Y65.3390
G01 X31.7302 Y65.3359
G01 X31.5845 Y65.3143
G01 X31.5567 Y65.3096
G01 X31.5231 Y65.3024
G01 X31.3743 Y65.2652
G01 X31.3470 Y65.2577
G01 X31.3143 Y65.2472
G01 X31.1699 Y65.1956
G01 X31.1481 Y65.1874
G01 X31.1322 Y65.1808
G01 X31.1064 Y65.1693
G01 X30.9733 Y65.1063
G01 X30.9480 Y65.0937
G01 X30.9180 Y65.0771
G01 X30.7864 Y64.9982
G01 X30.7625 Y64.9832
G01 X30.7342 Y64.9637
G01 X30.6109 Y64.8723
G01 X30.5925 Y64.8581
G01 X30.5791 Y64.8473
G01 X30.5578 Y64.8288
G01 X30.4487 Y64.7299
G01 X30.4282 Y64.7105
G01 X30.4043 Y64.6858
G01 X30.3012 Y64.5722
G01 X30.2827 Y64.5509
G01 X30.2613 Y64.5240
G01 X30.1699 Y64.4008
G01 X30.1564 Y64.3818
G01 X30.1468 Y64.3675
G01 X30.1318 Y64.3436
G01 X30.0560 Y64.2173
G01 X30.0420 Y64.1928
G01 X30.0263 Y64.1623
G01 X29.9607 Y64.0236
G01 X29.9492 Y63.9978
