(G-CODE GENERATED BY FLATCAM v8.994 - www.flatcam.org - Version Date: 2020/11/7)

(Name: zvire-vetrnik-control.drl_mill_cnc)
(Type: G-code from Geometry)
(Units: MM)

(Created on Sobota, 04 února 2023 at 20:06)

(This preprocessor is the default preprocessor used by FlatCAM.)
(It is made to work with MACH3 compatible motion controllers.)

(TOOL DIAMETER: 1.0 mm)
(Feedrate_XY: 80.0 mm/min)
(Feedrate_Z: 25.0 mm/min)
(Feedrate rapids 1500.0 mm/min)

(Z_Cut: -1.6 mm)
(Z_Move: 2.0 mm)
(Z Start: None mm)
(Z End: 5.0 mm)
(X,Y End: None mm)
(Steps per circle: 64)
(Preprocessor Geometry: default)

(X range:    2.7100 ...   87.4600  mm)
(Y range:   10.3300 ...   73.4900  mm)

(Spindle Speed: 10000.0 RPM)
G21
G90
G94

G01 F80.00

M5
G00 Z15.0000
G00 X0.0000 Y0.0000
T1
M6    
(MSG, Change to Tool Dia = 1.0000)
M0
G00 Z15.0000

M03 S10000.0
G4 P1.0
G01 F80.00
G00 X4.9100 Y12.7000
G01 F25.00
G01 Z-1.6000
G01 F80.00
G01 X4.9047 Y12.5922
G01 X4.8889 Y12.4854
G01 X4.8626 Y12.3807
G01 X4.8263 Y12.2790
G01 X4.7801 Y12.1815
G01 X4.7246 Y12.0889
G01 X4.6603 Y12.0022
G01 X4.5878 Y11.9222
G01 X4.5078 Y11.8497
G01 X4.4211 Y11.7854
G01 X4.3285 Y11.7299
G01 X4.2310 Y11.6837
G01 X4.1293 Y11.6474
G01 X4.0246 Y11.6211
G01 X3.9178 Y11.6053
G01 X3.8100 Y11.6000
G01 X3.7022 Y11.6053
G01 X3.5954 Y11.6211
G01 X3.4907 Y11.6474
G01 X3.3890 Y11.6837
G01 X3.2915 Y11.7299
G01 X3.1989 Y11.7854
G01 X3.1122 Y11.8497
G01 X3.0322 Y11.9222
G01 X2.9597 Y12.0022
G01 X2.8954 Y12.0889
G01 X2.8399 Y12.1815
G01 X2.7937 Y12.2790
G01 X2.7574 Y12.3807
G01 X2.7311 Y12.4854
G01 X2.7153 Y12.5922
G01 X2.7100 Y12.7000
G01 X2.7153 Y12.8078
G01 X2.7311 Y12.9146
G01 X2.7574 Y13.0193
G01 X2.7937 Y13.1210
G01 X2.8399 Y13.2185
G01 X2.8954 Y13.3111
G01 X2.9597 Y13.3978
G01 X3.0322 Y13.4778
G01 X3.1122 Y13.5503
G01 X3.1989 Y13.6146
G01 X3.2915 Y13.6701
G01 X3.3890 Y13.7163
G01 X3.4907 Y13.7526
G01 X3.5954 Y13.7789
G01 X3.7022 Y13.7947
G01 X3.8100 Y13.8000
G01 X3.9178 Y13.7947
G01 X4.0246 Y13.7789
G01 X4.1293 Y13.7526
G01 X4.2310 Y13.7163
G01 X4.3285 Y13.6701
G01 X4.4211 Y13.6146
G01 X4.5078 Y13.5503
G01 X4.5878 Y13.4778
G01 X4.6603 Y13.3978
G01 X4.7246 Y13.3111
G01 X4.7801 Y13.2185
G01 X4.8263 Y13.1210
G01 X4.8626 Y13.0193
G01 X4.8889 Y12.9146
G01 X4.9047 Y12.8078
G01 X4.9100 Y12.7000
G00 Z2.0000
G00 X4.9100 Y72.3900
G01 F25.00
G01 Z-1.6000
G01 F80.00
G01 X4.9047 Y72.2822
G01 X4.8889 Y72.1754
G01 X4.8626 Y72.0707
G01 X4.8263 Y71.9690
G01 X4.7801 Y71.8715
G01 X4.7246 Y71.7789
G01 X4.6603 Y71.6922
G01 X4.5878 Y71.6122
G01 X4.5078 Y71.5397
G01 X4.4211 Y71.4754
G01 X4.3285 Y71.4199
G01 X4.2310 Y71.3737
G01 X4.1293 Y71.3374
G01 X4.0246 Y71.3111
G01 X3.9178 Y71.2953
G01 X3.8100 Y71.2900
G01 X3.7022 Y71.2953
G01 X3.5954 Y71.3111
G01 X3.4907 Y71.3374
G01 X3.3890 Y71.3737
G01 X3.2915 Y71.4199
G01 X3.1989 Y71.4754
G01 X3.1122 Y71.5397
G01 X3.0322 Y71.6122
G01 X2.9597 Y71.6922
G01 X2.8954 Y71.7789
G01 X2.8399 Y71.8715
G01 X2.7937 Y71.9690
G01 X2.7574 Y72.0707
G01 X2.7311 Y72.1754
G01 X2.7153 Y72.2822
G01 X2.7100 Y72.3900
G01 X2.7153 Y72.4978
G01 X2.7311 Y72.6046
G01 X2.7574 Y72.7093
G01 X2.7937 Y72.8110
G01 X2.8399 Y72.9085
G01 X2.8954 Y73.0011
G01 X2.9597 Y73.0878
G01 X3.0322 Y73.1678
G01 X3.1122 Y73.2403
G01 X3.1989 Y73.3046
G01 X3.2915 Y73.3601
G01 X3.3890 Y73.4063
G01 X3.4907 Y73.4426
G01 X3.5954 Y73.4689
G01 X3.7022 Y73.4847
G01 X3.8100 Y73.4900
G01 X3.9178 Y73.4847
G01 X4.0246 Y73.4689
G01 X4.1293 Y73.4426
G01 X4.2310 Y73.4063
G01 X4.3285 Y73.3601
G01 X4.4211 Y73.3046
G01 X4.5078 Y73.2403
G01 X4.5878 Y73.1678
G01 X4.6603 Y73.0878
G01 X4.7246 Y73.0011
G01 X4.7801 Y72.9085
G01 X4.8263 Y72.8110
G01 X4.8626 Y72.7093
G01 X4.8889 Y72.6046
G01 X4.9047 Y72.4978
G01 X4.9100 Y72.3900
G00 Z2.0000
G00 X87.4600 Y72.3900
G01 F25.00
G01 Z-1.6000
G01 F80.00
G01 X87.4547 Y72.2822
G01 X87.4389 Y72.1754
G01 X87.4126 Y72.0707
G01 X87.3763 Y71.9690
G01 X87.3301 Y71.8715
G01 X87.2746 Y71.7789
G01 X87.2103 Y71.6922
G01 X87.1378 Y71.6122
G01 X87.0578 Y71.5397
G01 X86.9711 Y71.4754
G01 X86.8785 Y71.4199
G01 X86.7810 Y71.3737
G01 X86.6793 Y71.3374
G01 X86.5746 Y71.3111
G01 X86.4678 Y71.2953
G01 X86.3600 Y71.2900
G01 X86.2522 Y71.2953
G01 X86.1454 Y71.3111
G01 X86.0407 Y71.3374
G01 X85.9390 Y71.3737
G01 X85.8415 Y71.4199
G01 X85.7489 Y71.4754
G01 X85.6622 Y71.5397
G01 X85.5822 Y71.6122
G01 X85.5097 Y71.6922
G01 X85.4454 Y71.7789
G01 X85.3899 Y71.8715
G01 X85.3437 Y71.9690
G01 X85.3074 Y72.0707
G01 X85.2811 Y72.1754
G01 X85.2653 Y72.2822
G01 X85.2600 Y72.3900
G01 X85.2653 Y72.4978
G01 X85.2811 Y72.6046
G01 X85.3074 Y72.7093
G01 X85.3437 Y72.8110
G01 X85.3899 Y72.9085
G01 X85.4454 Y73.0011
G01 X85.5097 Y73.0878
G01 X85.5822 Y73.1678
G01 X85.6622 Y73.2403
G01 X85.7489 Y73.3046
G01 X85.8415 Y73.3601
G01 X85.9390 Y73.4063
G01 X86.0407 Y73.4426
G01 X86.1454 Y73.4689
G01 X86.2522 Y73.4847
G01 X86.3600 Y73.4900
G01 X86.4678 Y73.4847
G01 X86.5746 Y73.4689
G01 X86.6793 Y73.4426
G01 X86.7810 Y73.4063
G01 X86.8785 Y73.3601
G01 X86.9711 Y73.3046
G01 X87.0578 Y73.2403
G01 X87.1378 Y73.1678
G01 X87.2103 Y73.0878
G01 X87.2746 Y73.0011
G01 X87.3301 Y72.9085
G01 X87.3763 Y72.8110
G01 X87.4126 Y72.7093
G01 X87.4389 Y72.6046
G01 X87.4547 Y72.4978
G01 X87.4600 Y72.3900
G00 Z2.0000
G00 X87.4600 Y11.4300
G01 F25.00
G01 Z-1.6000
G01 F80.00
G01 X87.4547 Y11.3222
G01 X87.4389 Y11.2154
G01 X87.4126 Y11.1107
G01 X87.3763 Y11.0090
G01 X87.3301 Y10.9115
G01 X87.2746 Y10.8189
G01 X87.2103 Y10.7322
G01 X87.1378 Y10.6522
G01 X87.0578 Y10.5797
G01 X86.9711 Y10.5154
G01 X86.8785 Y10.4599
G01 X86.7810 Y10.4137
G01 X86.6793 Y10.3774
G01 X86.5746 Y10.3511
G01 X86.4678 Y10.3353
G01 X86.3600 Y10.3300
G01 X86.2522 Y10.3353
G01 X86.1454 Y10.3511
G01 X86.0407 Y10.3774
G01 X85.9390 Y10.4137
G01 X85.8415 Y10.4599
G01 X85.7489 Y10.5154
G01 X85.6622 Y10.5797
G01 X85.5822 Y10.6522
G01 X85.5097 Y10.7322
G01 X85.4454 Y10.8189
G01 X85.3899 Y10.9115
G01 X85.3437 Y11.0090
G01 X85.3074 Y11.1107
G01 X85.2811 Y11.2154
G01 X85.2653 Y11.3222
G01 X85.2600 Y11.4300
G01 X85.2653 Y11.5378
G01 X85.2811 Y11.6446
G01 X85.3074 Y11.7493
G01 X85.3437 Y11.8510
G01 X85.3899 Y11.9485
G01 X85.4454 Y12.0411
G01 X85.5097 Y12.1278
G01 X85.5822 Y12.2078
G01 X85.6622 Y12.2803
G01 X85.7489 Y12.3446
G01 X85.8415 Y12.4001
G01 X85.9390 Y12.4463
G01 X86.0407 Y12.4826
G01 X86.1454 Y12.5089
G01 X86.2522 Y12.5247
G01 X86.3600 Y12.5300
G01 X86.4678 Y12.5247
G01 X86.5746 Y12.5089
G01 X86.6793 Y12.4826
G01 X86.7810 Y12.4463
G01 X86.8785 Y12.4001
G01 X86.9711 Y12.3446
G01 X87.0578 Y12.2803
G01 X87.1378 Y12.2078
G01 X87.2103 Y12.1278
G01 X87.2746 Y12.0411
G01 X87.3301 Y11.9485
G01 X87.3763 Y11.8510
G01 X87.4126 Y11.7493
G01 X87.4389 Y11.6446
G01 X87.4547 Y11.5378
G01 X87.4600 Y11.4300
G00 Z2.0000
M05
G00 Z2.0000
G00 Z5.00


