(G-CODE GENERATED BY FLATCAM v8.994 - www.flatcam.org - Version Date: 2020/11/7)

(Name: zvire-vetrnik-control.drl_cnc)
(Type: G-code from Geometry)
(Units: MM)

(Created on Sobota, 04 února 2023 at 20:05)

(This preprocessor is the default preprocessor used by FlatCAM.)
(It is made to work with MACH3 compatible motion controllers.)


(TOOLS DIAMETER: )
(Tool: 1 -> Dia: 0.762)
(Tool: 2 -> Dia: 0.8)
(Tool: 3 -> Dia: 0.9)
(Tool: 4 -> Dia: 1.0)
(Tool: 5 -> Dia: 1.1)
(Tool: 6 -> Dia: 1.19)
(Tool: 7 -> Dia: 1.3)
(Tool: 8 -> Dia: 3.2)

(FEEDRATE Z: )
(Tool: 1 -> Feedrate: 120.0)
(Tool: 2 -> Feedrate: 120.0)
(Tool: 3 -> Feedrate: 120.0)
(Tool: 4 -> Feedrate: 120.0)
(Tool: 5 -> Feedrate: 120.0)
(Tool: 6 -> Feedrate: 120.0)
(Tool: 7 -> Feedrate: 120.0)
(Tool: 8 -> Feedrate: 120.0)

(FEEDRATE RAPIDS: )
(Tool: 1 -> Feedrate Rapids: 1500)
(Tool: 2 -> Feedrate Rapids: 1500)
(Tool: 3 -> Feedrate Rapids: 1500)
(Tool: 4 -> Feedrate Rapids: 1500)
(Tool: 5 -> Feedrate Rapids: 1500)
(Tool: 6 -> Feedrate Rapids: 1500)
(Tool: 7 -> Feedrate Rapids: 1500)
(Tool: 8 -> Feedrate Rapids: 1500)

(Z_CUT: )
(Tool: 1 -> Z_Cut: -1.65)
(Tool: 2 -> Z_Cut: -1.65)
(Tool: 3 -> Z_Cut: -1.65)
(Tool: 4 -> Z_Cut: -1.65)
(Tool: 5 -> Z_Cut: -1.65)
(Tool: 6 -> Z_Cut: -1.65)
(Tool: 7 -> Z_Cut: -1.65)
(Tool: 8 -> Z_Cut: -1.65)

(Tools Offset: )
(Tool: 4 -> Offset Z: 0.0)
(Tool: 5 -> Offset Z: 0.0)
(Tool: 6 -> Offset Z: 0.0)
(Tool: 7 -> Offset Z: 0.0)

(Z_MOVE: )
(Tool: 1 -> Z_Move: 2)
(Tool: 2 -> Z_Move: 2)
(Tool: 3 -> Z_Move: 2)
(Tool: 4 -> Z_Move: 2)
(Tool: 5 -> Z_Move: 2)
(Tool: 6 -> Z_Move: 2)
(Tool: 7 -> Z_Move: 2)
(Tool: 8 -> Z_Move: 2)

(Z Toolchange: 5.0 mm)
(X,Y Toolchange: 0.0000, 0.0000 mm)
(Z Start: None mm)
(Z End: 0.5 mm)
(X,Y End: None mm)
(Steps per circle: 64)
(Preprocessor Excellon: default)

(X range:    2.2100 ...   97.0200  mm)
(Y range:    2.1590 ...   74.2100  mm)

(Spindle Speed: 10000 RPM)
G21
G90
G94

G01 F120.00

M5
G00 Z5.0000
T4
G00 X0.0000 Y0.0000                
M6
(MSG, Change to Tool Dia = 1.0000 ||| Total drills for tool T4 = 185)
M0
G00 Z5.0000

G01 F120.00
M03 S10000
G4 P1
G00 X3.8100 Y3.8100
G01 Z-1.6500
G01 Z0
G00 Z2.0000
G00 X3.8100 Y6.3500
G01 Z-1.6500
G01 Z0
G00 Z2.0000
G00 X6.3500 Y6.3500
G01 Z-1.6500
G01 Z0
G00 Z2.0000
G00 X8.8900 Y6.3500
G01 Z-1.6500
G01 Z0
G00 Z2.0000
G00 X11.4300 Y6.3500
G01 Z-1.6500
G01 Z0
G00 Z2.0000
G00 X20.3200 Y25.4000
G01 Z-1.6500
G01 Z0
G00 Z2.0000
G00 X20.3200 Y27.9400
G01 Z-1.6500
G01 Z0
G00 Z2.0000
G00 X20.3200 Y30.4800
G01 Z-1.6500
G01 Z0
G00 Z2.0000
G00 X20.3200 Y36.8300
G01 Z-1.6500
G01 Z0
G00 Z2.0000
G00 X20.3200 Y39.3700
G01 Z-1.6500
G01 Z0
G00 Z2.0000
G00 X17.7800 Y45.7200
G01 Z-1.6500
G01 Z0
G00 Z2.0000
G00 X17.7800 Y48.2600
G01 Z-1.6500
G01 Z0
G00 Z2.0000
G00 X15.2400 Y48.2600
G01 Z-1.6500
G01 Z0
G00 Z2.0000
G00 X15.2400 Y45.7200
G01 Z-1.6500
G01 Z0
G00 Z2.0000
G00 X12.7000 Y39.3700
G01 Z-1.6500
G01 Z0
G00 Z2.0000
G00 X15.2400 Y39.3700
G01 Z-1.6500
G01 Z0
G00 Z2.0000
G00 X17.7800 Y39.3700
G01 Z-1.6500
G01 Z0
G00 Z2.0000
G00 X17.7800 Y36.8300
G01 Z-1.6500
G01 Z0
G00 Z2.0000
G00 X15.2400 Y36.8300
G01 Z-1.6500
G01 Z0
G00 Z2.0000
G00 X12.7000 Y36.8300
G01 Z-1.6500
G01 Z0
G00 Z2.0000
G00 X8.8900 Y36.8300
G01 Z-1.6500
G01 Z0
G00 Z2.0000
G00 X6.3500 Y36.8300
G01 Z-1.6500
G01 Z0
G00 Z2.0000
G00 X3.8100 Y25.4000
G01 Z-1.6500
G01 Z0
G00 Z2.0000
G00 X3.8100 Y27.9400
G01 Z-1.6500
G01 Z0
G00 Z2.0000
G00 X3.8100 Y30.4800
G01 Z-1.6500
G01 Z0
G00 Z2.0000
G00 X3.8100 Y33.0200
G01 Z-1.6500
G01 Z0
G00 Z2.0000
G00 X3.8100 Y36.8300
G01 Z-1.6500
G01 Z0
G00 Z2.0000
G00 X3.8100 Y40.6400
G01 Z-1.6500
G01 Z0
G00 Z2.0000
G00 X3.8100 Y43.1800
G01 Z-1.6500
G01 Z0
G00 Z2.0000
G00 X3.8100 Y45.7200
G01 Z-1.6500
G01 Z0
G00 Z2.0000
G00 X10.1600 Y48.2600
G01 Z-1.6500
G01 Z0
G00 Z2.0000
G00 X12.7000 Y48.2600
G01 Z-1.6500
G01 Z0
G00 Z2.0000
G00 X12.7000 Y45.7200
G01 Z-1.6500
G01 Z0
G00 Z2.0000
G00 X10.1600 Y45.7200
G01 Z-1.6500
G01 Z0
G00 Z2.0000
G00 X3.8100 Y48.2600
G01 Z-1.6500
G01 Z0
G00 Z2.0000
G00 X3.8100 Y52.0700
G01 Z-1.6500
G01 Z0
G00 Z2.0000
G00 X3.8100 Y54.6100
G01 Z-1.6500
G01 Z0
G00 Z2.0000
G00 X3.8100 Y57.1500
G01 Z-1.6500
G01 Z0
G00 Z2.0000
G00 X3.8100 Y59.6900
G01 Z-1.6500
G01 Z0
G00 Z2.0000
G00 X13.9700 Y54.6100
G01 Z-1.6500
G01 Z0
G00 Z2.0000
G00 X13.9700 Y62.2100
G01 Z-1.6500
G01 Z0
G00 Z2.0000
G00 X20.3200 Y64.7700
G01 Z-1.6500
G01 Z0
G00 Z2.0000
G00 X20.3200 Y67.3100
G01 Z-1.6500
G01 Z0
G00 Z2.0000
G00 X24.1300 Y67.1600
G01 Z-1.6500
G01 Z0
G00 Z2.0000
G00 X24.1300 Y73.6600
G01 Z-1.6500
G01 Z0
G00 Z2.0000
G00 X28.6300 Y73.6600
G01 Z-1.6500
G01 Z0
G00 Z2.0000
G00 X33.0200 Y73.6600
G01 Z-1.6500
G01 Z0
G00 Z2.0000
G00 X37.5200 Y73.6600
G01 Z-1.6500
G01 Z0
G00 Z2.0000
G00 X46.9900 Y67.3100
G01 Z-1.6500
G01 Z0
G00 Z2.0000
G00 X49.5300 Y67.3100
G01 Z-1.6500
G01 Z0
G00 Z2.0000
G00 X52.0700 Y67.3100
G01 Z-1.6500
G01 Z0
G00 Z2.0000
G00 X57.1500 Y67.3100
G01 Z-1.6500
G01 Z0
G00 Z2.0000
G00 X59.6900 Y67.3100
G01 Z-1.6500
G01 Z0
G00 Z2.0000
G00 X62.2300 Y67.3100
G01 Z-1.6500
G01 Z0
G00 Z2.0000
G00 X52.0700 Y59.6900
G01 Z-1.6500
G01 Z0
G00 Z2.0000
G00 X54.6100 Y59.6900
G01 Z-1.6500
G01 Z0
G00 Z2.0000
G00 X57.1500 Y59.6900
G01 Z-1.6500
G01 Z0
G00 Z2.0000
G00 X59.6900 Y59.6900
G01 Z-1.6500
G01 Z0
G00 Z2.0000
G00 X62.2300 Y59.6900
G01 Z-1.6500
G01 Z0
G00 Z2.0000
G00 X64.7700 Y59.6900
G01 Z-1.6500
G01 Z0
G00 Z2.0000
G00 X67.3100 Y59.6900
G01 Z-1.6500
G01 Z0
G00 Z2.0000
G00 X69.8500 Y59.6900
G01 Z-1.6500
G01 Z0
G00 Z2.0000
G00 X72.3900 Y59.6900
G01 Z-1.6500
G01 Z0
G00 Z2.0000
G00 X74.9300 Y59.6900
G01 Z-1.6500
G01 Z0
G00 Z2.0000
G00 X77.4700 Y59.6900
G01 Z-1.6500
G01 Z0
G00 Z2.0000
G00 X80.0100 Y59.6900
G01 Z-1.6500
G01 Z0
G00 Z2.0000
G00 X82.5500 Y59.6900
G01 Z-1.6500
G01 Z0
G00 Z2.0000
G00 X85.0900 Y59.6900
G01 Z-1.6500
G01 Z0
G00 Z2.0000
G00 X87.6300 Y59.6900
G01 Z-1.6500
G01 Z0
G00 Z2.0000
G00 X93.9800 Y66.0400
G01 Z-1.6500
G01 Z0
G00 Z2.0000
G00 X93.9800 Y68.5800
G01 Z-1.6500
G01 Z0
G00 Z2.0000
G00 X93.9800 Y71.1200
G01 Z-1.6500
G01 Z0
G00 Z2.0000
G00 X96.5200 Y71.1200
G01 Z-1.6500
G01 Z0
G00 Z2.0000
G00 X96.5200 Y68.5800
G01 Z-1.6500
G01 Z0
G00 Z2.0000
G00 X96.5200 Y66.0400
G01 Z-1.6500
G01 Z0
G00 Z2.0000
G00 X96.5200 Y63.5000
G01 Z-1.6500
G01 Z0
G00 Z2.0000
G00 X93.9800 Y63.5000
G01 Z-1.6500
G01 Z0
G00 Z2.0000
G00 X90.1700 Y59.6900
G01 Z-1.6500
G01 Z0
G00 Z2.0000
G00 X90.1700 Y53.3400
G01 Z-1.6500
G01 Z0
G00 Z2.0000
G00 X87.6300 Y53.3400
G01 Z-1.6500
G01 Z0
G00 Z2.0000
G00 X85.0900 Y53.3400
G01 Z-1.6500
G01 Z0
G00 Z2.0000
G00 X82.5500 Y53.3400
G01 Z-1.6500
G01 Z0
G00 Z2.0000
G00 X80.0100 Y53.3400
G01 Z-1.6500
G01 Z0
G00 Z2.0000
G00 X77.4700 Y53.3400
G01 Z-1.6500
G01 Z0
G00 Z2.0000
G00 X74.9300 Y53.3400
G01 Z-1.6500
G01 Z0
G00 Z2.0000
G00 X72.3900 Y53.3400
G01 Z-1.6500
G01 Z0
G00 Z2.0000
G00 X69.8500 Y53.3400
G01 Z-1.6500
G01 Z0
G00 Z2.0000
G00 X67.3100 Y53.3400
G01 Z-1.6500
G01 Z0
G00 Z2.0000
G00 X64.7700 Y53.3400
G01 Z-1.6500
G01 Z0
G00 Z2.0000
G00 X62.2300 Y53.3400
G01 Z-1.6500
G01 Z0
G00 Z2.0000
G00 X59.6900 Y53.3400
G01 Z-1.6500
G01 Z0
G00 Z2.0000
G00 X57.1500 Y53.3400
G01 Z-1.6500
G01 Z0
G00 Z2.0000
G00 X54.6100 Y53.3400
G01 Z-1.6500
G01 Z0
G00 Z2.0000
G00 X52.0700 Y53.3400
G01 Z-1.6500
G01 Z0
G00 Z2.0000
G00 X49.5300 Y53.3400
G01 Z-1.6500
G01 Z0
G00 Z2.0000
G00 X46.9900 Y53.3400
G01 Z-1.6500
G01 Z0
G00 Z2.0000
G00 X44.4500 Y53.3400
G01 Z-1.6500
G01 Z0
G00 Z2.0000
G00 X41.9100 Y53.3400
G01 Z-1.6500
G01 Z0
G00 Z2.0000
G00 X49.5300 Y59.6900
G01 Z-1.6500
G01 Z0
G00 Z2.0000
G00 X46.9900 Y59.6900
G01 Z-1.6500
G01 Z0
G00 Z2.0000
G00 X44.4500 Y59.6900
G01 Z-1.6500
G01 Z0
G00 Z2.0000
G00 X41.9100 Y59.6900
G01 Z-1.6500
G01 Z0
G00 Z2.0000
G00 X37.5200 Y67.1600
G01 Z-1.6500
G01 Z0
G00 Z2.0000
G00 X33.0200 Y67.1600
G01 Z-1.6500
G01 Z0
G00 Z2.0000
G00 X28.6300 Y67.1600
G01 Z-1.6500
G01 Z0
G00 Z2.0000
G00 X27.9400 Y48.2600
G01 Z-1.6500
G01 Z0
G00 Z2.0000
G00 X25.4000 Y48.2600
G01 Z-1.6500
G01 Z0
G00 Z2.0000
G00 X25.4000 Y45.7200
G01 Z-1.6500
G01 Z0
G00 Z2.0000
G00 X27.9400 Y45.7200
G01 Z-1.6500
G01 Z0
G00 Z2.0000
G00 X30.4800 Y45.7200
G01 Z-1.6500
G01 Z0
G00 Z2.0000
G00 X30.4800 Y48.2600
G01 Z-1.6500
G01 Z0
G00 Z2.0000
G00 X33.0200 Y48.2600
G01 Z-1.6500
G01 Z0
G00 Z2.0000
G00 X33.0200 Y45.7200
G01 Z-1.6500
G01 Z0
G00 Z2.0000
G00 X41.9100 Y38.1000
G01 Z-1.6500
G01 Z0
G00 Z2.0000
G00 X44.4500 Y38.1000
G01 Z-1.6500
G01 Z0
G00 Z2.0000
G00 X46.9900 Y38.1000
G01 Z-1.6500
G01 Z0
G00 Z2.0000
G00 X49.5300 Y38.1000
G01 Z-1.6500
G01 Z0
G00 Z2.0000
G00 X52.0700 Y38.1000
G01 Z-1.6500
G01 Z0
G00 Z2.0000
G00 X54.6100 Y38.1000
G01 Z-1.6500
G01 Z0
G00 Z2.0000
G00 X57.1500 Y38.1000
G01 Z-1.6500
G01 Z0
G00 Z2.0000
G00 X59.6900 Y38.1000
G01 Z-1.6500
G01 Z0
G00 Z2.0000
G00 X62.2300 Y38.1000
G01 Z-1.6500
G01 Z0
G00 Z2.0000
G00 X64.7700 Y38.1000
G01 Z-1.6500
G01 Z0
G00 Z2.0000
G00 X67.3100 Y38.1000
G01 Z-1.6500
G01 Z0
G00 Z2.0000
G00 X69.8500 Y38.1000
G01 Z-1.6500
G01 Z0
G00 Z2.0000
G00 X72.3900 Y38.1000
G01 Z-1.6500
G01 Z0
G00 Z2.0000
G00 X74.9300 Y38.1000
G01 Z-1.6500
G01 Z0
G00 Z2.0000
G00 X77.4700 Y38.1000
G01 Z-1.6500
G01 Z0
G00 Z2.0000
G00 X80.0100 Y38.1000
G01 Z-1.6500
G01 Z0
G00 Z2.0000
G00 X82.5500 Y38.1000
G01 Z-1.6500
G01 Z0
G00 Z2.0000
G00 X85.0900 Y38.1000
G01 Z-1.6500
G01 Z0
G00 Z2.0000
G00 X87.6300 Y38.1000
G01 Z-1.6500
G01 Z0
G00 Z2.0000
G00 X90.1700 Y38.1000
G01 Z-1.6500
G01 Z0
G00 Z2.0000
G00 X90.1700 Y31.7500
G01 Z-1.6500
G01 Z0
G00 Z2.0000
G00 X87.6300 Y31.7500
G01 Z-1.6500
G01 Z0
G00 Z2.0000
G00 X85.0900 Y31.7500
G01 Z-1.6500
G01 Z0
G00 Z2.0000
G00 X82.5500 Y31.7500
G01 Z-1.6500
G01 Z0
G00 Z2.0000
G00 X80.0100 Y31.7500
G01 Z-1.6500
G01 Z0
G00 Z2.0000
G00 X77.4700 Y31.7500
G01 Z-1.6500
G01 Z0
G00 Z2.0000
G00 X74.9300 Y31.7500
G01 Z-1.6500
G01 Z0
G00 Z2.0000
G00 X72.3900 Y31.7500
G01 Z-1.6500
G01 Z0
G00 Z2.0000
G00 X69.8500 Y31.7500
G01 Z-1.6500
G01 Z0
G00 Z2.0000
G00 X67.3100 Y31.7500
G01 Z-1.6500
G01 Z0
G00 Z2.0000
G00 X64.7700 Y31.7500
G01 Z-1.6500
G01 Z0
G00 Z2.0000
G00 X62.2300 Y31.7500
G01 Z-1.6500
G01 Z0
G00 Z2.0000
G00 X59.6900 Y31.7500
G01 Z-1.6500
G01 Z0
G00 Z2.0000
G00 X57.1500 Y31.7500
G01 Z-1.6500
G01 Z0
G00 Z2.0000
G00 X54.6100 Y31.7500
G01 Z-1.6500
G01 Z0
G00 Z2.0000
G00 X52.0700 Y31.7500
G01 Z-1.6500
G01 Z0
G00 Z2.0000
G00 X49.5300 Y31.7500
G01 Z-1.6500
G01 Z0
G00 Z2.0000
G00 X46.9900 Y31.7500
G01 Z-1.6500
G01 Z0
G00 Z2.0000
G00 X44.4500 Y31.7500
G01 Z-1.6500
G01 Z0
G00 Z2.0000
G00 X41.9100 Y31.7500
G01 Z-1.6500
G01 Z0
G00 Z2.0000
G00 X34.2900 Y22.8600
G01 Z-1.6500
G01 Z0
G00 Z2.0000
G00 X36.8300 Y22.8600
G01 Z-1.6500
G01 Z0
G00 Z2.0000
G00 X39.3700 Y22.8600
G01 Z-1.6500
G01 Z0
G00 Z2.0000
G00 X54.6100 Y15.2400
G01 Z-1.6500
G01 Z0
G00 Z2.0000
G00 X54.6100 Y17.7800
G01 Z-1.6500
G01 Z0
G00 Z2.0000
G00 X54.6100 Y20.3200
G01 Z-1.6500
G01 Z0
G00 Z2.0000
G00 X54.6100 Y22.8600
G01 Z-1.6500
G01 Z0
G00 Z2.0000
G00 X64.7700 Y22.8600
G01 Z-1.6500
G01 Z0
G00 Z2.0000
G00 X64.7700 Y20.3200
G01 Z-1.6500
G01 Z0
G00 Z2.0000
G00 X64.7700 Y17.7800
G01 Z-1.6500
G01 Z0
G00 Z2.0000
G00 X64.7700 Y15.2400
G01 Z-1.6500
G01 Z0
G00 Z2.0000
G00 X64.7700 Y11.4300
G01 Z-1.6500
G01 Z0
G00 Z2.0000
G00 X64.7700 Y8.8900
G01 Z-1.6500
G01 Z0
G00 Z2.0000
G00 X64.7700 Y6.3500
G01 Z-1.6500
G01 Z0
G00 Z2.0000
G00 X64.7700 Y3.8100
G01 Z-1.6500
G01 Z0
G00 Z2.0000
G00 X54.6100 Y3.8100
G01 Z-1.6500
G01 Z0
G00 Z2.0000
G00 X54.6100 Y6.3500
G01 Z-1.6500
G01 Z0
G00 Z2.0000
G00 X54.6100 Y8.8900
G01 Z-1.6500
G01 Z0
G00 Z2.0000
G00 X54.6100 Y11.4300
G01 Z-1.6500
G01 Z0
G00 Z2.0000
G00 X39.3700 Y7.6200
G01 Z-1.6500
G01 Z0
G00 Z2.0000
G00 X34.3700 Y7.6200
G01 Z-1.6500
G01 Z0
G00 Z2.0000
G00 X24.1300 Y6.3500
G01 Z-1.6500
G01 Z0
G00 Z2.0000
G00 X24.1300 Y3.8100
G01 Z-1.6500
G01 Z0
G00 Z2.0000
G00 X21.5900 Y3.8100
G01 Z-1.6500
G01 Z0
G00 Z2.0000
G00 X19.0500 Y3.8100
G01 Z-1.6500
G01 Z0
G00 Z2.0000
G00 X21.5900 Y6.3500
G01 Z-1.6500
G01 Z0
G00 Z2.0000
G00 X19.0500 Y6.3500
G01 Z-1.6500
G01 Z0
G00 Z2.0000
G00 X16.5100 Y6.3500
G01 Z-1.6500
G01 Z0
G00 Z2.0000
G00 X16.5100 Y3.8100
G01 Z-1.6500
G01 Z0
G00 Z2.0000
G00 X11.4300 Y3.8100
G01 Z-1.6500
G01 Z0
G00 Z2.0000
G00 X8.8900 Y3.8100
G01 Z-1.6500
G01 Z0
G00 Z2.0000
G00 X6.3500 Y3.8100
G01 Z-1.6500
G01 Z0
G00 Z2.0000
M05
G00 Z0.50


