(G-CODE GENERATED BY FLATCAM v8.994 - www.flatcam.org - Version Date: 2020/11/7)

(Name: zvire-vetrnik-current-sensor.drl_mill_slot_cnc)
(Type: G-code from Geometry)
(Units: MM)

(Created on Sobota, 17 prosince 2022 at 16:28)

(This preprocessor is the default preprocessor used by FlatCAM.)
(It is made to work with MACH3 compatible motion controllers.)

(TOOL DIAMETER: 1.0 mm)
(Feedrate_XY: 80.0 mm/min)
(Feedrate_Z: 25.0 mm/min)
(Feedrate rapids 1500.0 mm/min)

(Z_Cut: -1.6 mm)
(Z_Move: 2.0 mm)
(Z Start: None mm)
(Z End: 5.0 mm)
(X,Y End: None mm)
(Steps per circle: 64)
(Preprocessor Geometry: default)

(X range:   17.2699 ...   32.2701  mm)
(Y range:   28.8999 ...   29.9001  mm)

(Spindle Speed: 100000.0 RPM)
G21
G90
G94

G01 F80.00

M5
G00 Z15.0000
G00 X0.0000 Y0.0000
T1
M6    
(MSG, Change to Tool Dia = 1.0000)
M0
G00 Z15.0000

M03 S100000.0
G4 P1.0
G01 F80.00
G00 X21.7700 Y29.9001
G01 F25.00
G01 Z-1.6000
G01 F80.00
G01 X21.7945 Y29.8995
G01 X21.8190 Y29.8977
G01 X21.8434 Y29.8947
G01 X21.8676 Y29.8905
G01 X21.8915 Y29.8851
G01 X21.9152 Y29.8786
G01 X21.9385 Y29.8709
G01 X21.9614 Y29.8620
G01 X21.9838 Y29.8521
G01 X22.0057 Y29.8410
G01 X22.0271 Y29.8290
G01 X22.0376 Y29.8225
G01 X22.0580 Y29.8089
G01 X22.0777 Y29.7943
G01 X22.0967 Y29.7787
G01 X22.1148 Y29.7622
G01 X22.1236 Y29.7536
G01 X22.1405 Y29.7358
G01 X22.1566 Y29.7173
G01 X22.1717 Y29.6979
G01 X22.1858 Y29.6778
G01 X22.1990 Y29.6571
G01 X22.2110 Y29.6357
G01 X22.2221 Y29.6138
G01 X22.2320 Y29.5914
G01 X22.2409 Y29.5685
G01 X22.2486 Y29.5452
G01 X22.2551 Y29.5215
G01 X22.2605 Y29.4976
G01 X22.2647 Y29.4734
G01 X22.2663 Y29.4612
G01 X22.2687 Y29.4368
G01 X22.2699 Y29.4123
G01 X22.2701 Y29.4000
G01 X22.2695 Y29.3755
G01 X22.2677 Y29.3510
G01 X22.2647 Y29.3266
G01 X22.2605 Y29.3024
G01 X22.2551 Y29.2785
G01 X22.2486 Y29.2548
G01 X22.2409 Y29.2315
G01 X22.2320 Y29.2086
G01 X22.2221 Y29.1862
G01 X22.2110 Y29.1643
G01 X22.1990 Y29.1429
G01 X22.1858 Y29.1222
G01 X22.1717 Y29.1021
G01 X22.1566 Y29.0827
G01 X22.1405 Y29.0642
G01 X22.1236 Y29.0464
G01 X22.1058 Y29.0295
G01 X22.0873 Y29.0134
G01 X22.0679 Y28.9983
G01 X22.0478 Y28.9842
G01 X22.0271 Y28.9710
G01 X22.0057 Y28.9590
G01 X21.9838 Y28.9479
G01 X21.9614 Y28.9380
G01 X21.9385 Y28.9291
G01 X21.9152 Y28.9214
G01 X21.8915 Y28.9149
G01 X21.8676 Y28.9095
G01 X21.8434 Y28.9053
G01 X21.8312 Y28.9037
G01 X21.8068 Y28.9013
G01 X21.7823 Y28.9001
G01 X21.7700 Y28.8999
G01 X17.7700 Y28.8999
G01 X17.7455 Y28.9005
G01 X17.7210 Y28.9023
G01 X17.6966 Y28.9053
G01 X17.6724 Y28.9095
G01 X17.6604 Y28.9121
G01 X17.6366 Y28.9180
G01 X17.6131 Y28.9251
G01 X17.5900 Y28.9334
G01 X17.5786 Y28.9380
G01 X17.5562 Y28.9479
G01 X17.5343 Y28.9590
G01 X17.5129 Y28.9710
G01 X17.4922 Y28.9842
G01 X17.4820 Y28.9911
G01 X17.4721 Y28.9983
G01 X17.4527 Y29.0134
G01 X17.4433 Y29.0213
G01 X17.4252 Y29.0378
G01 X17.4078 Y29.0552
G01 X17.3913 Y29.0733
G01 X17.3757 Y29.0923
G01 X17.3683 Y29.1021
G01 X17.3542 Y29.1222
G01 X17.3410 Y29.1429
G01 X17.3290 Y29.1643
G01 X17.3233 Y29.1751
G01 X17.3179 Y29.1862
G01 X17.3080 Y29.2086
G01 X17.2991 Y29.2315
G01 X17.2914 Y29.2548
G01 X17.2849 Y29.2785
G01 X17.2795 Y29.3024
G01 X17.2753 Y29.3266
G01 X17.2737 Y29.3388
G01 X17.2713 Y29.3632
G01 X17.2701 Y29.3877
G01 X17.2701 Y29.4123
G01 X17.2713 Y29.4368
G01 X17.2737 Y29.4612
G01 X17.2773 Y29.4855
G01 X17.2821 Y29.5096
G01 X17.2880 Y29.5334
G01 X17.2951 Y29.5569
G01 X17.3034 Y29.5800
G01 X17.3128 Y29.6027
G01 X17.3233 Y29.6249
G01 X17.3349 Y29.6465
G01 X17.3475 Y29.6676
G01 X17.3611 Y29.6880
G01 X17.3757 Y29.7077
G01 X17.3913 Y29.7267
G01 X17.4078 Y29.7448
G01 X17.4252 Y29.7622
G01 X17.4433 Y29.7787
G01 X17.4623 Y29.7943
G01 X17.4820 Y29.8089
G01 X17.5024 Y29.8225
G01 X17.5235 Y29.8351
G01 X17.5451 Y29.8467
G01 X17.5673 Y29.8572
G01 X17.5900 Y29.8666
G01 X17.6131 Y29.8749
G01 X17.6366 Y29.8820
G01 X17.6604 Y29.8879
G01 X17.6845 Y29.8927
G01 X17.7088 Y29.8963
G01 X17.7332 Y29.8987
G01 X17.7577 Y29.8999
G01 X17.7700 Y29.9001
G01 X21.7700 Y29.9001
G00 Z2.0000
G00 X31.7700 Y29.9001
G01 F25.00
G01 Z-1.6000
G01 F80.00
G01 X31.7945 Y29.8995
G01 X31.8190 Y29.8977
G01 X31.8434 Y29.8947
G01 X31.8676 Y29.8905
G01 X31.8915 Y29.8851
G01 X31.9152 Y29.8786
G01 X31.9385 Y29.8709
G01 X31.9614 Y29.8620
G01 X31.9838 Y29.8521
G01 X32.0057 Y29.8410
G01 X32.0271 Y29.8290
G01 X32.0376 Y29.8225
G01 X32.0580 Y29.8089
G01 X32.0777 Y29.7943
G01 X32.0967 Y29.7787
G01 X32.1148 Y29.7622
G01 X32.1322 Y29.7448
G01 X32.1487 Y29.7267
G01 X32.1643 Y29.7077
G01 X32.1789 Y29.6880
G01 X32.1925 Y29.6676
G01 X32.2051 Y29.6465
G01 X32.2167 Y29.6249
G01 X32.2272 Y29.6027
G01 X32.2366 Y29.5800
G01 X32.2449 Y29.5569
G01 X32.2520 Y29.5334
G01 X32.2579 Y29.5096
G01 X32.2605 Y29.4976
G01 X32.2647 Y29.4734
G01 X32.2677 Y29.4490
G01 X32.2695 Y29.4245
G01 X32.2701 Y29.4000
G01 X32.2695 Y29.3755
G01 X32.2677 Y29.3510
G01 X32.2647 Y29.3266
G01 X32.2605 Y29.3024
G01 X32.2579 Y29.2904
G01 X32.2520 Y29.2666
G01 X32.2449 Y29.2431
G01 X32.2366 Y29.2200
G01 X32.2272 Y29.1973
G01 X32.2167 Y29.1751
G01 X32.2051 Y29.1535
G01 X32.1925 Y29.1324
G01 X32.1789 Y29.1120
G01 X32.1717 Y29.1021
G01 X32.1566 Y29.0827
G01 X32.1405 Y29.0642
G01 X32.1236 Y29.0464
G01 X32.1058 Y29.0295
G01 X32.0873 Y29.0134
G01 X32.0679 Y28.9983
G01 X32.0478 Y28.9842
G01 X32.0271 Y28.9710
G01 X32.0057 Y28.9590
G01 X31.9838 Y28.9479
G01 X31.9614 Y28.9380
G01 X31.9385 Y28.9291
G01 X31.9152 Y28.9214
G01 X31.8915 Y28.9149
G01 X31.8676 Y28.9095
G01 X31.8434 Y28.9053
G01 X31.8312 Y28.9037
G01 X31.8068 Y28.9013
G01 X31.7823 Y28.9001
G01 X31.7700 Y28.8999
G01 X27.7700 Y28.8999
G01 X27.7455 Y28.9005
G01 X27.7210 Y28.9023
G01 X27.6966 Y28.9053
G01 X27.6724 Y28.9095
G01 X27.6604 Y28.9121
G01 X27.6366 Y28.9180
G01 X27.6131 Y28.9251
G01 X27.5900 Y28.9334
G01 X27.5786 Y28.9380
G01 X27.5562 Y28.9479
G01 X27.5343 Y28.9590
G01 X27.5129 Y28.9710
G01 X27.4922 Y28.9842
G01 X27.4820 Y28.9911
G01 X27.4721 Y28.9983
G01 X27.4527 Y29.0134
G01 X27.4433 Y29.0213
G01 X27.4252 Y29.0378
G01 X27.4078 Y29.0552
G01 X27.3913 Y29.0733
G01 X27.3757 Y29.0923
G01 X27.3683 Y29.1021
G01 X27.3542 Y29.1222
G01 X27.3410 Y29.1429
G01 X27.3290 Y29.1643
G01 X27.3233 Y29.1751
G01 X27.3179 Y29.1862
G01 X27.3080 Y29.2086
G01 X27.2991 Y29.2315
G01 X27.2914 Y29.2548
G01 X27.2849 Y29.2785
G01 X27.2795 Y29.3024
G01 X27.2753 Y29.3266
G01 X27.2737 Y29.3388
G01 X27.2713 Y29.3632
G01 X27.2701 Y29.3877
G01 X27.2701 Y29.4123
G01 X27.2713 Y29.4368
G01 X27.2737 Y29.4612
G01 X27.2773 Y29.4855
G01 X27.2821 Y29.5096
G01 X27.2880 Y29.5334
G01 X27.2951 Y29.5569
G01 X27.3034 Y29.5800
G01 X27.3128 Y29.6027
G01 X27.3233 Y29.6249
G01 X27.3349 Y29.6465
G01 X27.3475 Y29.6676
G01 X27.3611 Y29.6880
G01 X27.3757 Y29.7077
G01 X27.3913 Y29.7267
G01 X27.4078 Y29.7448
G01 X27.4252 Y29.7622
G01 X27.4433 Y29.7787
G01 X27.4623 Y29.7943
G01 X27.4820 Y29.8089
G01 X27.5024 Y29.8225
G01 X27.5235 Y29.8351
G01 X27.5451 Y29.8467
G01 X27.5673 Y29.8572
G01 X27.5900 Y29.8666
G01 X27.6131 Y29.8749
G01 X27.6366 Y29.8820
G01 X27.6604 Y29.8879
G01 X27.6845 Y29.8927
G01 X27.7088 Y29.8963
G01 X27.7332 Y29.8987
G01 X27.7577 Y29.8999
G01 X27.7700 Y29.9001
G01 X31.7700 Y29.9001
G00 Z2.0000
M05
G00 Z2.0000
G00 Z5.00


