(G-CODE GENERATED BY FLATCAM v8.994 - www.flatcam.org - Version Date: 2020/11/7)

(Name: zvire-vetrnik-current-sensor.drl_cnc)
(Type: G-code from Geometry)
(Units: MM)

(Created on Sobota, 17 prosince 2022 at 16:25)

(This preprocessor is the default preprocessor used by FlatCAM.)
(It is made to work with MACH3 compatible motion controllers.)


(TOOLS DIAMETER: )
(Tool: 1 -> Dia: 0.5)
(Tool: 2 -> Dia: 0.8)
(Tool: 3 -> Dia: 1.0)
(Tool: 4 -> Dia: 1.19)
(Tool: 5 -> Dia: 1.9)
(Tool: 6 -> Dia: 2.0)
(Tool: 7 -> Dia: 3.2)

(FEEDRATE Z: )
(Tool: 1 -> Feedrate: 150.0)
(Tool: 2 -> Feedrate: 150.0)
(Tool: 3 -> Feedrate: 150.0)
(Tool: 4 -> Feedrate: 150.0)
(Tool: 5 -> Feedrate: 150.0)
(Tool: 6 -> Feedrate: 150.0)
(Tool: 7 -> Feedrate: 150.0)

(FEEDRATE RAPIDS: )
(Tool: 1 -> Feedrate Rapids: 1500)
(Tool: 2 -> Feedrate Rapids: 1500)
(Tool: 3 -> Feedrate Rapids: 1500)
(Tool: 4 -> Feedrate Rapids: 1500)
(Tool: 5 -> Feedrate Rapids: 1500)
(Tool: 6 -> Feedrate Rapids: 1500)
(Tool: 7 -> Feedrate Rapids: 1500)

(Z_CUT: )
(Tool: 1 -> Z_Cut: -1.65)
(Tool: 2 -> Z_Cut: -1.65)
(Tool: 3 -> Z_Cut: -1.65)
(Tool: 4 -> Z_Cut: -1.65)
(Tool: 5 -> Z_Cut: -1.65)
(Tool: 6 -> Z_Cut: -1.65)
(Tool: 7 -> Z_Cut: -1.65)

(Tools Offset: )
(Tool: 1 -> Offset Z: 0.0)

(Z_MOVE: )
(Tool: 1 -> Z_Move: 2)
(Tool: 2 -> Z_Move: 2)
(Tool: 3 -> Z_Move: 2)
(Tool: 4 -> Z_Move: 2)
(Tool: 5 -> Z_Move: 2)
(Tool: 6 -> Z_Move: 2)
(Tool: 7 -> Z_Move: 2)

(Z Toolchange: 5.0 mm)
(X,Y Toolchange: 0.0000, 0.0000 mm)
(Z Start: None mm)
(Z End: 0.5 mm)
(X,Y End: None mm)
(Steps per circle: 64)
(Preprocessor Excellon: default)

(X range:    2.2100 ...   48.5900  mm)
(Y range:    2.2100 ...   57.4800  mm)

(Spindle Speed: 10000 RPM)
G21
G90
G94

G01 F150.00

M5
G00 Z5.0000
T1
G00 X0.0000 Y0.0000                
M6
(MSG, Change to Tool Dia = 0.5000 ||| Total drills for tool T1 = 78)
M0
G00 Z5.0000

G01 F150.00
M03 S10000
G4 P1
G00 X8.8900 Y25.4000
G01 Z-1.6500
G01 Z0
G00 Z2.0000
G00 X10.1600 Y26.6700
G01 Z-1.6500
G01 Z0
G00 Z2.0000
G00 X11.4300 Y27.9400
G01 Z-1.6500
G01 Z0
G00 Z2.0000
G00 X10.1600 Y29.2100
G01 Z-1.6500
G01 Z0
G00 Z2.0000
G00 X8.8900 Y30.4800
G01 Z-1.6500
G01 Z0
G00 Z2.0000
G00 X10.1600 Y31.7500
G01 Z-1.6500
G01 Z0
G00 Z2.0000
G00 X11.4300 Y33.0200
G01 Z-1.6500
G01 Z0
G00 Z2.0000
G00 X10.1600 Y34.2900
G01 Z-1.6500
G01 Z0
G00 Z2.0000
G00 X11.4300 Y35.5600
G01 Z-1.6500
G01 Z0
G00 Z2.0000
G00 X12.7000 Y36.8300
G01 Z-1.6500
G01 Z0
G00 Z2.0000
G00 X13.9700 Y35.5600
G01 Z-1.6500
G01 Z0
G00 Z2.0000
G00 X16.5700 Y31.0600
G01 Z-1.6500
G01 Z0
G00 Z2.0000
G00 X15.8200 Y30.0300
G01 Z-1.6500
G01 Z0
G00 Z2.0000
G00 X15.8200 Y28.7700
G01 Z-1.6500
G01 Z0
G00 Z2.0000
G00 X16.5700 Y27.7400
G01 Z-1.6500
G01 Z0
G00 Z2.0000
G00 X17.7700 Y27.3500
G01 Z-1.6500
G01 Z0
G00 Z2.0000
G00 X19.1000 Y27.3500
G01 Z-1.6500
G01 Z0
G00 Z2.0000
G00 X20.4400 Y27.3500
G01 Z-1.6500
G01 Z0
G00 Z2.0000
G00 X17.7700 Y31.4500
G01 Z-1.6500
G01 Z0
G00 Z2.0000
G00 X19.1000 Y31.4500
G01 Z-1.6500
G01 Z0
G00 Z2.0000
G00 X20.4400 Y31.4500
G01 Z-1.6500
G01 Z0
G00 Z2.0000
G00 X21.7700 Y31.4500
G01 Z-1.6500
G01 Z0
G00 Z2.0000
G00 X22.9700 Y31.0600
G01 Z-1.6500
G01 Z0
G00 Z2.0000
G00 X23.7200 Y30.0300
G01 Z-1.6500
G01 Z0
G00 Z2.0000
G00 X23.7200 Y28.7700
G01 Z-1.6500
G01 Z0
G00 Z2.0000
G00 X22.9700 Y27.7400
G01 Z-1.6500
G01 Z0
G00 Z2.0000
G00 X21.7700 Y27.3500
G01 Z-1.6500
G01 Z0
G00 Z2.0000
G00 X25.8200 Y30.0300
G01 Z-1.6500
G01 Z0
G00 Z2.0000
G00 X25.8200 Y28.7700
G01 Z-1.6500
G01 Z0
G00 Z2.0000
G00 X26.5700 Y27.7400
G01 Z-1.6500
G01 Z0
G00 Z2.0000
G00 X27.7700 Y27.3500
G01 Z-1.6500
G01 Z0
G00 Z2.0000
G00 X29.1000 Y27.3500
G01 Z-1.6500
G01 Z0
G00 Z2.0000
G00 X30.4400 Y27.3500
G01 Z-1.6500
G01 Z0
G00 Z2.0000
G00 X31.7700 Y27.3500
G01 Z-1.6500
G01 Z0
G00 Z2.0000
G00 X32.9700 Y27.7400
G01 Z-1.6500
G01 Z0
G00 Z2.0000
G00 X33.7200 Y28.7700
G01 Z-1.6500
G01 Z0
G00 Z2.0000
G00 X33.7200 Y30.0300
G01 Z-1.6500
G01 Z0
G00 Z2.0000
G00 X32.9700 Y31.0600
G01 Z-1.6500
G01 Z0
G00 Z2.0000
G00 X31.7700 Y31.4500
G01 Z-1.6500
G01 Z0
G00 Z2.0000
G00 X30.4400 Y31.4500
G01 Z-1.6500
G01 Z0
G00 Z2.0000
G00 X26.5700 Y31.0600
G01 Z-1.6500
G01 Z0
G00 Z2.0000
G00 X27.7700 Y31.4500
G01 Z-1.6500
G01 Z0
G00 Z2.0000
G00 X29.1000 Y31.4500
G01 Z-1.6500
G01 Z0
G00 Z2.0000
G00 X35.5600 Y35.5600
G01 Z-1.6500
G01 Z0
G00 Z2.0000
G00 X36.8300 Y36.8300
G01 Z-1.6500
G01 Z0
G00 Z2.0000
G00 X38.1000 Y35.5600
G01 Z-1.6500
G01 Z0
G00 Z2.0000
G00 X39.3700 Y34.2900
G01 Z-1.6500
G01 Z0
G00 Z2.0000
G00 X38.1000 Y33.0200
G01 Z-1.6500
G01 Z0
G00 Z2.0000
G00 X39.3700 Y31.7500
G01 Z-1.6500
G01 Z0
G00 Z2.0000
G00 X40.6400 Y30.4800
G01 Z-1.6500
G01 Z0
G00 Z2.0000
G00 X39.3700 Y29.2100
G01 Z-1.6500
G01 Z0
G00 Z2.0000
G00 X38.1000 Y27.9400
G01 Z-1.6500
G01 Z0
G00 Z2.0000
G00 X39.3700 Y26.6700
G01 Z-1.6500
G01 Z0
G00 Z2.0000
G00 X40.6400 Y25.4000
G01 Z-1.6500
G01 Z0
G00 Z2.0000
G00 X39.3700 Y24.1300
G01 Z-1.6500
G01 Z0
G00 Z2.0000
G00 X38.1000 Y22.8600
G01 Z-1.6500
G01 Z0
G00 Z2.0000
G00 X39.3700 Y21.5900
G01 Z-1.6500
G01 Z0
G00 Z2.0000
G00 X36.8300 Y17.7800
G01 Z-1.6500
G01 Z0
G00 Z2.0000
G00 X38.1000 Y16.5100
G01 Z-1.6500
G01 Z0
G00 Z2.0000
G00 X36.8300 Y15.2400
G01 Z-1.6500
G01 Z0
G00 Z2.0000
G00 X39.3700 Y11.4300
G01 Z-1.6500
G01 Z0
G00 Z2.0000
G00 X38.1000 Y10.1600
G01 Z-1.6500
G01 Z0
G00 Z2.0000
G00 X39.3700 Y8.8900
G01 Z-1.6500
G01 Z0
G00 Z2.0000
G00 X36.8300 Y5.0800
G01 Z-1.6500
G01 Z0
G00 Z2.0000
G00 X38.1000 Y3.8100
G01 Z-1.6500
G01 Z0
G00 Z2.0000
G00 X36.8300 Y2.5400
G01 Z-1.6500
G01 Z0
G00 Z2.0000
G00 X12.7000 Y2.5400
G01 Z-1.6500
G01 Z0
G00 Z2.0000
G00 X11.4300 Y3.8100
G01 Z-1.6500
G01 Z0
G00 Z2.0000
G00 X12.7000 Y5.0800
G01 Z-1.6500
G01 Z0
G00 Z2.0000
G00 X10.1600 Y8.8900
G01 Z-1.6500
G01 Z0
G00 Z2.0000
G00 X11.4300 Y10.1600
G01 Z-1.6500
G01 Z0
G00 Z2.0000
G00 X10.1600 Y11.4300
G01 Z-1.6500
G01 Z0
G00 Z2.0000
G00 X12.7000 Y15.2400
G01 Z-1.6500
G01 Z0
G00 Z2.0000
G00 X11.4300 Y16.5100
G01 Z-1.6500
G01 Z0
G00 Z2.0000
G00 X12.7000 Y17.7800
G01 Z-1.6500
G01 Z0
G00 Z2.0000
G00 X10.1600 Y21.5900
G01 Z-1.6500
G01 Z0
G00 Z2.0000
G00 X11.4300 Y22.8600
G01 Z-1.6500
G01 Z0
G00 Z2.0000
G00 X10.1600 Y24.1300
G01 Z-1.6500
G01 Z0
G00 Z2.0000
M05
G00 Z0.50


