(G-CODE GENERATED BY FLATCAM v8.994 - www.flatcam.org - Version Date: 2020/11/7)

(Name: zvire-vetrnik-current-sensor-F_Cu.gbr_iso_combined_cnc)
(Type: G-code from Geometry)
(Units: MM)

(Created on Sobota, 17 prosince 2022 at 20:13)

(This preprocessor is the default preprocessor used by FlatCAM.)
(It is made to work with MACH3 compatible motion controllers.)

(TOOL DIAMETER: 0.4 mm)
(Feedrate_XY: 240.0 mm/min)
(Feedrate_Z: 80.0 mm/min)
(Feedrate rapids 1500.0 mm/min)

(Z_Cut: -0.2239 mm)
(Z_Move: 2.0 mm)
(Z Start: None mm)
(Z End: 5.0 mm)
(X,Y End: None mm)
(Steps per circle: 64)
(Preprocessor Geometry: default)

(X range:    0.5099 ...   50.2901  mm)
(Y range:    0.5099 ...   59.1801  mm)

(Spindle Speed: 10000.0 RPM)
G21
G90
G94

G01 F240.00

M5
G00 Z15.0000
G00 X0.0000 Y0.0000
T2
M6    
(MSG, Change to Tool Dia = 0.4000)
M0
G00 Z15.0000

M03 S10000.0
G4 P1.0
G01 F240.00
G00 X22.8698 Y2.5152
G01 F80.00
G01 Z-0.2239
G01 F240.00
G01 X22.9551 Y2.5194
G01 X22.9746 Y2.5214
G01 X23.0687 Y2.5356
G01 X23.1611 Y2.5585
G01 X23.1799 Y2.5642
G01 X23.2695 Y2.5964
G01 X23.3644 Y2.6413
G01 X23.4545 Y2.6953
G01 X23.5311 Y2.7518
G01 X23.5462 Y2.7643
G01 X23.6166 Y2.8284
G01 X23.6807 Y2.8988
G01 X23.6932 Y2.9139
G01 X23.7469 Y2.9865
G01 X23.7549 Y2.9988
G01 X23.8037 Y3.0806
G01 X23.8486 Y3.1755
G01 X23.8839 Y3.2744
G01 X23.9073 Y3.3667
G01 X23.9103 Y3.3811
G01 X23.9248 Y3.4801
G01 X23.9299 Y3.5801
G01 X23.9300 Y4.0350
G01 X23.9248 Y4.1399
G01 X23.9094 Y4.2437
G01 X23.8839 Y4.3456
G01 X23.8486 Y4.4445
G01 X23.8037 Y4.5394
G01 X23.7497 Y4.6295
G01 X23.6871 Y4.7138
G01 X23.6166 Y4.7916
G01 X23.5388 Y4.8621
G01 X23.4545 Y4.9247
G01 X23.3644 Y4.9787
G01 X23.2695 Y5.0236
G01 X23.1706 Y5.0589
G01 X23.0687 Y5.0844
G01 X22.9649 Y5.0998
G01 X22.8600 Y5.1050
G01 X22.7551 Y5.0998
G01 X22.6609 Y5.0861
G01 X22.6417 Y5.0823
G01 X22.5494 Y5.0589
G01 X22.4597 Y5.0271
G01 X22.4416 Y5.0196
G01 X22.3556 Y4.9787
G01 X22.2655 Y4.9247
G01 X22.1889 Y4.8682
G01 X22.1738 Y4.8557
G01 X22.1034 Y4.7916
G01 X22.0393 Y4.7212
G01 X22.0268 Y4.7061
G01 X21.9731 Y4.6335
G01 X21.9651 Y4.6212
G01 X21.9163 Y4.5394
G01 X21.8714 Y4.4445
G01 X21.8361 Y4.3456
G01 X21.8127 Y4.2533
G01 X21.8097 Y4.2389
G01 X21.7952 Y4.1399
G01 X21.7901 Y4.0399
G01 X21.7900 Y3.5850
G01 X21.7952 Y3.4801
G01 X21.8106 Y3.3763
G01 X21.8361 Y3.2744
G01 X21.8714 Y3.1755
G01 X21.9163 Y3.0806
G01 X21.9703 Y2.9905
G01 X22.0329 Y2.9062
G01 X22.1034 Y2.8284
G01 X22.1812 Y2.7579
G01 X22.2655 Y2.6953
G01 X22.3556 Y2.6413
G01 X22.4505 Y2.5964
G01 X22.5494 Y2.5611
G01 X22.6513 Y2.5356
G01 X22.7551 Y2.5202
G01 X22.8502 Y2.5152
G01 X22.8698 Y2.5152
G00 Z2.0000
G00 X25.4098 Y2.5152
G01 F80.00
G01 Z-0.2239
G01 F240.00
G01 X25.4951 Y2.5194
G01 X25.5146 Y2.5214
G01 X25.6087 Y2.5356
G01 X25.7011 Y2.5585
G01 X25.7199 Y2.5642
G01 X25.8095 Y2.5964
G01 X25.9044 Y2.6413
G01 X25.9945 Y2.6953
G01 X26.0711 Y2.7518
G01 X26.0862 Y2.7643
G01 X26.1566 Y2.8284
G01 X26.2207 Y2.8988
G01 X26.2332 Y2.9139
G01 X26.2869 Y2.9865
G01 X26.2949 Y2.9988
G01 X26.3437 Y3.0806
G01 X26.3886 Y3.1755
G01 X26.4239 Y3.2744
G01 X26.4473 Y3.3667
G01 X26.4503 Y3.3811
G01 X26.4648 Y3.4801
G01 X26.4699 Y3.5801
G01 X26.4700 Y4.0350
G01 X26.4648 Y4.1399
G01 X26.4494 Y4.2437
G01 X26.4239 Y4.3456
G01 X26.3886 Y4.4445
G01 X26.3437 Y4.5394
G01 X26.2897 Y4.6295
G01 X26.2271 Y4.7138
G01 X26.1566 Y4.7916
G01 X26.0788 Y4.8621
G01 X25.9945 Y4.9247
G01 X25.9044 Y4.9787
G01 X25.8095 Y5.0236
G01 X25.7106 Y5.0589
G01 X25.6087 Y5.0844
G01 X25.5049 Y5.0998
G01 X25.4000 Y5.1050
G01 X25.2951 Y5.0998
G01 X25.2009 Y5.0861
G01 X25.1817 Y5.0823
G01 X25.0894 Y5.0589
G01 X24.9997 Y5.0271
G01 X24.9816 Y5.0196
G01 X24.8956 Y4.9787
G01 X24.8055 Y4.9247
G01 X24.7289 Y4.8682
G01 X24.7138 Y4.8557
G01 X24.6434 Y4.7916
G01 X24.5793 Y4.7212
G01 X24.5668 Y4.7061
G01 X24.5131 Y4.6335
G01 X24.5051 Y4.6212
G01 X24.4563 Y4.5394
G01 X24.4114 Y4.4445
G01 X24.3761 Y4.3456
G01 X24.3527 Y4.2533
G01 X24.3497 Y4.2389
G01 X24.3352 Y4.1399
G01 X24.3301 Y4.0399
G01 X24.3300 Y3.5850
G01 X24.3352 Y3.4801
G01 X24.3506 Y3.3763
G01 X24.3761 Y3.2744
G01 X24.4114 Y3.1755
G01 X24.4563 Y3.0806
G01 X24.5103 Y2.9905
G01 X24.5729 Y2.9062
G01 X24.6434 Y2.8284
G01 X24.7212 Y2.7579
G01 X24.8055 Y2.6953
G01 X24.8956 Y2.6413
G01 X24.9905 Y2.5964
G01 X25.0894 Y2.5611
G01 X25.1913 Y2.5356
G01 X25.2951 Y2.5202
G01 X25.3902 Y2.5152
G01 X25.4098 Y2.5152
G00 Z2.0000
G00 X25.4236 Y2.2356
G01 F80.00
G01 Z-0.2239
G01 F240.00
G01 X25.5088 Y2.2398
G01 X25.5323 Y2.2415
G01 X25.5557 Y2.2444
G01 X25.6402 Y2.2569
G01 X25.6634 Y2.2609
G01 X25.6864 Y2.2661
G01 X25.7692 Y2.2868
G01 X25.7919 Y2.2931
G01 X25.8143 Y2.3005
G01 X25.8946 Y2.3293
G01 X25.9166 Y2.3378
G01 X25.9382 Y2.3473
G01 X26.0153 Y2.3838
G01 X26.0364 Y2.3944
G01 X26.0569 Y2.4060
G01 X26.1301 Y2.4499
G01 X26.1500 Y2.4625
G01 X26.1693 Y2.4761
G01 X26.2379 Y2.5269
G01 X26.2564 Y2.5414
G01 X26.2743 Y2.5568
G01 X26.3375 Y2.6142
G01 X26.3546 Y2.6304
G01 X26.3708 Y2.6475
G01 X26.4282 Y2.7107
G01 X26.4436 Y2.7286
G01 X26.4581 Y2.7471
G01 X26.5089 Y2.8157
G01 X26.5225 Y2.8350
G01 X26.5351 Y2.8549
G01 X26.5790 Y2.9281
G01 X26.5903 Y2.9481
G01 X26.5918 Y2.9169
G01 X26.5935 Y2.8934
G01 X26.5964 Y2.8701
G01 X26.6000 Y2.8458
G01 X26.6040 Y2.8226
G01 X26.6092 Y2.7996
G01 X26.6182 Y2.7644
G01 X26.6250 Y2.7419
G01 X26.6371 Y2.7076
G01 X26.6456 Y2.6856
G01 X26.6551 Y2.6641
G01 X26.6708 Y2.6313
G01 X26.6819 Y2.6106
G01 X26.7004 Y2.5793
G01 X26.7130 Y2.5594
G01 X26.7266 Y2.5402
G01 X26.7412 Y2.5205
G01 X26.7557 Y2.5019
G01 X26.7711 Y2.4841
G01 X26.7876 Y2.4659
G01 X26.8038 Y2.4488
G01 X26.8209 Y2.4326
G01 X26.8479 Y2.4083
G01 X26.8661 Y2.3933
G01 X26.8952 Y2.3716
G01 X26.9144 Y2.3580
G01 X26.9343 Y2.3454
G01 X26.9656 Y2.3269
G01 X26.9863 Y2.3158
G01 X27.0191 Y2.3001
G01 X27.0406 Y2.2906
G01 X27.0626 Y2.2821
G01 X27.0857 Y2.2738
G01 X27.1081 Y2.2664
G01 X27.1308 Y2.2601
G01 X27.1661 Y2.2515
G01 X27.1892 Y2.2469
G01 X27.2008 Y2.2450
G01 X27.2251 Y2.2414
G01 X27.2484 Y2.2385
G01 X27.2719 Y2.2368
G01 X27.2964 Y2.2356
G01 X27.3200 Y2.2350
G01 X28.5600 Y2.2350
G01 X28.5836 Y2.2356
G01 X28.6198 Y2.2375
G01 X28.6316 Y2.2385
G01 X28.6549 Y2.2414
G01 X28.6908 Y2.2469
G01 X28.7139 Y2.2515
G01 X28.7492 Y2.2601
G01 X28.7719 Y2.2664
G01 X28.7943 Y2.2738
G01 X28.8284 Y2.2862
G01 X28.8502 Y2.2952
G01 X28.8831 Y2.3106
G01 X28.8937 Y2.3158
G01 X28.9144 Y2.3269
G01 X28.9457 Y2.3454
G01 X28.9656 Y2.3580
G01 X28.9848 Y2.3716
G01 X29.0139 Y2.3933
G01 X29.0321 Y2.4083
G01 X29.0409 Y2.4161
G01 X29.0591 Y2.4326
G01 X29.0762 Y2.4488
G01 X29.0924 Y2.4659
G01 X29.1089 Y2.4841
G01 X29.1243 Y2.5019
G01 X29.1388 Y2.5205
G01 X29.1534 Y2.5402
G01 X29.1670 Y2.5594
G01 X29.1796 Y2.5793
G01 X29.1922 Y2.6004
G01 X29.1981 Y2.6106
G01 X29.2092 Y2.6313
G01 X29.2298 Y2.6748
G01 X29.2388 Y2.6966
G01 X29.2550 Y2.7419
G01 X29.2618 Y2.7644
G01 X29.2649 Y2.7758
G01 X29.2708 Y2.7996
G01 X29.2760 Y2.8226
G01 X29.2800 Y2.8458
G01 X29.2836 Y2.8701
G01 X29.2852 Y2.8817
G01 X29.2875 Y2.9052
G01 X29.2894 Y2.9414
G01 X29.2900 Y2.9650
G01 X29.2900 Y4.6550
G01 X29.2894 Y4.6786
G01 X29.2875 Y4.7148
G01 X29.2852 Y4.7383
G01 X29.2836 Y4.7499
G01 X29.2781 Y4.7858
G01 X29.2735 Y4.8089
G01 X29.2649 Y4.8442
G01 X29.2586 Y4.8669
G01 X29.2512 Y4.8893
G01 X29.2388 Y4.9234
G01 X29.2298 Y4.9452
G01 X29.2249 Y4.9559
G01 X29.2092 Y4.9887
G01 X29.1981 Y5.0094
G01 X29.1796 Y5.0407
G01 X29.1670 Y5.0606
G01 X29.1534 Y5.0798
G01 X29.1317 Y5.1089
G01 X29.1167 Y5.1271
G01 X29.0844 Y5.1628
G01 X29.0678 Y5.1794
G01 X29.0321 Y5.2117
G01 X29.0139 Y5.2267
G01 X28.9753 Y5.2553
G01 X28.9557 Y5.2684
G01 X28.9144 Y5.2931
G01 X28.8937 Y5.3042
G01 X28.8502 Y5.3248
G01 X28.8284 Y5.3338
G01 X28.7831 Y5.3500
G01 X28.7606 Y5.3568
G01 X28.7139 Y5.3685
G01 X28.6908 Y5.3731
G01 X28.6549 Y5.3786
G01 X28.6316 Y5.3815
G01 X28.6198 Y5.3825
G01 X28.5836 Y5.3844
G01 X28.5600 Y5.3850
G01 X27.3200 Y5.3850
G01 X27.2964 Y5.3844
G01 X27.2719 Y5.3832
G01 X27.2484 Y5.3815
G01 X27.2251 Y5.3786
G01 X27.1892 Y5.3731
G01 X27.1661 Y5.3685
G01 X27.1308 Y5.3599
G01 X27.1081 Y5.3536
G01 X27.0857 Y5.3462
G01 X27.0516 Y5.3338
G01 X27.0298 Y5.3248
G01 X26.9863 Y5.3042
G01 X26.9656 Y5.2931
G01 X26.9343 Y5.2746
G01 X26.9144 Y5.2620
G01 X26.8952 Y5.2484
G01 X26.8755 Y5.2338
G01 X26.8569 Y5.2193
G01 X26.8391 Y5.2039
G01 X26.8209 Y5.1874
G01 X26.8038 Y5.1712
G01 X26.7876 Y5.1541
G01 X26.7633 Y5.1271
G01 X26.7483 Y5.1089
G01 X26.7266 Y5.0798
G01 X26.7130 Y5.0606
G01 X26.7004 Y5.0407
G01 X26.6819 Y5.0094
G01 X26.6708 Y4.9887
G01 X26.6502 Y4.9452
G01 X26.6412 Y4.9234
G01 X26.6288 Y4.8893
G01 X26.6214 Y4.8669
G01 X26.6151 Y4.8442
G01 X26.6092 Y4.8204
G01 X26.6040 Y4.7974
G01 X26.6000 Y4.7742
G01 X26.5964 Y4.7499
G01 X26.5935 Y4.7266
G01 X26.5918 Y4.7031
G01 X26.5903 Y4.6719
G01 X26.5790 Y4.6919
G01 X26.5351 Y4.7651
G01 X26.5225 Y4.7850
G01 X26.5089 Y4.8043
G01 X26.4581 Y4.8729
G01 X26.4436 Y4.8914
G01 X26.4282 Y4.9093
G01 X26.3708 Y4.9725
G01 X26.3546 Y4.9896
G01 X26.3375 Y5.0058
G01 X26.2743 Y5.0632
G01 X26.2564 Y5.0786
G01 X26.2379 Y5.0931
G01 X26.1693 Y5.1439
G01 X26.1500 Y5.1575
G01 X26.1301 Y5.1701
G01 X26.0569 Y5.2140
G01 X26.0364 Y5.2256
G01 X26.0153 Y5.2362
G01 X25.9382 Y5.2727
G01 X25.9166 Y5.2822
G01 X25.8946 Y5.2907
G01 X25.8143 Y5.3195
G01 X25.7919 Y5.3269
G01 X25.7692 Y5.3332
G01 X25.6864 Y5.3539
G01 X25.6634 Y5.3591
G01 X25.6402 Y5.3631
G01 X25.5557 Y5.3756
G01 X25.5323 Y5.3785
G01 X25.5088 Y5.3802
G01 X25.4236 Y5.3844
G01 X25.4000 Y5.3850
G01 X25.3764 Y5.3844
G01 X25.2912 Y5.3802
G01 X25.2794 Y5.3795
G01 X25.2560 Y5.3772
G01 X25.1598 Y5.3631
G01 X25.1366 Y5.3591
G01 X25.1136 Y5.3539
G01 X25.0308 Y5.3332
G01 X25.0081 Y5.3269
G01 X24.9857 Y5.3195
G01 X24.9054 Y5.2907
G01 X24.8834 Y5.2822
G01 X24.8618 Y5.2727
G01 X24.7847 Y5.2362
G01 X24.7636 Y5.2256
G01 X24.7431 Y5.2140
G01 X24.6699 Y5.1701
G01 X24.6500 Y5.1575
G01 X24.6307 Y5.1439
G01 X24.5528 Y5.0859
G01 X24.5346 Y5.0710
G01 X24.5257 Y5.0632
G01 X24.4625 Y5.0058
G01 X24.4454 Y4.9896
G01 X24.4292 Y4.9725
G01 X24.3718 Y4.9093
G01 X24.3564 Y4.8914
G01 X24.3419 Y4.8729
G01 X24.2842 Y4.7947
G01 X24.2711 Y4.7751
G01 X24.2649 Y4.7651
G01 X24.2210 Y4.6919
G01 X24.2094 Y4.6714
G01 X24.2040 Y4.6609
G01 X24.1574 Y4.5625
G01 X24.1484 Y4.5407
G01 X24.1300 Y4.4897
G01 X24.1116 Y4.5407
G01 X24.1026 Y4.5625
G01 X24.0612 Y4.6503
G01 X24.0506 Y4.6714
G01 X24.0449 Y4.6817
G01 X23.9951 Y4.7651
G01 X23.9825 Y4.7850
G01 X23.9689 Y4.8043
G01 X23.9109 Y4.8822
G01 X23.8960 Y4.9004
G01 X23.8882 Y4.9093
G01 X23.8308 Y4.9725
G01 X23.8146 Y4.9896
G01 X23.7975 Y5.0058
G01 X23.7343 Y5.0632
G01 X23.7164 Y5.0786
G01 X23.6979 Y5.0931
G01 X23.6197 Y5.1508
G01 X23.6100 Y5.1575
G01 X23.5901 Y5.1701
G01 X23.5169 Y5.2140
G01 X23.4964 Y5.2256
G01 X23.4753 Y5.2362
G01 X23.3982 Y5.2727
G01 X23.3766 Y5.2822
G01 X23.3546 Y5.2907
G01 X23.2743 Y5.3195
G01 X23.2519 Y5.3269
G01 X23.2292 Y5.3332
G01 X23.1464 Y5.3539
G01 X23.1234 Y5.3591
G01 X23.1002 Y5.3631
G01 X23.0157 Y5.3756
G01 X22.9923 Y5.3785
G01 X22.9806 Y5.3795
G01 X22.8836 Y5.3844
G01 X22.8600 Y5.3850
G01 X22.8364 Y5.3844
G01 X22.7394 Y5.3795
G01 X22.7277 Y5.3785
G01 X22.7043 Y5.3756
G01 X22.6198 Y5.3631
G01 X22.5966 Y5.3591
G01 X22.5736 Y5.3539
G01 X22.4908 Y5.3332
G01 X22.4681 Y5.3269
G01 X22.4457 Y5.3195
G01 X22.3654 Y5.2907
G01 X22.3434 Y5.2822
G01 X22.3218 Y5.2727
G01 X22.2447 Y5.2362
G01 X22.2236 Y5.2256
G01 X22.2031 Y5.2140
G01 X22.1299 Y5.1701
G01 X22.1100 Y5.1575
G01 X22.0907 Y5.1439
G01 X22.0221 Y5.0931
G01 X22.0036 Y5.0786
G01 X21.9857 Y5.0632
G01 X21.9225 Y5.0058
G01 X21.9054 Y4.9896
G01 X21.8892 Y4.9725
G01 X21.8318 Y4.9093
G01 X21.8240 Y4.9004
G01 X21.8091 Y4.8822
G01 X21.7442 Y4.7947
G01 X21.7311 Y4.7751
G01 X21.7249 Y4.7651
G01 X21.6810 Y4.6919
G01 X21.6694 Y4.6714
G01 X21.6588 Y4.6503
G01 X21.6223 Y4.5732
G01 X21.6128 Y4.5516
G01 X21.6084 Y4.5407
G01 X21.5717 Y4.4381
G01 X21.5681 Y4.4269
G01 X21.5618 Y4.4042
G01 X21.5411 Y4.3214
G01 X21.5359 Y4.2984
G01 X21.5319 Y4.2752
G01 X21.5194 Y4.1907
G01 X21.5178 Y4.1790
G01 X21.5155 Y4.1556
G01 X21.5101 Y4.0468
G01 X21.5101 Y3.5732
G01 X21.5148 Y3.4762
G01 X21.5165 Y3.4527
G01 X21.5194 Y3.4293
G01 X21.5319 Y3.3448
G01 X21.5338 Y3.3332
G01 X21.5384 Y3.3101
G01 X21.5648 Y3.2044
G01 X21.5717 Y3.1819
G01 X21.5755 Y3.1707
G01 X21.6084 Y3.0793
G01 X21.6174 Y3.0575
G01 X21.6223 Y3.0468
G01 X21.6588 Y2.9697
G01 X21.6694 Y2.9486
G01 X21.6810 Y2.9281
G01 X21.7311 Y2.8449
G01 X21.7375 Y2.8350
G01 X21.7511 Y2.8157
G01 X21.8019 Y2.7471
G01 X21.8164 Y2.7286
G01 X21.8318 Y2.7107
G01 X21.8892 Y2.6475
G01 X21.9054 Y2.6304
G01 X21.9225 Y2.6142
G01 X21.9857 Y2.5568
G01 X22.0036 Y2.5414
G01 X22.0221 Y2.5269
G01 X22.1003 Y2.4692
G01 X22.1199 Y2.4561
G01 X22.1299 Y2.4499
G01 X22.2031 Y2.4060
G01 X22.2236 Y2.3944
G01 X22.2447 Y2.3838
G01 X22.3218 Y2.3473
G01 X22.3325 Y2.3424
G01 X22.3543 Y2.3334
G01 X22.4569 Y2.2967
G01 X22.4794 Y2.2898
G01 X22.4908 Y2.2868
G01 X22.5736 Y2.2661
G01 X22.5966 Y2.2609
G01 X22.6198 Y2.2569
G01 X22.7043 Y2.2444
G01 X22.7277 Y2.2415
G01 X22.7512 Y2.2398
G01 X22.8364 Y2.2356
G01 X22.8600 Y2.2350
G01 X22.8836 Y2.2356
G01 X22.9688 Y2.2398
G01 X22.9923 Y2.2415
G01 X23.0157 Y2.2444
G01 X23.1002 Y2.2569
G01 X23.1234 Y2.2609
G01 X23.1464 Y2.2661
G01 X23.2292 Y2.2868
G01 X23.2519 Y2.2931
G01 X23.2631 Y2.2967
G01 X23.3546 Y2.3293
G01 X23.3657 Y2.3334
G01 X23.3875 Y2.3424
G01 X23.4859 Y2.3890
G01 X23.5067 Y2.4001
G01 X23.5169 Y2.4060
G01 X23.5901 Y2.4499
G01 X23.6100 Y2.4625
G01 X23.6293 Y2.4761
G01 X23.6979 Y2.5269
G01 X23.7164 Y2.5414
G01 X23.7254 Y2.5490
G01 X23.8062 Y2.6222
G01 X23.8228 Y2.6388
G01 X23.8308 Y2.6475
G01 X23.8882 Y2.7107
G01 X23.9036 Y2.7286
G01 X23.9181 Y2.7471
G01 X23.9689 Y2.8157
G01 X23.9758 Y2.8253
G01 X23.9889 Y2.8449
G01 X24.0390 Y2.9281
G01 X24.0449 Y2.9383
G01 X24.0560 Y2.9591
G01 X24.1026 Y3.0575
G01 X24.1116 Y3.0793
G01 X24.1300 Y3.1303
G01 X24.1484 Y3.0793
G01 X24.1574 Y3.0575
G01 X24.1988 Y2.9697
G01 X24.2094 Y2.9486
G01 X24.2151 Y2.9383
G01 X24.2649 Y2.8549
G01 X24.2775 Y2.8350
G01 X24.2911 Y2.8157
G01 X24.3491 Y2.7378
G01 X24.3640 Y2.7196
G01 X24.3718 Y2.7107
G01 X24.4292 Y2.6475
G01 X24.4454 Y2.6304
G01 X24.4625 Y2.6142
G01 X24.5257 Y2.5568
G01 X24.5436 Y2.5414
G01 X24.5621 Y2.5269
G01 X24.6403 Y2.4692
G01 X24.6599 Y2.4561
G01 X24.6699 Y2.4499
G01 X24.7431 Y2.4060
G01 X24.7636 Y2.3944
G01 X24.7847 Y2.3838
G01 X24.8618 Y2.3473
G01 X24.8834 Y2.3378
G01 X24.9054 Y2.3293
G01 X24.9857 Y2.3005
G01 X25.0081 Y2.2931
G01 X25.0308 Y2.2868
G01 X25.1136 Y2.2661
G01 X25.1366 Y2.2609
G01 X25.1598 Y2.2569
G01 X25.2443 Y2.2444
G01 X25.2560 Y2.2428
G01 X25.2794 Y2.2405
G01 X25.3764 Y2.2356
G01 X25.4000 Y2.2350
G01 X25.4236 Y2.2356
G00 Z2.0000
G00 X25.4373 Y1.9559
G01 F80.00
G01 Z-0.2239
G01 F240.00
G01 X25.5226 Y1.9601
G01 X25.5598 Y1.9628
G01 X25.5968 Y1.9674
G01 X25.6812 Y1.9799
G01 X25.7180 Y1.9863
G01 X25.7544 Y1.9945
G01 X25.8372 Y2.0152
G01 X25.8732 Y2.0252
G01 X25.9086 Y2.0369
G01 X25.9890 Y2.0657
G01 X26.0238 Y2.0791
G01 X26.0579 Y2.0942
G01 X26.1351 Y2.1307
G01 X26.1684 Y2.1475
G01 X26.2008 Y2.1659
G01 X26.2899 Y2.2195
G01 X26.3210 Y2.2403
G01 X26.3361 Y2.2512
G01 X26.4195 Y2.3133
G01 X26.4483 Y2.3370
G01 X26.4966 Y2.3804
G01 X26.5276 Y2.3388
G01 X26.5393 Y2.3243
G01 X26.5636 Y2.2960
G01 X26.5928 Y2.2642
G01 X26.6058 Y2.2508
G01 X26.6192 Y2.2378
G01 X26.6510 Y2.2086
G01 X26.6650 Y2.1963
G01 X26.6938 Y2.1726
G01 X26.7435 Y2.1358
G01 X26.7745 Y2.1150
G01 X26.8275 Y2.0833
G01 X26.8439 Y2.0743
G01 X26.8772 Y2.0575
G01 X26.9163 Y2.0392
G01 X26.9335 Y2.0319
G01 X26.9683 Y2.0185
G01 X27.0090 Y2.0041
G01 X27.0268 Y1.9985
G01 X27.0447 Y1.9933
G01 X27.0866 Y1.9826
G01 X27.1230 Y1.9744
G01 X27.1413 Y1.9710
G01 X27.1840 Y1.9644
G01 X27.2210 Y1.9599
G01 X27.2396 Y1.9583
G01 X27.2827 Y1.9559
G01 X27.3200 Y1.9550
G01 X28.5600 Y1.9550
G01 X28.5787 Y1.9552
G01 X28.6218 Y1.9571
G01 X28.6404 Y1.9583
G01 X28.6775 Y1.9619
G01 X28.7203 Y1.9680
G01 X28.7570 Y1.9744
G01 X28.7934 Y1.9826
G01 X28.8353 Y1.9933
G01 X28.8710 Y2.0041
G01 X28.9117 Y2.0185
G01 X28.9292 Y2.0250
G01 X28.9637 Y2.0392
G01 X29.0028 Y2.0575
G01 X29.0361 Y2.0743
G01 X29.0686 Y2.0926
G01 X29.1055 Y2.1150
G01 X29.1365 Y2.1358
G01 X29.1713 Y2.1613
G01 X29.1862 Y2.1726
G01 X29.2150 Y2.1963
G01 X29.2608 Y2.2378
G01 X29.2872 Y2.2642
G01 X29.3287 Y2.3100
G01 X29.3407 Y2.3243
G01 X29.3637 Y2.3537
G01 X29.3892 Y2.3885
G01 X29.3998 Y2.4039
G01 X29.4197 Y2.4354
G01 X29.4417 Y2.4725
G01 X29.4507 Y2.4889
G01 X29.4593 Y2.5054
G01 X29.4780 Y2.5444
G01 X29.4858 Y2.5613
G01 X29.5000 Y2.5958
G01 X29.5209 Y2.6540
G01 X29.5317 Y2.6897
G01 X29.5467 Y2.7497
G01 X29.5540 Y2.7863
G01 X29.5631 Y2.8475
G01 X29.5667 Y2.8846
G01 X29.5698 Y2.9463
G01 X29.5700 Y4.6550
G01 X29.5691 Y4.6923
G01 X29.5667 Y4.7354
G01 X29.5651 Y4.7540
G01 X29.5606 Y4.7910
G01 X29.5540 Y4.8337
G01 X29.5467 Y4.8703
G01 X29.5365 Y4.9122
G01 X29.5317 Y4.9303
G01 X29.5209 Y4.9660
G01 X29.5065 Y5.0067
G01 X29.4931 Y5.0415
G01 X29.4780 Y5.0756
G01 X29.4593 Y5.1146
G01 X29.4417 Y5.1475
G01 X29.4197 Y5.1846
G01 X29.3998 Y5.2161
G01 X29.3783 Y5.2466
G01 X29.3524 Y5.2812
G01 X29.3287 Y5.3100
G01 X29.2999 Y5.3422
G01 X29.2742 Y5.3692
G01 X29.2608 Y5.3822
G01 X29.2290 Y5.4114
G01 X29.2007 Y5.4357
G01 X29.1713 Y5.4587
G01 X29.1365 Y5.4842
G01 X29.1211 Y5.4948
G01 X29.0896 Y5.5147
G01 X29.0525 Y5.5367
G01 X29.0196 Y5.5543
G01 X28.9806 Y5.5730
G01 X28.9465 Y5.5881
G01 X28.9117 Y5.6015
G01 X28.8710 Y5.6159
G01 X28.8353 Y5.6267
G01 X28.7753 Y5.6417
G01 X28.7387 Y5.6490
G01 X28.6960 Y5.6556
G01 X28.6590 Y5.6601
G01 X28.6404 Y5.6617
G01 X28.5973 Y5.6641
G01 X28.5600 Y5.6650
G01 X27.3013 Y5.6648
G01 X27.2396 Y5.6617
G01 X27.2025 Y5.6581
G01 X27.1840 Y5.6556
G01 X27.1413 Y5.6490
G01 X27.1230 Y5.6456
G01 X27.1047 Y5.6417
G01 X27.0628 Y5.6315
G01 X27.0447 Y5.6267
G01 X27.0090 Y5.6159
G01 X26.9508 Y5.5950
G01 X26.9163 Y5.5808
G01 X26.8994 Y5.5730
G01 X26.8604 Y5.5543
G01 X26.8439 Y5.5457
G01 X26.8114 Y5.5274
G01 X26.7745 Y5.5050
G01 X26.7589 Y5.4948
G01 X26.7435 Y5.4842
G01 X26.7087 Y5.4587
G01 X26.6793 Y5.4357
G01 X26.6650 Y5.4237
G01 X26.6192 Y5.3822
G01 X26.6058 Y5.3692
G01 X26.5801 Y5.3422
G01 X26.5513 Y5.3100
G01 X26.5393 Y5.2957
G01 X26.5163 Y5.2663
G01 X26.4966 Y5.2396
G01 X26.4483 Y5.2830
G01 X26.4195 Y5.3067
G01 X26.3361 Y5.3688
G01 X26.3210 Y5.3797
G01 X26.2899 Y5.4005
G01 X26.2008 Y5.4541
G01 X26.1684 Y5.4725
G01 X26.1351 Y5.4893
G01 X26.0579 Y5.5258
G01 X26.0409 Y5.5336
G01 X26.0065 Y5.5478
G01 X25.9086 Y5.5831
G01 X25.8732 Y5.5948
G01 X25.8372 Y5.6048
G01 X25.7544 Y5.6255
G01 X25.7180 Y5.6337
G01 X25.6997 Y5.6371
G01 X25.5968 Y5.6526
G01 X25.5783 Y5.6551
G01 X25.5412 Y5.6588
G01 X25.4187 Y5.6648
G01 X25.3813 Y5.6648
G01 X25.3627 Y5.6641
G01 X25.2588 Y5.6588
G01 X25.2217 Y5.6551
G01 X25.2032 Y5.6526
G01 X25.1188 Y5.6401
G01 X25.0820 Y5.6337
G01 X25.0456 Y5.6255
G01 X24.9628 Y5.6048
G01 X24.9268 Y5.5948
G01 X24.9091 Y5.5892
G01 X24.7935 Y5.5478
G01 X24.7762 Y5.5409
G01 X24.7421 Y5.5258
G01 X24.6482 Y5.4811
G01 X24.6316 Y5.4725
G01 X24.5992 Y5.4541
G01 X24.5259 Y5.4103
G01 X24.4944 Y5.3903
G01 X24.4639 Y5.3688
G01 X24.3953 Y5.3180
G01 X24.3659 Y5.2950
G01 X24.3377 Y5.2706
G01 X24.2744 Y5.2133
G01 X24.2474 Y5.1876
G01 X24.2217 Y5.1606
G01 X24.1644 Y5.0973
G01 X24.1520 Y5.0833
G01 X24.1300 Y5.0566
G01 X24.1080 Y5.0833
G01 X24.0956 Y5.0973
G01 X24.0383 Y5.1606
G01 X24.0126 Y5.1876
G01 X23.9856 Y5.2133
G01 X23.9223 Y5.2706
G01 X23.8941 Y5.2950
G01 X23.8795 Y5.3067
G01 X23.7810 Y5.3797
G01 X23.7656 Y5.3903
G01 X23.7341 Y5.4103
G01 X23.6608 Y5.4541
G01 X23.6284 Y5.4725
G01 X23.5951 Y5.4893
G01 X23.5179 Y5.5258
G01 X23.5009 Y5.5336
G01 X23.4665 Y5.5478
G01 X23.3509 Y5.5892
G01 X23.3332 Y5.5948
G01 X23.2972 Y5.6048
G01 X23.2144 Y5.6255
G01 X23.1780 Y5.6337
G01 X23.1412 Y5.6401
G01 X23.0568 Y5.6526
G01 X23.0198 Y5.6572
G01 X22.9826 Y5.6599
G01 X22.8973 Y5.6641
G01 X22.8787 Y5.6648
G01 X22.8413 Y5.6648
G01 X22.7374 Y5.6599
G01 X22.7002 Y5.6572
G01 X22.6817 Y5.6551
G01 X22.5603 Y5.6371
G01 X22.5420 Y5.6337
G01 X22.5056 Y5.6255
G01 X22.4228 Y5.6048
G01 X22.3868 Y5.5948
G01 X22.3514 Y5.5831
G01 X22.2710 Y5.5543
G01 X22.2362 Y5.5409
G01 X22.2191 Y5.5336
G01 X22.1249 Y5.4893
G01 X22.0916 Y5.4725
G01 X22.0753 Y5.4635
G01 X21.9701 Y5.4005
G01 X21.9390 Y5.3797
G01 X21.9239 Y5.3688
G01 X21.8553 Y5.3180
G01 X21.8259 Y5.2950
G01 X21.7977 Y5.2706
G01 X21.7344 Y5.2133
G01 X21.7074 Y5.1876
G01 X21.6817 Y5.1606
G01 X21.6244 Y5.0973
G01 X21.6000 Y5.0691
G01 X21.5770 Y5.0397
G01 X21.5262 Y4.9711
G01 X21.5047 Y4.9406
G01 X21.4945 Y4.9249
G01 X21.4315 Y4.8197
G01 X21.4139 Y4.7868
G01 X21.4057 Y4.7701
G01 X21.3692 Y4.6929
G01 X21.3541 Y4.6588
G01 X21.3407 Y4.6240
G01 X21.3119 Y4.5436
G01 X21.3002 Y4.5082
G01 X21.2950 Y4.4902
G01 X21.2652 Y4.3712
G01 X21.2613 Y4.3530
G01 X21.2549 Y4.3162
G01 X21.2424 Y4.2318
G01 X21.2378 Y4.1948
G01 X21.2351 Y4.1576
G01 X21.2302 Y4.0537
G01 X21.2300 Y3.5850
G01 X21.2309 Y3.5477
G01 X21.2362 Y3.4438
G01 X21.2399 Y3.4067
G01 X21.2424 Y3.3882
G01 X21.2549 Y3.3038
G01 X21.2613 Y3.2670
G01 X21.2695 Y3.2306
G01 X21.2902 Y3.1478
G01 X21.3002 Y3.1118
G01 X21.3119 Y3.0764
G01 X21.3407 Y2.9960
G01 X21.3541 Y2.9612
G01 X21.3692 Y2.9271
G01 X21.4057 Y2.8499
G01 X21.4225 Y2.8166
G01 X21.4409 Y2.7842
G01 X21.4847 Y2.7109
G01 X21.5047 Y2.6794
G01 X21.5262 Y2.6489
G01 X21.5770 Y2.5803
G01 X21.6000 Y2.5509
G01 X21.6244 Y2.5227
G01 X21.6817 Y2.4594
G01 X21.7074 Y2.4324
G01 X21.7344 Y2.4067
G01 X21.7977 Y2.3494
G01 X21.8259 Y2.3250
G01 X21.8553 Y2.3020
G01 X21.9239 Y2.2512
G01 X21.9544 Y2.2297
G01 X21.9859 Y2.2097
G01 X22.0592 Y2.1659
G01 X22.0916 Y2.1475
G01 X22.1249 Y2.1307
G01 X22.2021 Y2.0942
G01 X22.2362 Y2.0791
G01 X22.2710 Y2.0657
G01 X22.3514 Y2.0369
G01 X22.3868 Y2.0252
G01 X22.4228 Y2.0152
G01 X22.5056 Y1.9945
G01 X22.5420 Y1.9863
G01 X22.5788 Y1.9799
G01 X22.6632 Y1.9674
G01 X22.7002 Y1.9628
G01 X22.7374 Y1.9601
G01 X22.8227 Y1.9559
G01 X22.8600 Y1.9550
G01 X22.8973 Y1.9559
G01 X22.9826 Y1.9601
G01 X23.0198 Y1.9628
G01 X23.0568 Y1.9674
G01 X23.1412 Y1.9799
G01 X23.1780 Y1.9863
G01 X23.2144 Y1.9945
G01 X23.2972 Y2.0152
G01 X23.3332 Y2.0252
G01 X23.3686 Y2.0369
G01 X23.4490 Y2.0657
G01 X23.4838 Y2.0791
G01 X23.5179 Y2.0942
G01 X23.5951 Y2.1307
G01 X23.6284 Y2.1475
G01 X23.6608 Y2.1659
G01 X23.7341 Y2.2097
G01 X23.7656 Y2.2297
G01 X23.7961 Y2.2512
G01 X23.8647 Y2.3020
G01 X23.8941 Y2.3250
G01 X23.9223 Y2.3494
G01 X23.9856 Y2.4067
G01 X24.0126 Y2.4324
G01 X24.0383 Y2.4594
G01 X24.0956 Y2.5227
G01 X24.1080 Y2.5367
G01 X24.1300 Y2.5634
G01 X24.1520 Y2.5367
G01 X24.1644 Y2.5227
G01 X24.2217 Y2.4594
G01 X24.2474 Y2.4324
G01 X24.2744 Y2.4067
G01 X24.3377 Y2.3494
G01 X24.3517 Y2.3370
G01 X24.3805 Y2.3133
G01 X24.4790 Y2.2403
G01 X24.4944 Y2.2297
G01 X24.5259 Y2.2097
G01 X24.5992 Y2.1659
G01 X24.6316 Y2.1475
G01 X24.6649 Y2.1307
G01 X24.7421 Y2.0942
G01 X24.7762 Y2.0791
G01 X24.7935 Y2.0722
G01 X24.9091 Y2.0308
G01 X24.9448 Y2.0200
G01 X24.9628 Y2.0152
G01 X25.0456 Y1.9945
G01 X25.0820 Y1.9863
G01 X25.1188 Y1.9799
G01 X25.2032 Y1.9674
G01 X25.2402 Y1.9628
G01 X25.2588 Y1.9612
G01 X25.3813 Y1.9552
G01 X25.4187 Y1.9552
G01 X25.4373 Y1.9559
G00 Z2.0000
G00 X29.0098 Y4.6648
G01 F80.00
G01 Z-0.2239
G01 F240.00
G01 X29.0078 Y4.6991
G01 X29.0014 Y4.7428
G01 X28.9906 Y4.7856
G01 X28.9776 Y4.8227
G01 X28.9738 Y4.8317
G01 X28.9613 Y4.8584
G01 X28.9520 Y4.8757
G01 X28.9368 Y4.9009
G01 X28.9314 Y4.9091
G01 X28.9139 Y4.9327
G01 X28.9047 Y4.9442
G01 X28.8782 Y4.9732
G01 X28.8455 Y5.0029
G01 X28.8100 Y5.0292
G01 X28.7764 Y5.0495
G01 X28.7634 Y5.0563
G01 X28.7367 Y5.0688
G01 X28.7277 Y5.0726
G01 X28.6999 Y5.0825
G01 X28.6859 Y5.0870
G01 X28.6574 Y5.0942
G01 X28.6381 Y5.0980
G01 X28.6041 Y5.1028
G01 X28.5600 Y5.1050
G01 X27.3200 Y5.1050
G01 X27.2808 Y5.1033
G01 X27.2661 Y5.1016
G01 X27.2370 Y5.0973
G01 X27.2274 Y5.0953
G01 X27.1988 Y5.0882
G01 X27.1801 Y5.0825
G01 X27.1523 Y5.0726
G01 X27.1388 Y5.0668
G01 X27.1079 Y5.0519
G01 X27.0700 Y5.0292
G01 X27.0345 Y5.0029
G01 X27.0018 Y4.9732
G01 X26.9721 Y4.9405
G01 X26.9458 Y4.9050
G01 X26.9231 Y4.8671
G01 X26.9082 Y4.8362
G01 X26.9024 Y4.8227
G01 X26.8925 Y4.7949
G01 X26.8868 Y4.7762
G01 X26.8797 Y4.7476
G01 X26.8777 Y4.7380
G01 X26.8734 Y4.7089
G01 X26.8717 Y4.6942
G01 X26.8700 Y4.6550
G01 X26.8700 Y2.9650
G01 X26.8722 Y2.9209
G01 X26.8786 Y2.8772
G01 X26.8894 Y2.8344
G01 X26.9043 Y2.7928
G01 X26.9231 Y2.7529
G01 X26.9458 Y2.7150
G01 X26.9721 Y2.6795
G01 X27.0018 Y2.6468
G01 X27.0345 Y2.6171
G01 X27.0700 Y2.5908
G01 X27.1079 Y2.5681
G01 X27.1388 Y2.5532
G01 X27.1570 Y2.5457
G01 X27.1847 Y2.5359
G01 X27.1988 Y2.5318
G01 X27.2274 Y2.5247
G01 X27.2370 Y2.5227
G01 X27.2661 Y2.5184
G01 X27.2808 Y2.5167
G01 X27.3200 Y2.5150
G01 X28.5600 Y2.5150
G01 X28.6041 Y2.5172
G01 X28.6478 Y2.5236
G01 X28.6906 Y2.5344
G01 X28.7322 Y2.5493
G01 X28.7721 Y2.5681
G01 X28.8100 Y2.5908
G01 X28.8455 Y2.6171
G01 X28.8782 Y2.6468
G01 X28.9079 Y2.6795
G01 X28.9342 Y2.7150
G01 X28.9569 Y2.7529
G01 X28.9718 Y2.7838
G01 X28.9776 Y2.7973
G01 X28.9875 Y2.8251
G01 X28.9932 Y2.8438
G01 X29.0003 Y2.8724
G01 X29.0023 Y2.8820
G01 X29.0066 Y2.9111
G01 X29.0083 Y2.9258
G01 X29.0100 Y2.9650
G01 X29.0098 Y4.6648
G00 Z2.0000
G00 X28.1891 Y8.9273
G01 F80.00
G01 Z-0.2239
G01 F240.00
G01 X28.1855 Y9.0008
G01 X28.1827 Y9.0380
G01 X28.1782 Y9.0750
G01 X28.1674 Y9.1478
G01 X28.1610 Y9.1846
G01 X28.1528 Y9.2210
G01 X28.1349 Y9.2924
G01 X28.1250 Y9.3283
G01 X28.1133 Y9.3637
G01 X28.0885 Y9.4330
G01 X28.0751 Y9.4679
G01 X28.0599 Y9.5020
G01 X28.0203 Y9.5853
G01 X28.0027 Y9.6182
G01 X27.9555 Y9.6974
G01 X27.9355 Y9.7289
G01 X27.9140 Y9.7594
G01 X27.8702 Y9.8185
G01 X27.8472 Y9.8479
G01 X27.8229 Y9.8762
G01 X27.7735 Y9.9307
G01 X27.7477 Y9.9577
G01 X27.7207 Y9.9835
G01 X27.6522 Y10.0452
G01 X27.6234 Y10.0689
G01 X27.5494 Y10.1240
G01 X27.5189 Y10.1455
G01 X27.4874 Y10.1655
G01 X27.4243 Y10.2033
G01 X27.3918 Y10.2217
G01 X27.3585 Y10.2385
G01 X27.2920 Y10.2699
G01 X27.2579 Y10.2851
G01 X27.2230 Y10.2985
G01 X27.1537 Y10.3233
G01 X27.1183 Y10.3350
G01 X27.0824 Y10.3449
G01 X27.0110 Y10.3628
G01 X26.9746 Y10.3710
G01 X26.9562 Y10.3744
G01 X26.8465 Y10.3907
G01 X26.8094 Y10.3943
G01 X26.7908 Y10.3955
G01 X26.7173 Y10.3991
G01 X26.6800 Y10.4000
G01 X26.6427 Y10.3991
G01 X26.5692 Y10.3955
G01 X26.5320 Y10.3927
G01 X26.4950 Y10.3882
G01 X26.4222 Y10.3774
G01 X26.4038 Y10.3744
G01 X26.3672 Y10.3671
G01 X26.2596 Y10.3402
G01 X26.2239 Y10.3293
G01 X26.2063 Y10.3233
G01 X26.1370 Y10.2985
G01 X26.1021 Y10.2851
G01 X26.0680 Y10.2699
G01 X26.0015 Y10.2385
G01 X25.9847 Y10.2303
G01 X25.9518 Y10.2127
G01 X25.8567 Y10.1557
G01 X25.8411 Y10.1455
G01 X25.8106 Y10.1240
G01 X25.7515 Y10.0802
G01 X25.7250 Y10.0596
G01 X25.6985 Y10.0802
G01 X25.6394 Y10.1240
G01 X25.6089 Y10.1455
G01 X25.5774 Y10.1655
G01 X25.5143 Y10.2033
G01 X25.4818 Y10.2217
G01 X25.4653 Y10.2303
G01 X25.3820 Y10.2699
G01 X25.3479 Y10.2851
G01 X25.3130 Y10.2985
G01 X25.2261 Y10.3293
G01 X25.2083 Y10.3350
G01 X25.1724 Y10.3449
G01 X25.1010 Y10.3628
G01 X25.0646 Y10.3710
G01 X25.0278 Y10.3774
G01 X24.9550 Y10.3882
G01 X24.9180 Y10.3927
G01 X24.8808 Y10.3955
G01 X24.7887 Y10.3998
G01 X24.7700 Y10.4000
G01 X24.7327 Y10.3991
G01 X24.6592 Y10.3955
G01 X24.6220 Y10.3927
G01 X24.5850 Y10.3882
G01 X24.5122 Y10.3774
G01 X24.4754 Y10.3710
G01 X24.4390 Y10.3628
G01 X24.3496 Y10.3402
G01 X24.3139 Y10.3293
G01 X24.2963 Y10.3233
G01 X24.2270 Y10.2985
G01 X24.1921 Y10.2851
G01 X24.1580 Y10.2699
G01 X24.0834 Y10.2345
G01 X24.0627 Y10.2504
G01 X24.0322 Y10.2719
G01 X24.0166 Y10.2821
G01 X23.9846 Y10.3013
G01 X23.9683 Y10.3103
G01 X23.9349 Y10.3270
G01 X23.9180 Y10.3348
G01 X23.8835 Y10.3491
G01 X23.8660 Y10.3556
G01 X23.8306 Y10.3673
G01 X23.7947 Y10.3772
G01 X23.7765 Y10.3815
G01 X23.7399 Y10.3888
G01 X23.7215 Y10.3918
G01 X23.7030 Y10.3943
G01 X23.6659 Y10.3979
G01 X23.6287 Y10.3998
G01 X23.6100 Y10.4000
G01 X22.1100 Y10.4000
G01 X22.0727 Y10.3991
G01 X22.0355 Y10.3963
G01 X22.0170 Y10.3943
G01 X21.9801 Y10.3888
G01 X21.9617 Y10.3854
G01 X21.9253 Y10.3772
G01 X21.9073 Y10.3725
G01 X21.8894 Y10.3673
G01 X21.8540 Y10.3556
G01 X21.8192 Y10.3421
G01 X21.8020 Y10.3348
G01 X21.7683 Y10.3189
G01 X21.7517 Y10.3103
G01 X21.7354 Y10.3013
G01 X21.7034 Y10.2821
G01 X21.6878 Y10.2719
G01 X21.6573 Y10.2504
G01 X21.6279 Y10.2275
G01 X21.6136 Y10.2155
G01 X21.5996 Y10.2031
G01 X21.5726 Y10.1774
G01 X21.5596 Y10.1641
G01 X21.5345 Y10.1364
G01 X21.5225 Y10.1221
G01 X21.4996 Y10.0927
G01 X21.4781 Y10.0622
G01 X21.4679 Y10.0466
G01 X21.4487 Y10.0146
G01 X21.4397 Y9.9983
G01 X21.4230 Y9.9649
G01 X21.4152 Y9.9480
G01 X21.4079 Y9.9308
G01 X21.3944 Y9.8960
G01 X21.3884 Y9.8784
G01 X21.3775 Y9.8427
G01 X21.3685 Y9.8065
G01 X21.3612 Y9.7699
G01 X21.3582 Y9.7515
G01 X21.3537 Y9.7145
G01 X21.3521 Y9.6959
G01 X21.3509 Y9.6773
G01 X21.3500 Y9.6400
G01 X21.3500 Y8.1400
G01 X21.3502 Y8.1213
G01 X21.3521 Y8.0841
G01 X21.3557 Y8.0470
G01 X21.3612 Y8.0101
G01 X21.3685 Y7.9735
G01 X21.3775 Y7.9373
G01 X21.3827 Y7.9194
G01 X21.3944 Y7.8840
G01 X21.4079 Y7.8492
G01 X21.4152 Y7.8320
G01 X21.4311 Y7.7983
G01 X21.4397 Y7.7817
G01 X21.4581 Y7.7493
G01 X21.4781 Y7.7178
G01 X21.4886 Y7.7024
G01 X21.5109 Y7.6724
G01 X21.5345 Y7.6436
G01 X21.5469 Y7.6296
G01 X21.5726 Y7.6026
G01 X21.5996 Y7.5769
G01 X21.6279 Y7.5525
G01 X21.6573 Y7.5296
G01 X21.6724 Y7.5186
G01 X21.7034 Y7.4979
G01 X21.7354 Y7.4787
G01 X21.7683 Y7.4611
G01 X21.7851 Y7.4530
G01 X21.8192 Y7.4379
G01 X21.8540 Y7.4244
G01 X21.8894 Y7.4127
G01 X21.9073 Y7.4075
G01 X21.9435 Y7.3985
G01 X21.9617 Y7.3946
G01 X21.9801 Y7.3912
G01 X22.0170 Y7.3857
G01 X22.0355 Y7.3837
G01 X22.0727 Y7.3809
G01 X22.1100 Y7.3800
G01 X23.6100 Y7.3800
G01 X23.6287 Y7.3802
G01 X23.6659 Y7.3821
G01 X23.7030 Y7.3857
G01 X23.7215 Y7.3882
G01 X23.7399 Y7.3912
G01 X23.7765 Y7.3985
G01 X23.7947 Y7.4028
G01 X23.8306 Y7.4127
G01 X23.8660 Y7.4244
G01 X23.8835 Y7.4309
G01 X23.9180 Y7.4452
G01 X23.9349 Y7.4530
G01 X23.9683 Y7.4697
G01 X23.9846 Y7.4787
G01 X24.0166 Y7.4979
G01 X24.0322 Y7.5081
G01 X24.0627 Y7.5296
G01 X24.0834 Y7.5455
G01 X24.1580 Y7.5101
G01 X24.1921 Y7.4949
G01 X24.2270 Y7.4815
G01 X24.2963 Y7.4567
G01 X24.3317 Y7.4450
G01 X24.3496 Y7.4398
G01 X24.4390 Y7.4172
G01 X24.4754 Y7.4090
G01 X24.5122 Y7.4026
G01 X24.6035 Y7.3893
G01 X24.6406 Y7.3857
G01 X24.6592 Y7.3845
G01 X24.7327 Y7.3809
G01 X24.7700 Y7.3800
G01 X24.8073 Y7.3809
G01 X24.8808 Y7.3845
G01 X24.9180 Y7.3873
G01 X24.9550 Y7.3918
G01 X25.0278 Y7.4026
G01 X25.0646 Y7.4090
G01 X25.1010 Y7.4172
G01 X25.1724 Y7.4351
G01 X25.1904 Y7.4398
G01 X25.2261 Y7.4507
G01 X25.3130 Y7.4815
G01 X25.3479 Y7.4949
G01 X25.3820 Y7.5101
G01 X25.4653 Y7.5497
G01 X25.4982 Y7.5673
G01 X25.5143 Y7.5767
G01 X25.5774 Y7.6145
G01 X25.6089 Y7.6345
G01 X25.6394 Y7.6560
G01 X25.6985 Y7.6998
G01 X25.7250 Y7.7204
G01 X25.7515 Y7.6998
G01 X25.8106 Y7.6560
G01 X25.8411 Y7.6345
G01 X25.8726 Y7.6145
G01 X25.9357 Y7.5767
G01 X25.9682 Y7.5583
G01 X26.0015 Y7.5415
G01 X26.0680 Y7.5101
G01 X26.1021 Y7.4949
G01 X26.1370 Y7.4815
G01 X26.2063 Y7.4567
G01 X26.2417 Y7.4450
G01 X26.2776 Y7.4351
G01 X26.3490 Y7.4172
G01 X26.3854 Y7.4090
G01 X26.4222 Y7.4026
G01 X26.4950 Y7.3918
G01 X26.5320 Y7.3873
G01 X26.5692 Y7.3845
G01 X26.6427 Y7.3809
G01 X26.6800 Y7.3800
G01 X26.7173 Y7.3809
G01 X26.7908 Y7.3845
G01 X26.8280 Y7.3873
G01 X26.8465 Y7.3893
G01 X26.9378 Y7.4026
G01 X26.9746 Y7.4090
G01 X27.0110 Y7.4172
G01 X27.0824 Y7.4351
G01 X27.1183 Y7.4450
G01 X27.1537 Y7.4567
G01 X27.2230 Y7.4815
G01 X27.2579 Y7.4949
G01 X27.2920 Y7.5101
G01 X27.3585 Y7.5415
G01 X27.3918 Y7.5583
G01 X27.4243 Y7.5767
G01 X27.4874 Y7.6145
G01 X27.5189 Y7.6345
G01 X27.5494 Y7.6560
G01 X27.6085 Y7.6998
G01 X27.6379 Y7.7228
G01 X27.6662 Y7.7471
G01 X27.7207 Y7.7965
G01 X27.7477 Y7.8223
G01 X27.7735 Y7.8493
G01 X27.8352 Y7.9178
G01 X27.8589 Y7.9466
G01 X27.9250 Y8.0357
G01 X27.9457 Y8.0667
G01 X28.0027 Y8.1618
G01 X28.0203 Y8.1947
G01 X28.0677 Y8.2950
G01 X28.0820 Y8.3295
G01 X28.1133 Y8.4163
G01 X28.1193 Y8.4339
G01 X28.1302 Y8.4696
G01 X28.1528 Y8.5590
G01 X28.1610 Y8.5954
G01 X28.1674 Y8.6322
G01 X28.1807 Y8.7235
G01 X28.1843 Y8.7606
G01 X28.1898 Y8.8713
G01 X28.1898 Y8.9087
G01 X28.1891 Y8.9273
G00 Z2.0000
G00 X27.9094 Y8.9136
G01 F80.00
G01 Z-0.2239
G01 F240.00
G01 X27.9058 Y8.9871
G01 X27.9041 Y9.0106
G01 X27.9012 Y9.0339
G01 X27.8904 Y9.1067
G01 X27.8864 Y9.1300
G01 X27.8812 Y9.1529
G01 X27.8633 Y9.2243
G01 X27.8570 Y9.2471
G01 X27.8496 Y9.2694
G01 X27.8249 Y9.3387
G01 X27.8207 Y9.3498
G01 X27.8117 Y9.3715
G01 X27.7754 Y9.4488
G01 X27.7648 Y9.4698
G01 X27.7532 Y9.4903
G01 X27.7153 Y9.5534
G01 X27.7027 Y9.5734
G01 X27.6891 Y9.5926
G01 X27.6453 Y9.6517
G01 X27.6308 Y9.6703
G01 X27.6154 Y9.6881
G01 X27.5660 Y9.7427
G01 X27.5497 Y9.7597
G01 X27.5327 Y9.7760
G01 X27.4781 Y9.8254
G01 X27.4603 Y9.8408
G01 X27.4417 Y9.8553
G01 X27.3826 Y9.8991
G01 X27.3634 Y9.9127
G01 X27.3434 Y9.9253
G01 X27.2803 Y9.9632
G01 X27.2598 Y9.9748
G01 X27.2388 Y9.9854
G01 X27.1615 Y10.0217
G01 X27.1398 Y10.0307
G01 X27.1287 Y10.0349
G01 X27.0594 Y10.0596
G01 X27.0371 Y10.0670
G01 X27.0143 Y10.0733
G01 X26.9429 Y10.0912
G01 X26.9200 Y10.0964
G01 X26.8967 Y10.1004
G01 X26.8239 Y10.1112
G01 X26.8006 Y10.1141
G01 X26.7771 Y10.1158
G01 X26.7036 Y10.1194
G01 X26.6800 Y10.1200
G01 X26.6564 Y10.1194
G01 X26.5829 Y10.1158
G01 X26.5594 Y10.1141
G01 X26.5361 Y10.1112
G01 X26.4633 Y10.1004
G01 X26.4400 Y10.0964
G01 X26.4171 Y10.0912
G01 X26.3457 Y10.0733
G01 X26.3229 Y10.0670
G01 X26.3006 Y10.0596
G01 X26.2313 Y10.0349
G01 X26.2093 Y10.0264
G01 X26.1878 Y10.0168
G01 X26.1212 Y9.9854
G01 X26.1002 Y9.9748
G01 X26.0797 Y9.9632
G01 X26.0166 Y9.9253
G01 X25.9966 Y9.9127
G01 X25.9774 Y9.8991
G01 X25.9183 Y9.8553
G01 X25.8997 Y9.8408
G01 X25.8819 Y9.8254
G01 X25.8273 Y9.7760
G01 X25.8103 Y9.7597
G01 X25.7940 Y9.7427
G01 X25.7446 Y9.6881
G01 X25.7250 Y9.6651
G01 X25.7054 Y9.6881
G01 X25.6560 Y9.7427
G01 X25.6397 Y9.7597
G01 X25.6227 Y9.7760
G01 X25.5681 Y9.8254
G01 X25.5503 Y9.8408
G01 X25.5317 Y9.8553
G01 X25.4726 Y9.8991
G01 X25.4534 Y9.9127
G01 X25.4334 Y9.9253
G01 X25.3703 Y9.9632
G01 X25.3498 Y9.9748
G01 X25.3288 Y9.9854
G01 X25.2622 Y10.0168
G01 X25.2407 Y10.0264
G01 X25.2187 Y10.0349
G01 X25.1494 Y10.0596
G01 X25.1271 Y10.0670
G01 X25.1043 Y10.0733
G01 X25.0329 Y10.0912
G01 X25.0100 Y10.0964
G01 X24.9867 Y10.1004
G01 X24.9023 Y10.1128
G01 X24.8906 Y10.1141
G01 X24.8671 Y10.1158
G01 X24.7936 Y10.1194
G01 X24.7700 Y10.1200
G01 X24.7464 Y10.1194
G01 X24.6729 Y10.1158
G01 X24.6494 Y10.1141
G01 X24.6261 Y10.1112
G01 X24.5533 Y10.1004
G01 X24.5300 Y10.0964
G01 X24.5071 Y10.0912
G01 X24.4243 Y10.0703
G01 X24.4017 Y10.0635
G01 X24.3906 Y10.0596
G01 X24.3213 Y10.0349
G01 X24.2993 Y10.0264
G01 X24.2778 Y10.0168
G01 X24.2006 Y9.9802
G01 X24.1799 Y9.9691
G01 X24.1697 Y9.9632
G01 X24.0965 Y9.9191
G01 X24.0769 Y9.9060
G01 X24.0303 Y9.8717
G01 X24.0155 Y9.8968
G01 X24.0024 Y9.9164
G01 X23.9884 Y9.9353
G01 X23.9735 Y9.9535
G01 X23.9657 Y9.9623
G01 X23.9494 Y9.9794
G01 X23.9323 Y9.9957
G01 X23.9235 Y10.0035
G01 X23.9053 Y10.0184
G01 X23.8864 Y10.0324
G01 X23.8767 Y10.0391
G01 X23.8668 Y10.0455
G01 X23.8466 Y10.0576
G01 X23.8258 Y10.0687
G01 X23.8152 Y10.0739
G01 X23.7937 Y10.0835
G01 X23.7717 Y10.0919
G01 X23.7493 Y10.0993
G01 X23.7380 Y10.1026
G01 X23.7152 Y10.1083
G01 X23.6921 Y10.1129
G01 X23.6688 Y10.1164
G01 X23.6453 Y10.1187
G01 X23.6218 Y10.1199
G01 X23.6100 Y10.1200
G01 X22.1100 Y10.1200
G01 X22.0864 Y10.1194
G01 X22.0630 Y10.1177
G01 X22.0512 Y10.1164
G01 X22.0279 Y10.1129
G01 X22.0048 Y10.1083
G01 X21.9934 Y10.1056
G01 X21.9707 Y10.0993
G01 X21.9594 Y10.0958
G01 X21.9373 Y10.0878
G01 X21.9263 Y10.0835
G01 X21.9048 Y10.0739
G01 X21.8837 Y10.0633
G01 X21.8734 Y10.0576
G01 X21.8532 Y10.0455
G01 X21.8433 Y10.0391
G01 X21.8336 Y10.0324
G01 X21.8147 Y10.0184
G01 X21.8055 Y10.0110
G01 X21.7877 Y9.9957
G01 X21.7706 Y9.9794
G01 X21.7624 Y9.9710
G01 X21.7465 Y9.9535
G01 X21.7390 Y9.9445
G01 X21.7316 Y9.9353
G01 X21.7176 Y9.9164
G01 X21.7045 Y9.8968
G01 X21.6924 Y9.8766
G01 X21.6813 Y9.8558
G01 X21.6761 Y9.8452
G01 X21.6665 Y9.8237
G01 X21.6581 Y9.8017
G01 X21.6542 Y9.7906
G01 X21.6474 Y9.7680
G01 X21.6444 Y9.7566
G01 X21.6392 Y9.7336
G01 X21.6352 Y9.7104
G01 X21.6323 Y9.6870
G01 X21.6306 Y9.6636
G01 X21.6300 Y9.6400
G01 X21.6300 Y8.1400
G01 X21.6301 Y8.1282
G01 X21.6313 Y8.1047
G01 X21.6336 Y8.0812
G01 X21.6352 Y8.0696
G01 X21.6392 Y8.0464
G01 X21.6444 Y8.0234
G01 X21.6507 Y8.0007
G01 X21.6581 Y7.9783
G01 X21.6665 Y7.9563
G01 X21.6761 Y7.9348
G01 X21.6813 Y7.9242
G01 X21.6924 Y7.9034
G01 X21.7045 Y7.8832
G01 X21.7109 Y7.8733
G01 X21.7245 Y7.8541
G01 X21.7390 Y7.8355
G01 X21.7543 Y7.8177
G01 X21.7706 Y7.8006
G01 X21.7790 Y7.7924
G01 X21.7965 Y7.7765
G01 X21.8147 Y7.7616
G01 X21.8241 Y7.7545
G01 X21.8433 Y7.7409
G01 X21.8632 Y7.7283
G01 X21.8837 Y7.7167
G01 X21.9048 Y7.7061
G01 X21.9155 Y7.7012
G01 X21.9373 Y7.6922
G01 X21.9483 Y7.6881
G01 X21.9707 Y7.6807
G01 X21.9934 Y7.6744
G01 X22.0164 Y7.6692
G01 X22.0396 Y7.6652
G01 X22.0512 Y7.6636
G01 X22.0747 Y7.6613
G01 X22.0982 Y7.6601
G01 X22.1100 Y7.6600
G01 X23.6100 Y7.6600
G01 X23.6336 Y7.6606
G01 X23.6453 Y7.6613
G01 X23.6688 Y7.6636
G01 X23.6921 Y7.6671
G01 X23.7152 Y7.6717
G01 X23.7380 Y7.6774
G01 X23.7493 Y7.6807
G01 X23.7717 Y7.6881
G01 X23.7827 Y7.6922
G01 X23.8045 Y7.7012
G01 X23.8258 Y7.7113
G01 X23.8466 Y7.7224
G01 X23.8668 Y7.7345
G01 X23.8767 Y7.7409
G01 X23.8864 Y7.7476
G01 X23.9053 Y7.7616
G01 X23.9235 Y7.7765
G01 X23.9323 Y7.7843
G01 X23.9494 Y7.8006
G01 X23.9657 Y7.8177
G01 X23.9810 Y7.8355
G01 X23.9884 Y7.8447
G01 X24.0024 Y7.8636
G01 X24.0155 Y7.8832
G01 X24.0303 Y7.9083
G01 X24.0769 Y7.8740
G01 X24.0965 Y7.8609
G01 X24.1697 Y7.8168
G01 X24.1902 Y7.8052
G01 X24.2006 Y7.7998
G01 X24.2778 Y7.7632
G01 X24.2993 Y7.7536
G01 X24.3213 Y7.7451
G01 X24.3906 Y7.7204
G01 X24.4129 Y7.7130
G01 X24.4243 Y7.7097
G01 X24.5071 Y7.6888
G01 X24.5300 Y7.6836
G01 X24.5533 Y7.6796
G01 X24.6261 Y7.6688
G01 X24.6494 Y7.6659
G01 X24.6729 Y7.6642
G01 X24.7464 Y7.6606
G01 X24.7700 Y7.6600
G01 X24.7936 Y7.6606
G01 X24.8671 Y7.6642
G01 X24.8906 Y7.6659
G01 X24.9023 Y7.6672
G01 X24.9867 Y7.6796
G01 X25.0100 Y7.6836
G01 X25.0329 Y7.6888
G01 X25.1043 Y7.7067
G01 X25.1271 Y7.7130
G01 X25.1494 Y7.7204
G01 X25.2187 Y7.7451
G01 X25.2407 Y7.7536
G01 X25.2622 Y7.7632
G01 X25.3288 Y7.7946
G01 X25.3498 Y7.8052
G01 X25.3703 Y7.8168
G01 X25.4334 Y7.8547
G01 X25.4534 Y7.8673
G01 X25.4726 Y7.8809
G01 X25.5317 Y7.9247
G01 X25.5503 Y7.9392
G01 X25.5681 Y7.9546
G01 X25.6227 Y8.0040
G01 X25.6397 Y8.0203
G01 X25.6560 Y8.0373
G01 X25.7054 Y8.0919
G01 X25.7250 Y8.1149
G01 X25.7446 Y8.0919
G01 X25.7940 Y8.0373
G01 X25.8103 Y8.0203
G01 X25.8273 Y8.0040
G01 X25.8819 Y7.9546
G01 X25.8997 Y7.9392
G01 X25.9183 Y7.9247
G01 X25.9774 Y7.8809
G01 X25.9966 Y7.8673
G01 X26.0166 Y7.8547
G01 X26.0797 Y7.8168
G01 X26.1002 Y7.8052
G01 X26.1212 Y7.7946
G01 X26.1878 Y7.7632
G01 X26.2093 Y7.7536
G01 X26.2313 Y7.7451
G01 X26.3006 Y7.7204
G01 X26.3229 Y7.7130
G01 X26.3457 Y7.7067
G01 X26.4171 Y7.6888
G01 X26.4400 Y7.6836
G01 X26.4633 Y7.6796
G01 X26.5361 Y7.6688
G01 X26.5594 Y7.6659
G01 X26.5829 Y7.6642
G01 X26.6564 Y7.6606
G01 X26.6800 Y7.6600
G01 X26.7036 Y7.6606
G01 X26.7771 Y7.6642
G01 X26.8006 Y7.6659
G01 X26.8123 Y7.6672
G01 X26.8967 Y7.6796
G01 X26.9200 Y7.6836
G01 X26.9429 Y7.6888
G01 X27.0143 Y7.7067
G01 X27.0371 Y7.7130
G01 X27.0594 Y7.7204
G01 X27.1287 Y7.7451
G01 X27.1507 Y7.7536
G01 X27.1722 Y7.7632
G01 X27.2388 Y7.7946
G01 X27.2598 Y7.8052
G01 X27.2803 Y7.8168
G01 X27.3434 Y7.8547
G01 X27.3634 Y7.8673
G01 X27.3826 Y7.8809
G01 X27.4417 Y7.9247
G01 X27.4603 Y7.9392
G01 X27.4781 Y7.9546
G01 X27.5327 Y8.0040
G01 X27.5497 Y8.0203
G01 X27.5660 Y8.0373
G01 X27.6232 Y8.1007
G01 X27.6382 Y8.1189
G01 X27.6453 Y8.1283
G01 X27.6891 Y8.1874
G01 X27.7027 Y8.2066
G01 X27.7153 Y8.2266
G01 X27.7591 Y8.2999
G01 X27.7702 Y8.3206
G01 X27.7754 Y8.3312
G01 X27.8117 Y8.4085
G01 X27.8164 Y8.4193
G01 X27.8249 Y8.4413
G01 X27.8496 Y8.5106
G01 X27.8535 Y8.5217
G01 X27.8603 Y8.5443
G01 X27.8812 Y8.6271
G01 X27.8864 Y8.6500
G01 X27.8904 Y8.6733
G01 X27.9012 Y8.7461
G01 X27.9041 Y8.7694
G01 X27.9051 Y8.7812
G01 X27.9099 Y8.8782
G01 X27.9099 Y8.9018
G01 X27.9094 Y8.9136
G00 Z2.0000
G00 X27.6298 Y8.8998
G01 F80.00
G01 Z-0.2239
G01 F240.00
G01 X27.6254 Y8.9831
G01 X27.6117 Y9.0753
G01 X27.5891 Y9.1658
G01 X27.5577 Y9.2535
G01 X27.5178 Y9.3378
G01 X27.4699 Y9.4178
G01 X27.4144 Y9.4927
G01 X27.3518 Y9.5618
G01 X27.2827 Y9.6244
G01 X27.2078 Y9.6799
G01 X27.1278 Y9.7278
G01 X27.0435 Y9.7677
G01 X26.9558 Y9.7991
G01 X26.8653 Y9.8217
G01 X26.7731 Y9.8354
G01 X26.6800 Y9.8400
G01 X26.5869 Y9.8354
G01 X26.4947 Y9.8217
G01 X26.4042 Y9.7991
G01 X26.3165 Y9.7677
G01 X26.2322 Y9.7278
G01 X26.1522 Y9.6799
G01 X26.0773 Y9.6244
G01 X26.0082 Y9.5618
G01 X25.9456 Y9.4927
G01 X25.8901 Y9.4178
G01 X25.8422 Y9.3378
G01 X25.8023 Y9.2535
G01 X25.7709 Y9.1658
G01 X25.7483 Y9.0753
G01 X25.7346 Y8.9831
G01 X25.7300 Y8.8900
G01 X25.7346 Y8.7969
G01 X25.7483 Y8.7047
G01 X25.7709 Y8.6142
G01 X25.8023 Y8.5265
G01 X25.8422 Y8.4422
G01 X25.8901 Y8.3622
G01 X25.9456 Y8.2873
G01 X26.0082 Y8.2182
G01 X26.0773 Y8.1556
G01 X26.1522 Y8.1001
G01 X26.2322 Y8.0522
G01 X26.3165 Y8.0123
G01 X26.4042 Y7.9809
G01 X26.4947 Y7.9583
G01 X26.5869 Y7.9446
G01 X26.6800 Y7.9400
G01 X26.7731 Y7.9446
G01 X26.8653 Y7.9583
G01 X26.9558 Y7.9809
G01 X27.0435 Y8.0123
G01 X27.1278 Y8.0522
G01 X27.2078 Y8.1001
G01 X27.2827 Y8.1556
G01 X27.3518 Y8.2182
G01 X27.4144 Y8.2873
G01 X27.4699 Y8.3622
G01 X27.5178 Y8.4422
G01 X27.5577 Y8.5265
G01 X27.5891 Y8.6142
G01 X27.6117 Y8.7047
G01 X27.6254 Y8.7969
G01 X27.6298 Y8.8802
G01 X27.6298 Y8.8998
G00 Z2.0000
G00 X25.7198 Y8.8998
G01 F80.00
G01 Z-0.2239
G01 F240.00
G01 X25.7154 Y8.9831
G01 X25.7017 Y9.0753
G01 X25.6791 Y9.1658
G01 X25.6477 Y9.2535
G01 X25.6078 Y9.3378
G01 X25.5599 Y9.4178
G01 X25.5044 Y9.4927
G01 X25.4418 Y9.5618
G01 X25.3727 Y9.6244
G01 X25.2978 Y9.6799
G01 X25.2178 Y9.7278
G01 X25.1335 Y9.7677
G01 X25.0458 Y9.7991
G01 X24.9553 Y9.8217
G01 X24.8631 Y9.8354
G01 X24.7700 Y9.8400
G01 X24.6769 Y9.8354
G01 X24.5847 Y9.8217
G01 X24.4942 Y9.7991
G01 X24.4065 Y9.7677
G01 X24.3222 Y9.7278
G01 X24.2422 Y9.6799
G01 X24.1673 Y9.6244
G01 X24.0982 Y9.5618
G01 X24.0356 Y9.4927
G01 X23.9801 Y9.4178
G01 X23.9322 Y9.3378
G01 X23.8923 Y9.2535
G01 X23.8609 Y9.1658
G01 X23.8383 Y9.0753
G01 X23.8246 Y8.9831
G01 X23.8200 Y8.8900
G01 X23.8246 Y8.7969
G01 X23.8383 Y8.7047
G01 X23.8609 Y8.6142
G01 X23.8923 Y8.5265
G01 X23.9322 Y8.4422
G01 X23.9801 Y8.3622
G01 X24.0356 Y8.2873
G01 X24.0982 Y8.2182
G01 X24.1673 Y8.1556
G01 X24.2422 Y8.1001
G01 X24.3222 Y8.0522
G01 X24.4065 Y8.0123
G01 X24.4942 Y7.9809
G01 X24.5847 Y7.9583
G01 X24.6769 Y7.9446
G01 X24.7700 Y7.9400
G01 X24.8631 Y7.9446
G01 X24.9553 Y7.9583
G01 X25.0458 Y7.9809
G01 X25.1335 Y8.0123
G01 X25.2178 Y8.0522
G01 X25.2978 Y8.1001
G01 X25.3727 Y8.1556
G01 X25.4418 Y8.2182
G01 X25.5044 Y8.2873
G01 X25.5599 Y8.3622
G01 X25.6078 Y8.4422
G01 X25.6477 Y8.5265
G01 X25.6791 Y8.6142
G01 X25.7017 Y8.7047
G01 X25.7154 Y8.7969
G01 X25.7198 Y8.8802
G01 X25.7198 Y8.8998
G00 Z2.0000
G00 X22.1100 Y7.9400
G01 F80.00
G01 Z-0.2239
G01 F240.00
G01 X23.6198 Y7.9402
G01 X23.6296 Y7.9410
G01 X23.6442 Y7.9429
G01 X23.6633 Y7.9472
G01 X23.6820 Y7.9534
G01 X23.6999 Y7.9614
G01 X23.7170 Y7.9710
G01 X23.7330 Y7.9823
G01 X23.7479 Y7.9952
G01 X23.7614 Y8.0094
G01 X23.7706 Y8.0209
G01 X23.7815 Y8.0372
G01 X23.7908 Y8.0545
G01 X23.7966 Y8.0680
G01 X23.8014 Y8.0819
G01 X23.8062 Y8.1010
G01 X23.8090 Y8.1204
G01 X23.8099 Y8.1351
G01 X23.8100 Y9.6400
G01 X23.8090 Y9.6596
G01 X23.8062 Y9.6790
G01 X23.8028 Y9.6933
G01 X23.7999 Y9.7027
G01 X23.7928 Y9.7210
G01 X23.7864 Y9.7343
G01 X23.7815 Y9.7428
G01 X23.7706 Y9.7591
G01 X23.7614 Y9.7706
G01 X23.7548 Y9.7779
G01 X23.7406 Y9.7914
G01 X23.7252 Y9.8035
G01 X23.7128 Y9.8115
G01 X23.6999 Y9.8186
G01 X23.6820 Y9.8266
G01 X23.6681 Y9.8314
G01 X23.6490 Y9.8362
G01 X23.6296 Y9.8390
G01 X23.6149 Y9.8399
G01 X22.1100 Y9.8400
G01 X22.0953 Y9.8395
G01 X22.0855 Y9.8385
G01 X22.0662 Y9.8351
G01 X22.0473 Y9.8299
G01 X22.0335 Y9.8248
G01 X22.0245 Y9.8208
G01 X22.0072 Y9.8115
G01 X21.9948 Y9.8035
G01 X21.9870 Y9.7977
G01 X21.9721 Y9.7848
G01 X21.9586 Y9.7706
G01 X21.9494 Y9.7591
G01 X21.9385 Y9.7428
G01 X21.9314 Y9.7299
G01 X21.9234 Y9.7120
G01 X21.9172 Y9.6933
G01 X21.9138 Y9.6790
G01 X21.9115 Y9.6645
G01 X21.9101 Y9.6449
G01 X21.9100 Y8.1400
G01 X21.9105 Y8.1253
G01 X21.9122 Y8.1107
G01 X21.9160 Y8.0914
G01 X21.9217 Y8.0726
G01 X21.9292 Y8.0545
G01 X21.9385 Y8.0372
G01 X21.9465 Y8.0248
G01 X21.9586 Y8.0094
G01 X21.9721 Y7.9952
G01 X21.9870 Y7.9823
G01 X22.0030 Y7.9710
G01 X22.0201 Y7.9614
G01 X22.0380 Y7.9534
G01 X22.0567 Y7.9472
G01 X22.0758 Y7.9429
G01 X22.0953 Y7.9405
G01 X22.1100 Y7.9400
G00 Z2.0000
G00 X24.7614 Y28.1820
G01 F80.00
G01 Z-0.2239
G01 F240.00
G01 X24.7781 Y28.2096
G01 X24.7882 Y28.2251
G01 X24.8095 Y28.2556
G01 X24.8281 Y28.2804
G01 X24.8397 Y28.2949
G01 X24.8638 Y28.3231
G01 X24.8847 Y28.3460
G01 X24.8977 Y28.3593
G01 X24.9245 Y28.3850
G01 X24.9475 Y28.4058
G01 X24.9617 Y28.4178
G01 X24.9762 Y28.4294
G01 X24.9965 Y28.4449
G01 X24.9724 Y28.4851
G01 X24.9540 Y28.5175
G01 X24.9372 Y28.5509
G01 X24.9022 Y28.6249
G01 X24.8912 Y28.6022
G01 X24.8737 Y28.5693
G01 X24.8264 Y28.4901
G01 X24.8065 Y28.4586
G01 X24.7850 Y28.4281
G01 X24.7299 Y28.3541
G01 X24.7062 Y28.3253
G01 X24.6797 Y28.2957
G01 X24.7019 Y28.2684
G01 X24.7205 Y28.2436
G01 X24.7418 Y28.2132
G01 X24.7614 Y28.1820
G00 Z2.0000
G00 X25.0747 Y30.1893
G01 F80.00
G01 Z-0.2239
G01 F240.00
G01 X25.0625 Y30.1396
G01 X25.0550 Y30.0911
G01 X25.0531 Y30.0715
G01 X25.0510 Y30.0225
G01 X25.0531 Y29.9735
G01 X25.0550 Y29.9540
G01 X25.0625 Y29.9055
G01 X25.0754 Y29.8531
G01 X25.0799 Y29.8390
G01 X25.0966 Y29.7929
G01 X25.1197 Y29.7438
G01 X25.1298 Y29.6754
G01 X25.1325 Y29.6609
G01 X25.2052 Y29.3705
G01 X25.2109 Y29.3518
G01 X25.3136 Y29.0654
G01 X25.4456 Y28.7859
G01 X25.4527 Y28.7730
G01 X25.6093 Y28.5122
G01 X25.7964 Y28.2599
G01 X26.0073 Y28.0273
G01 X26.2362 Y27.8195
G01 X26.2477 Y27.8103
G01 X26.4922 Y27.6293
G01 X26.7615 Y27.4679
G01 X27.0454 Y27.3336
G01 X27.3411 Y27.2278
G01 X27.6457 Y27.1515
G01 X27.9563 Y27.1054
G01 X28.2651 Y27.0901
G01 X28.5916 Y27.0900
G01 X28.5855 Y27.0727
G01 X28.5827 Y27.0633
G01 X28.5772 Y27.0417
G01 X28.5753 Y27.0321
G01 X28.5721 Y27.0100
G01 X28.5711 Y27.0002
G01 X28.5702 Y26.9829
G01 X28.5699 Y26.9693
G01 X28.2661 Y26.8602
G01 X27.6351 Y26.9157
G01 X26.9890 Y27.1044
G01 X26.3921 Y27.4155
G01 X25.8674 Y27.8371
G01 X25.7745 Y27.9480
G01 X25.7560 Y27.9677
G01 X25.7358 Y27.9858
G01 X25.7282 Y27.9920
G01 X25.7143 Y28.0022
G01 X25.6979 Y28.0129
G01 X25.6830 Y28.0216
G01 X25.6743 Y28.0261
G01 X25.6542 Y28.0355
G01 X25.6451 Y28.0391
G01 X25.6241 Y28.0464
G01 X25.6148 Y28.0492
G01 X25.5932 Y28.0544
G01 X25.5788 Y28.0570
G01 X25.5616 Y28.0594
G01 X25.5470 Y28.0605
G01 X25.5248 Y28.0612
G01 X25.5027 Y28.0602
G01 X25.4881 Y28.0589
G01 X25.4661 Y28.0555
G01 X25.4566 Y28.0535
G01 X25.4351 Y28.0480
G01 X25.4211 Y28.0435
G01 X25.4003 Y28.0357
G01 X25.3715 Y28.0219
G01 X25.3442 Y28.0053
G01 X25.3263 Y27.9922
G01 X25.3148 Y27.9830
G01 X25.2985 Y27.9681
G01 X25.2916 Y27.9611
G01 X25.2767 Y27.9447
G01 X25.2676 Y27.9332
G01 X25.2546 Y27.9152
G01 X25.2430 Y27.8963
G01 X25.2360 Y27.8834
G01 X25.2286 Y27.8678
G01 X25.2228 Y27.8543
G01 X25.2154 Y27.8334
G01 X25.2125 Y27.8240
G01 X25.2072 Y27.8025
G01 X25.2045 Y27.7881
G01 X25.2015 Y27.7661
G01 X25.1999 Y27.7342
G01 X25.1999 Y12.8270
G01 X25.2011 Y12.7998
G01 X25.2027 Y12.7852
G01 X25.2053 Y12.7680
G01 X25.2072 Y12.7584
G01 X25.2140 Y12.7321
G01 X25.2230 Y12.7064
G01 X25.2288 Y12.6929
G01 X25.2386 Y12.6728
G01 X25.2524 Y12.6494
G01 X25.2607 Y12.6373
G01 X25.2742 Y12.6195
G01 X25.2890 Y12.6028
G01 X25.2992 Y12.5923
G01 X25.3195 Y12.5742
G01 X25.3373 Y12.5607
G01 X25.3494 Y12.5524
G01 X25.3685 Y12.5409
G01 X25.3816 Y12.5341
G01 X25.4018 Y12.5248
G01 X25.4227 Y12.5171
G01 X25.4368 Y12.5127
G01 X25.4632 Y12.5062
G01 X25.4852 Y12.5027
G01 X25.4998 Y12.5011
G01 X25.5221 Y12.5000
G01 X32.8199 Y12.4999
G01 X32.8200 Y1.3921
G01 X32.8211 Y1.3698
G01 X32.8227 Y1.3552
G01 X32.8262 Y1.3332
G01 X32.8327 Y1.3068
G01 X32.8371 Y1.2927
G01 X32.8448 Y1.2718
G01 X32.8541 Y1.2516
G01 X32.8609 Y1.2385
G01 X32.8724 Y1.2194
G01 X32.8807 Y1.2073
G01 X32.8942 Y1.1895
G01 X32.9123 Y1.1692
G01 X32.9228 Y1.1590
G01 X32.9395 Y1.1442
G01 X32.9573 Y1.1307
G01 X32.9694 Y1.1224
G01 X32.9928 Y1.1086
G01 X33.0129 Y1.0988
G01 X33.0264 Y1.0930
G01 X33.0521 Y1.0840
G01 X33.0784 Y1.0772
G01 X33.0880 Y1.0753
G01 X33.1052 Y1.0727
G01 X33.1198 Y1.0711
G01 X33.1470 Y1.0699
G01 X43.0530 Y1.0699
G01 X43.0802 Y1.0711
G01 X43.0948 Y1.0727
G01 X43.1120 Y1.0753
G01 X43.1216 Y1.0772
G01 X43.1479 Y1.0840
G01 X43.1736 Y1.0930
G01 X43.1871 Y1.0988
G01 X43.2072 Y1.1086
G01 X43.2306 Y1.1224
G01 X43.2427 Y1.1307
G01 X43.2605 Y1.1442
G01 X43.2772 Y1.1590
G01 X43.2877 Y1.1692
G01 X43.3027 Y1.1858
G01 X43.3119 Y1.1973
G01 X43.3249 Y1.2153
G01 X43.3391 Y1.2385
G01 X43.3459 Y1.2516
G01 X43.3552 Y1.2718
G01 X43.3629 Y1.2927
G01 X43.3673 Y1.3068
G01 X43.3738 Y1.3332
G01 X43.3773 Y1.3552
G01 X43.3789 Y1.3698
G01 X43.3800 Y1.3921
G01 X43.3801 Y7.4199
G01 X49.4128 Y7.4202
G01 X49.4302 Y7.4211
G01 X49.4399 Y7.4221
G01 X49.4620 Y7.4253
G01 X49.4716 Y7.4272
G01 X49.4979 Y7.4340
G01 X49.5282 Y7.4448
G01 X49.5572 Y7.4586
G01 X49.5806 Y7.4724
G01 X49.5888 Y7.4778
G01 X49.6067 Y7.4911
G01 X49.6142 Y7.4973
G01 X49.6272 Y7.5090
G01 X49.6377 Y7.5192
G01 X49.6494 Y7.5321
G01 X49.6619 Y7.5473
G01 X49.6722 Y7.5612
G01 X49.6776 Y7.5694
G01 X49.6891 Y7.5885
G01 X49.6937 Y7.5972
G01 X49.7052 Y7.6218
G01 X49.7160 Y7.6521
G01 X49.7238 Y7.6832
G01 X49.7279 Y7.7101
G01 X49.7292 Y7.7247
G01 X49.7301 Y7.7470
G01 X49.7301 Y50.6730
G01 X49.7285 Y50.7051
G01 X49.7238 Y50.7368
G01 X49.7160 Y50.7679
G01 X49.7052 Y50.7982
G01 X49.6914 Y50.8272
G01 X49.6749 Y50.8547
G01 X49.6558 Y50.8805
G01 X49.6377 Y50.9008
G01 X49.6308 Y50.9077
G01 X49.6142 Y50.9227
G01 X49.6067 Y50.9289
G01 X49.5888 Y50.9422
G01 X49.5806 Y50.9476
G01 X49.5615 Y50.9591
G01 X49.5528 Y50.9637
G01 X49.5371 Y50.9712
G01 X49.5190 Y50.9787
G01 X49.5026 Y50.9845
G01 X49.4885 Y50.9886
G01 X49.4716 Y50.9928
G01 X49.4620 Y50.9947
G01 X49.4399 Y50.9979
G01 X49.4253 Y50.9992
G01 X49.4030 Y51.0001
G01 X43.3801 Y51.0001
G01 X43.3800 Y58.2979
G01 X43.3789 Y58.3202
G01 X43.3773 Y58.3348
G01 X43.3738 Y58.3568
G01 X43.3673 Y58.3832
G01 X43.3629 Y58.3973
G01 X43.3552 Y58.4182
G01 X43.3459 Y58.4384
G01 X43.3391 Y58.4515
G01 X43.3276 Y58.4706
G01 X43.3193 Y58.4827
G01 X43.3058 Y58.5005
G01 X43.2877 Y58.5208
G01 X43.2772 Y58.5310
G01 X43.2605 Y58.5458
G01 X43.2427 Y58.5593
G01 X43.2306 Y58.5676
G01 X43.2072 Y58.5814
G01 X43.1871 Y58.5912
G01 X43.1736 Y58.5970
G01 X43.1479 Y58.6060
G01 X43.1216 Y58.6128
G01 X43.1120 Y58.6147
G01 X43.0948 Y58.6173
G01 X43.0802 Y58.6189
G01 X43.0530 Y58.6201
G01 X25.5270 Y58.6201
G01 X25.5047 Y58.6192
G01 X25.4901 Y58.6179
G01 X25.4680 Y58.6147
G01 X25.4536 Y58.6116
G01 X25.4321 Y58.6060
G01 X25.4064 Y58.5970
G01 X25.3929 Y58.5912
G01 X25.3728 Y58.5814
G01 X25.3536 Y58.5702
G01 X25.3412 Y58.5622
G01 X25.3195 Y58.5458
G01 X25.3028 Y58.5310
G01 X25.2923 Y58.5208
G01 X25.2742 Y58.5005
G01 X25.2607 Y58.4827
G01 X25.2524 Y58.4706
G01 X25.2386 Y58.4472
G01 X25.2288 Y58.4271
G01 X25.2230 Y58.4136
G01 X25.2140 Y58.3879
G01 X25.2072 Y58.3616
G01 X25.2053 Y58.3520
G01 X25.2027 Y58.3348
G01 X25.2011 Y58.3202
G01 X25.1999 Y58.2930
G01 X25.1999 Y32.8458
G01 X25.2015 Y32.8139
G01 X25.2062 Y32.7823
G01 X25.2139 Y32.7513
G01 X25.2211 Y32.7303
G01 X25.2265 Y32.7167
G01 X25.2360 Y32.6966
G01 X25.2406 Y32.6880
G01 X25.2520 Y32.6689
G01 X25.2602 Y32.6568
G01 X25.2736 Y32.6391
G01 X25.2882 Y32.6224
G01 X25.2985 Y32.6119
G01 X25.3148 Y32.5970
G01 X25.3263 Y32.5878
G01 X25.3442 Y32.5747
G01 X25.3715 Y32.5581
G01 X25.4003 Y32.5443
G01 X25.4211 Y32.5365
G01 X25.4351 Y32.5320
G01 X25.4566 Y32.5265
G01 X25.4661 Y32.5245
G01 X25.4881 Y32.5211
G01 X25.5027 Y32.5198
G01 X25.5248 Y32.5188
G01 X25.5470 Y32.5195
G01 X25.5616 Y32.5206
G01 X25.5788 Y32.5230
G01 X25.5932 Y32.5256
G01 X25.6148 Y32.5308
G01 X25.6241 Y32.5336
G01 X25.6451 Y32.5409
G01 X25.6542 Y32.5445
G01 X25.6743 Y32.5539
G01 X25.6830 Y32.5584
G01 X25.6979 Y32.5671
G01 X25.7143 Y32.5778
G01 X25.7282 Y32.5880
G01 X25.7358 Y32.5942
G01 X25.7560 Y32.6123
G01 X25.7745 Y32.6320
G01 X25.8674 Y32.7429
G01 X26.3921 Y33.1645
G01 X26.9890 Y33.4756
G01 X27.6351 Y33.6643
G01 X28.2661 Y33.7198
G01 X28.5699 Y33.6107
G01 X28.5702 Y33.5971
G01 X28.5711 Y33.5798
G01 X28.5721 Y33.5700
G01 X28.5753 Y33.5479
G01 X28.5772 Y33.5383
G01 X28.5827 Y33.5167
G01 X28.5855 Y33.5073
G01 X28.5916 Y33.4900
G01 X28.2651 Y33.4899
G01 X27.9612 Y33.4750
G01 X27.9466 Y33.4734
G01 X27.6554 Y33.4302
G01 X27.6361 Y33.4264
G01 X27.3411 Y33.3522
G01 X27.0546 Y33.2499
G01 X27.0364 Y33.2424
G01 X26.7615 Y33.1121
G01 X26.4922 Y32.9507
G01 X26.2399 Y32.7636
G01 X26.0108 Y32.5562
G01 X26.0005 Y32.5456
G01 X25.7964 Y32.3201
G01 X25.6093 Y32.0678
G01 X25.4479 Y31.7985
G01 X25.3176 Y31.5236
G01 X25.3118 Y31.5100
G01 X25.2078 Y31.2189
G01 X25.1325 Y30.9191
G01 X25.1298 Y30.9046
G01 X25.1197 Y30.8362
G01 X25.0966 Y30.7871
G01 X25.0799 Y30.7410
G01 X25.0742 Y30.7222
G01 X25.0646 Y30.6841
G01 X25.0616 Y30.6697
G01 X25.0538 Y30.6163
G01 X25.0512 Y30.5673
G01 X25.0510 Y30.5526
G01 X25.0534 Y30.5036
G01 X25.0550 Y30.4889
G01 X25.0625 Y30.4404
G01 X25.0747 Y30.3907
G01 X25.0700 Y30.2900
G01 X25.0747 Y30.1893
G00 Z2.0000
G00 X24.7930 Y30.2171
G01 F80.00
G01 Z-0.2239
G01 F240.00
G01 X24.7879 Y30.1942
G01 X24.7857 Y30.1826
G01 X24.7765 Y30.1205
G01 X24.7742 Y30.0970
G01 X24.7711 Y30.0343
G01 X24.7711 Y30.0107
G01 X24.7742 Y29.9480
G01 X24.7765 Y29.9246
G01 X24.7838 Y29.8741
G01 X24.7879 Y29.8508
G01 X24.7903 Y29.8393
G01 X24.8026 Y29.7898
G01 X24.8088 Y29.7671
G01 X24.8162 Y29.7447
G01 X24.8336 Y29.6967
G01 X24.8426 Y29.6749
G01 X24.8488 Y29.6614
G01 X24.8547 Y29.6227
G01 X24.8569 Y29.6111
G01 X24.8620 Y29.5881
G01 X24.9336 Y29.3025
G01 X24.9398 Y29.2798
G01 X24.9434 Y29.2686
G01 X25.0464 Y28.9802
G01 X25.0549 Y28.9583
G01 X25.0644 Y28.9367
G01 X25.1903 Y28.6706
G01 X25.2009 Y28.6495
G01 X25.2125 Y28.6290
G01 X25.3639 Y28.3765
G01 X25.3765 Y28.3566
G01 X25.3976 Y28.3272
G01 X25.3702 Y28.3205
G01 X25.3477 Y28.3141
G01 X25.3254 Y28.3066
G01 X25.3028 Y28.2983
G01 X25.2811 Y28.2892
G01 X25.2488 Y28.2737
G01 X25.2281 Y28.2625
G01 X25.2074 Y28.2501
G01 X25.1876 Y28.2375
G01 X25.1685 Y28.2239
G01 X25.1493 Y28.2093
G01 X25.1312 Y28.1944
G01 X25.1133 Y28.1782
G01 X25.0963 Y28.1620
G01 X25.0719 Y28.1357
G01 X25.0566 Y28.1179
G01 X25.0422 Y28.0994
G01 X25.0214 Y28.0702
G01 X25.0089 Y28.0503
G01 X24.9967 Y28.0295
G01 X24.9856 Y28.0088
G01 X24.9752 Y27.9870
G01 X24.9658 Y27.9655
G01 X24.9574 Y27.9436
G01 X24.9494 Y27.9208
G01 X24.9426 Y27.8984
G01 X24.9366 Y27.8750
G01 X24.9315 Y27.8521
G01 X24.9275 Y27.8290
G01 X24.9228 Y27.7934
G01 X24.9211 Y27.7700
G01 X24.9201 Y27.7459
G01 X24.9199 Y12.8270
G01 X24.9205 Y12.8034
G01 X24.9218 Y12.7792
G01 X24.9242 Y12.7558
G01 X24.9257 Y12.7441
G01 X24.9294 Y12.7201
G01 X24.9340 Y12.6970
G01 X24.9398 Y12.6735
G01 X24.9461 Y12.6508
G01 X24.9535 Y12.6284
G01 X24.9618 Y12.6056
G01 X24.9708 Y12.5839
G01 X24.9757 Y12.5731
G01 X24.9916 Y12.5408
G01 X25.0032 Y12.5203
G01 X25.0158 Y12.4996
G01 X25.0289 Y12.4800
G01 X25.0358 Y12.4705
G01 X25.0577 Y12.4419
G01 X25.0815 Y12.4148
G01 X25.0977 Y12.3977
G01 X25.1062 Y12.3895
G01 X25.1240 Y12.3731
G01 X25.1419 Y12.3577
G01 X25.1705 Y12.3358
G01 X25.1897 Y12.3222
G01 X25.1996 Y12.3158
G01 X25.2305 Y12.2973
G01 X25.2408 Y12.2916
G01 X25.2619 Y12.2810
G01 X25.2947 Y12.2661
G01 X25.3284 Y12.2535
G01 X25.3395 Y12.2496
G01 X25.3621 Y12.2428
G01 X25.3970 Y12.2340
G01 X25.4201 Y12.2294
G01 X25.4318 Y12.2276
G01 X25.4675 Y12.2229
G01 X25.5034 Y12.2205
G01 X25.5270 Y12.2199
G01 X32.5399 Y12.2199
G01 X32.5401 Y1.3852
G01 X32.5418 Y1.3492
G01 X32.5442 Y1.3258
G01 X32.5457 Y1.3141
G01 X32.5516 Y1.2786
G01 X32.5568 Y1.2556
G01 X32.5628 Y1.2321
G01 X32.5661 Y1.2208
G01 X32.5735 Y1.1984
G01 X32.5861 Y1.1647
G01 X32.6010 Y1.1319
G01 X32.6062 Y1.1213
G01 X32.6173 Y1.1005
G01 X32.6296 Y1.0796
G01 X32.6422 Y1.0597
G01 X32.6632 Y1.0305
G01 X32.6704 Y1.0211
G01 X32.6853 Y1.0029
G01 X32.7095 Y0.9762
G01 X32.7177 Y0.9677
G01 X32.7348 Y0.9515
G01 X32.7619 Y0.9277
G01 X32.7905 Y0.9058
G01 X32.8097 Y0.8922
G01 X32.8196 Y0.8858
G01 X32.8403 Y0.8732
G01 X32.8608 Y0.8616
G01 X32.8931 Y0.8457
G01 X32.9039 Y0.8408
G01 X32.9256 Y0.8318
G01 X32.9484 Y0.8235
G01 X32.9708 Y0.8161
G01 X32.9935 Y0.8098
G01 X33.0170 Y0.8040
G01 X33.0401 Y0.7994
G01 X33.0641 Y0.7957
G01 X33.0758 Y0.7942
G01 X33.0992 Y0.7918
G01 X33.1234 Y0.7905
G01 X33.1470 Y0.7899
G01 X43.0530 Y0.7899
G01 X43.0766 Y0.7905
G01 X43.1008 Y0.7918
G01 X43.1125 Y0.7929
G01 X43.1359 Y0.7957
G01 X43.1599 Y0.7994
G01 X43.1830 Y0.8040
G01 X43.2065 Y0.8098
G01 X43.2292 Y0.8161
G01 X43.2516 Y0.8235
G01 X43.2744 Y0.8318
G01 X43.2853 Y0.8361
G01 X43.3069 Y0.8457
G01 X43.3392 Y0.8616
G01 X43.3597 Y0.8732
G01 X43.3804 Y0.8858
G01 X43.4000 Y0.8989
G01 X43.4095 Y0.9058
G01 X43.4381 Y0.9277
G01 X43.4652 Y0.9515
G01 X43.4738 Y0.9595
G01 X43.4905 Y0.9762
G01 X43.5147 Y1.0029
G01 X43.5296 Y1.0211
G01 X43.5368 Y1.0305
G01 X43.5578 Y1.0597
G01 X43.5704 Y1.0796
G01 X43.5827 Y1.1005
G01 X43.5938 Y1.1213
G01 X43.5990 Y1.1319
G01 X43.6139 Y1.1647
G01 X43.6265 Y1.1984
G01 X43.6339 Y1.2208
G01 X43.6372 Y1.2321
G01 X43.6460 Y1.2670
G01 X43.6484 Y1.2786
G01 X43.6524 Y1.3018
G01 X43.6571 Y1.3375
G01 X43.6595 Y1.3734
G01 X43.6601 Y1.3970
G01 X43.6601 Y7.1399
G01 X49.4030 Y7.1399
G01 X49.4266 Y7.1405
G01 X49.4508 Y7.1418
G01 X49.4742 Y7.1442
G01 X49.5099 Y7.1494
G01 X49.5330 Y7.1540
G01 X49.5565 Y7.1598
G01 X49.5792 Y7.1661
G01 X49.6016 Y7.1735
G01 X49.6244 Y7.1818
G01 X49.6461 Y7.1908
G01 X49.6681 Y7.2010
G01 X49.6892 Y7.2116
G01 X49.7097 Y7.2232
G01 X49.7403 Y7.2422
G01 X49.7695 Y7.2632
G01 X49.7881 Y7.2777
G01 X49.8060 Y7.2931
G01 X49.8238 Y7.3095
G01 X49.8405 Y7.3262
G01 X49.8569 Y7.3440
G01 X49.8723 Y7.3619
G01 X49.8868 Y7.3805
G01 X49.9011 Y7.4000
G01 X49.9142 Y7.4196
G01 X49.9327 Y7.4505
G01 X49.9438 Y7.4713
G01 X49.9543 Y7.4931
G01 X49.9639 Y7.5147
G01 X49.9765 Y7.5484
G01 X49.9839 Y7.5708
G01 X49.9902 Y7.5935
G01 X49.9984 Y7.6286
G01 X50.0024 Y7.6518
G01 X50.0058 Y7.6758
G01 X50.0082 Y7.6992
G01 X50.0089 Y7.7110
G01 X50.0101 Y7.7470
G01 X50.0101 Y50.6730
G01 X50.0095 Y50.6966
G01 X50.0071 Y50.7325
G01 X50.0024 Y50.7682
G01 X49.9984 Y50.7914
G01 X49.9932 Y50.8144
G01 X49.9839 Y50.8492
G01 X49.9765 Y50.8716
G01 X49.9682 Y50.8944
G01 X49.9592 Y50.9161
G01 X49.9438 Y50.9487
G01 X49.9327 Y50.9695
G01 X49.9204 Y50.9904
G01 X49.9078 Y51.0103
G01 X49.8868 Y51.0395
G01 X49.8723 Y51.0581
G01 X49.8569 Y51.0760
G01 X49.8405 Y51.0938
G01 X49.8238 Y51.1105
G01 X49.7971 Y51.1347
G01 X49.7789 Y51.1496
G01 X49.7500 Y51.1711
G01 X49.7304 Y51.1842
G01 X49.6995 Y51.2027
G01 X49.6787 Y51.2138
G01 X49.6569 Y51.2243
G01 X49.6353 Y51.2339
G01 X49.6133 Y51.2423
G01 X49.5792 Y51.2539
G01 X49.5444 Y51.2632
G01 X49.5214 Y51.2684
G01 X49.4982 Y51.2724
G01 X49.4625 Y51.2771
G01 X49.4266 Y51.2795
G01 X49.4030 Y51.2801
G01 X43.6601 Y51.2801
G01 X43.6601 Y58.2930
G01 X43.6595 Y58.3166
G01 X43.6571 Y58.3525
G01 X43.6524 Y58.3882
G01 X43.6484 Y58.4114
G01 X43.6460 Y58.4230
G01 X43.6372 Y58.4579
G01 X43.6304 Y58.4805
G01 X43.6265 Y58.4916
G01 X43.6139 Y58.5253
G01 X43.5990 Y58.5581
G01 X43.5884 Y58.5792
G01 X43.5827 Y58.5895
G01 X43.5704 Y58.6104
G01 X43.5578 Y58.6303
G01 X43.5368 Y58.6595
G01 X43.5296 Y58.6689
G01 X43.5147 Y58.6871
G01 X43.4905 Y58.7138
G01 X43.4823 Y58.7223
G01 X43.4652 Y58.7385
G01 X43.4381 Y58.7623
G01 X43.4095 Y58.7842
G01 X43.3903 Y58.7978
G01 X43.3804 Y58.8042
G01 X43.3597 Y58.8168
G01 X43.3392 Y58.8284
G01 X43.3069 Y58.8443
G01 X43.2853 Y58.8539
G01 X43.2744 Y58.8582
G01 X43.2516 Y58.8665
G01 X43.2292 Y58.8739
G01 X43.2065 Y58.8802
G01 X43.1830 Y58.8860
G01 X43.1599 Y58.8906
G01 X43.1359 Y58.8943
G01 X43.1242 Y58.8958
G01 X43.1008 Y58.8982
G01 X43.0766 Y58.8995
G01 X43.0530 Y58.9001
G01 X25.5270 Y58.9001
G01 X25.4910 Y58.8989
G01 X25.4675 Y58.8971
G01 X25.4558 Y58.8958
G01 X25.4201 Y58.8906
G01 X25.4086 Y58.8884
G01 X25.3856 Y58.8832
G01 X25.3508 Y58.8739
G01 X25.3284 Y58.8665
G01 X25.3056 Y58.8582
G01 X25.2839 Y58.8492
G01 X25.2731 Y58.8443
G01 X25.2408 Y58.8284
G01 X25.2096 Y58.8104
G01 X25.1897 Y58.7978
G01 X25.1800 Y58.7911
G01 X25.1605 Y58.7768
G01 X25.1419 Y58.7623
G01 X25.1148 Y58.7385
G01 X25.0977 Y58.7223
G01 X25.0895 Y58.7138
G01 X25.0731 Y58.6960
G01 X25.0577 Y58.6781
G01 X25.0358 Y58.6495
G01 X25.0222 Y58.6303
G01 X25.0158 Y58.6204
G01 X25.0032 Y58.5997
G01 X24.9916 Y58.5792
G01 X24.9757 Y58.5469
G01 X24.9708 Y58.5361
G01 X24.9618 Y58.5144
G01 X24.9535 Y58.4916
G01 X24.9461 Y58.4692
G01 X24.9398 Y58.4465
G01 X24.9340 Y58.4230
G01 X24.9294 Y58.3999
G01 X24.9257 Y58.3759
G01 X24.9229 Y58.3525
G01 X24.9218 Y58.3408
G01 X24.9205 Y58.3166
G01 X24.9199 Y58.2930
G01 X24.9201 Y32.8341
G01 X24.9211 Y32.8100
G01 X24.9228 Y32.7866
G01 X24.9275 Y32.7510
G01 X24.9315 Y32.7279
G01 X24.9366 Y32.7050
G01 X24.9426 Y32.6816
G01 X24.9494 Y32.6592
G01 X24.9574 Y32.6364
G01 X24.9658 Y32.6145
G01 X24.9752 Y32.5930
G01 X24.9856 Y32.5712
G01 X24.9967 Y32.5505
G01 X25.0089 Y32.5297
G01 X25.0214 Y32.5098
G01 X25.0349 Y32.4906
G01 X25.0566 Y32.4621
G01 X25.0802 Y32.4351
G01 X25.0963 Y32.4180
G01 X25.1133 Y32.4018
G01 X25.1312 Y32.3856
G01 X25.1493 Y32.3707
G01 X25.1685 Y32.3561
G01 X25.1876 Y32.3425
G01 X25.2074 Y32.3299
G01 X25.2281 Y32.3175
G01 X25.2488 Y32.3063
G01 X25.2811 Y32.2908
G01 X25.3028 Y32.2817
G01 X25.3254 Y32.2734
G01 X25.3477 Y32.2659
G01 X25.3702 Y32.2595
G01 X25.3976 Y32.2528
G01 X25.3765 Y32.2234
G01 X25.3639 Y32.2035
G01 X25.2125 Y31.9510
G01 X25.2009 Y31.9305
G01 X25.1903 Y31.9094
G01 X25.0644 Y31.6433
G01 X25.0549 Y31.6217
G01 X25.0464 Y31.5998
G01 X24.9472 Y31.3226
G01 X24.9398 Y31.3002
G01 X24.9336 Y31.2775
G01 X24.8620 Y30.9919
G01 X24.8569 Y30.9689
G01 X24.8547 Y30.9573
G01 X24.8488 Y30.9186
G01 X24.8379 Y30.8942
G01 X24.8295 Y30.8723
G01 X24.8124 Y30.8242
G01 X24.8088 Y30.8129
G01 X24.8026 Y30.7902
G01 X24.7930 Y30.7521
G01 X24.7879 Y30.7292
G01 X24.7838 Y30.7059
G01 X24.7765 Y30.6554
G01 X24.7742 Y30.6320
G01 X24.7715 Y30.5810
G01 X24.7710 Y30.5575
G01 X24.7715 Y30.5339
G01 X24.7742 Y30.4830
G01 X24.7765 Y30.4595
G01 X24.7857 Y30.3974
G01 X24.7879 Y30.3858
G01 X24.7930 Y30.3629
G01 X24.7906 Y30.3136
G01 X24.7900 Y30.2900
G01 X24.7906 Y30.2664
G01 X24.7930 Y30.2171
G00 Z2.0000
G00 X24.9022 Y31.9551
G01 F80.00
G01 Z-0.2239
G01 F240.00
G01 X24.9372 Y32.0291
G01 X24.9540 Y32.0625
G01 X24.9724 Y32.0949
G01 X24.9965 Y32.1351
G01 X24.9762 Y32.1506
G01 X24.9617 Y32.1622
G01 X24.9475 Y32.1742
G01 X24.9245 Y32.1950
G01 X24.8977 Y32.2207
G01 X24.8847 Y32.2340
G01 X24.8638 Y32.2569
G01 X24.8397 Y32.2851
G01 X24.8281 Y32.2996
G01 X24.8095 Y32.3244
G01 X24.7882 Y32.3549
G01 X24.7781 Y32.3704
G01 X24.7614 Y32.3980
G01 X24.7418 Y32.3668
G01 X24.7205 Y32.3364
G01 X24.7019 Y32.3116
G01 X24.6797 Y32.2843
G01 X24.7062 Y32.2547
G01 X24.7299 Y32.2259
G01 X24.7850 Y32.1519
G01 X24.8065 Y32.1214
G01 X24.8264 Y32.0899
G01 X24.8737 Y32.0107
G01 X24.8912 Y31.9778
G01 X24.9022 Y31.9551
G00 Z2.0000
G00 X27.7571 Y34.9399
G01 F80.00
G01 Z-0.2239
G01 F240.00
G01 X27.6602 Y34.8431
G01 X27.8477 Y34.8149
G01 X28.2489 Y34.8340
G01 X28.1429 Y34.9399
G01 X28.1264 Y34.9384
G01 X27.9500 Y34.9300
G01 X27.7736 Y34.9384
G01 X27.7571 Y34.9399
G00 Z2.0000
G00 X25.9540 Y36.5311
G01 F80.00
G01 Z-0.2239
G01 F240.00
G01 X26.0599 Y36.6371
G01 X26.0584 Y36.6536
G01 X26.0500 Y36.8300
G01 X26.0584 Y37.0064
G01 X26.0599 Y37.0229
G01 X25.9631 Y37.1198
G01 X25.9349 Y36.9323
G01 X25.9540 Y36.5311
G00 Z2.0000
G00 X27.6511 Y38.8260
G01 F80.00
G01 Z-0.2239
G01 F240.00
G01 X27.7571 Y38.7201
G01 X27.7736 Y38.7216
G01 X27.9500 Y38.7300
G01 X28.1264 Y38.7216
G01 X28.1429 Y38.7201
G01 X28.2398 Y38.8169
G01 X28.0523 Y38.8451
G01 X27.6511 Y38.8260
G00 Z2.0000
G00 X29.8183 Y36.4901
G01 F80.00
G01 Z-0.2239
G01 F240.00
G01 X29.8500 Y36.4917
G01 X29.8817 Y36.4901
G01 X29.8591 Y36.6438
G01 X29.8500 Y36.8300
G01 X29.8591 Y37.0162
G01 X29.8817 Y37.1699
G01 X29.8500 Y37.1683
G01 X29.8183 Y37.1699
G01 X29.8409 Y37.0162
G01 X29.8500 Y36.8300
G01 X29.8409 Y36.6438
G01 X29.8183 Y36.4901
G00 Z2.0000
G00 X31.5571 Y34.9399
G01 F80.00
G01 Z-0.2239
G01 F240.00
G01 X31.4602 Y34.8431
G01 X31.6477 Y34.8149
G01 X32.0489 Y34.8340
G01 X31.9429 Y34.9399
G01 X31.9264 Y34.9384
G01 X31.7500 Y34.9300
G01 X31.5736 Y34.9384
G01 X31.5571 Y34.9399
G00 Z2.0000
G00 X30.9484 Y33.4900
G01 F80.00
G01 Z-0.2239
G01 F240.00
G01 X31.2749 Y33.4899
G01 X31.5788 Y33.4750
G01 X31.5934 Y33.4734
G01 X31.8943 Y33.4285
G01 X32.1989 Y33.3522
G01 X32.4946 Y33.2464
G01 X32.7785 Y33.1121
G01 X32.9806 Y32.9913
G01 X33.3634 Y32.9913
G01 X33.1479 Y33.1645
G01 X32.5510 Y33.4756
G01 X31.9049 Y33.6643
G01 X31.2739 Y33.7198
G01 X30.9701 Y33.6107
G01 X30.9698 Y33.5971
G01 X30.9689 Y33.5798
G01 X30.9679 Y33.5700
G01 X30.9647 Y33.5479
G01 X30.9628 Y33.5383
G01 X30.9573 Y33.5167
G01 X30.9545 Y33.5073
G01 X30.9484 Y33.4900
G00 Z2.0000
G00 X33.6401 Y37.0229
G01 F80.00
G01 Z-0.2239
G01 F240.00
G01 X33.6416 Y37.0064
G01 X33.6500 Y36.8300
G01 X33.6416 Y36.6536
G01 X33.6401 Y36.6371
G01 X33.7369 Y36.5402
G01 X33.7651 Y36.7277
G01 X33.7460 Y37.1289
G01 X33.6401 Y37.0229
G00 Z2.0000
G00 X31.4511 Y38.8260
G01 F80.00
G01 Z-0.2239
G01 F240.00
G01 X31.5571 Y38.7201
G01 X31.5736 Y38.7216
G01 X31.7500 Y38.7300
G01 X31.9264 Y38.7216
G01 X31.9429 Y38.7201
G01 X32.0398 Y38.8169
G01 X31.8523 Y38.8451
G01 X31.4511 Y38.8260
G00 Z2.0000
G00 X31.5571 Y47.4399
G01 F80.00
G01 Z-0.2239
G01 F240.00
G01 X31.4602 Y47.3431
G01 X31.6477 Y47.3149
G01 X32.0489 Y47.3340
G01 X31.9429 Y47.4399
G01 X31.9264 Y47.4384
G01 X31.7500 Y47.4300
G01 X31.5736 Y47.4384
G01 X31.5571 Y47.4399
G00 Z2.0000
G00 X29.8183 Y48.9901
G01 F80.00
G01 Z-0.2239
G01 F240.00
G01 X29.8500 Y48.9917
G01 X29.8817 Y48.9901
G01 X29.8591 Y49.1438
G01 X29.8500 Y49.3300
G01 X29.8591 Y49.5162
G01 X29.8817 Y49.6699
G01 X29.8500 Y49.6683
G01 X29.8183 Y49.6699
G01 X29.8409 Y49.5162
G01 X29.8500 Y49.3300
G01 X29.8409 Y49.1438
G01 X29.8183 Y48.9901
G00 Z2.0000
G00 X27.7571 Y47.4399
G01 F80.00
G01 Z-0.2239
G01 F240.00
G01 X27.6602 Y47.3431
G01 X27.8477 Y47.3149
G01 X28.2489 Y47.3340
G01 X28.1429 Y47.4399
G01 X28.1264 Y47.4384
G01 X27.9500 Y47.4300
G01 X27.7736 Y47.4384
G01 X27.7571 Y47.4399
G00 Z2.0000
G00 X25.9540 Y49.0311
G01 F80.00
G01 Z-0.2239
G01 F240.00
G01 X26.0599 Y49.1371
G01 X26.0584 Y49.1536
G01 X26.0500 Y49.3300
G01 X26.0584 Y49.5064
G01 X26.0599 Y49.5229
G01 X25.9631 Y49.6198
G01 X25.9349 Y49.4323
G01 X25.9540 Y49.0311
G00 Z2.0000
G00 X27.6511 Y51.3260
G01 F80.00
G01 Z-0.2239
G01 F240.00
G01 X27.7571 Y51.2201
G01 X27.7736 Y51.2216
G01 X27.9500 Y51.2300
G01 X28.1264 Y51.2216
G01 X28.1429 Y51.2201
G01 X28.2398 Y51.3169
G01 X28.0523 Y51.3451
G01 X27.6511 Y51.3260
G00 Z2.0000
G00 X31.4511 Y51.3260
G01 F80.00
G01 Z-0.2239
G01 F240.00
G01 X31.5571 Y51.2201
G01 X31.5736 Y51.2216
G01 X31.7500 Y51.2300
G01 X31.9264 Y51.2216
G01 X31.9429 Y51.2201
G01 X32.0398 Y51.3169
G01 X31.8523 Y51.3451
G01 X31.4511 Y51.3260
G00 Z2.0000
G00 X33.6401 Y49.5229
G01 F80.00
G01 Z-0.2239
G01 F240.00
G01 X33.6416 Y49.5064
G01 X33.6500 Y49.3300
G01 X33.6416 Y49.1536
G01 X33.6401 Y49.1371
G01 X33.7369 Y49.0402
G01 X33.7651 Y49.2277
G01 X33.7460 Y49.6289
G01 X33.6401 Y49.5229
G00 Z2.0000
G00 X21.5571 Y47.4399
G01 F80.00
G01 Z-0.2239
G01 F240.00
G01 X21.4602 Y47.3431
G01 X21.6477 Y47.3149
G01 X22.0489 Y47.3340
G01 X21.9429 Y47.4399
G01 X21.9264 Y47.4384
G01 X21.7500 Y47.4300
G01 X21.5736 Y47.4384
G01 X21.5571 Y47.4399
G00 Z2.0000
G00 X19.8183 Y48.9901
G01 F80.00
G01 Z-0.2239
G01 F240.00
G01 X19.8500 Y48.9917
G01 X19.8817 Y48.9901
G01 X19.8591 Y49.1438
G01 X19.8500 Y49.3300
G01 X19.8591 Y49.5162
G01 X19.8817 Y49.6699
G01 X19.8500 Y49.6683
G01 X19.8183 Y49.6699
G01 X19.8409 Y49.5162
G01 X19.8500 Y49.3300
G01 X19.8409 Y49.1438
G01 X19.8183 Y48.9901
G00 Z2.0000
G00 X17.7571 Y47.4399
G01 F80.00
G01 Z-0.2239
G01 F240.00
G01 X17.6602 Y47.3431
G01 X17.8477 Y47.3149
G01 X18.2489 Y47.3340
G01 X18.1429 Y47.4399
G01 X18.1264 Y47.4384
G01 X17.9500 Y47.4300
G01 X17.7736 Y47.4384
G01 X17.7571 Y47.4399
G00 Z2.0000
G00 X15.9540 Y49.0311
G01 F80.00
G01 Z-0.2239
G01 F240.00
G01 X16.0599 Y49.1371
G01 X16.0584 Y49.1536
G01 X16.0500 Y49.3300
G01 X16.0584 Y49.5064
G01 X16.0599 Y49.5229
G01 X15.9631 Y49.6198
G01 X15.9349 Y49.4323
G01 X15.9540 Y49.0311
G00 Z2.0000
G00 X17.6511 Y51.3260
G01 F80.00
G01 Z-0.2239
G01 F240.00
G01 X17.7571 Y51.2201
G01 X17.7736 Y51.2216
G01 X17.9500 Y51.2300
G01 X18.1264 Y51.2216
G01 X18.1429 Y51.2201
G01 X18.2398 Y51.3169
G01 X18.0523 Y51.3451
G01 X17.6511 Y51.3260
G00 Z2.0000
G00 X21.4511 Y51.3260
G01 F80.00
G01 Z-0.2239
G01 F240.00
G01 X21.5571 Y51.2201
G01 X21.5736 Y51.2216
G01 X21.7500 Y51.2300
G01 X21.9264 Y51.2216
G01 X21.9429 Y51.2201
G01 X22.0398 Y51.3169
G01 X21.8523 Y51.3451
G01 X21.4511 Y51.3260
G00 Z2.0000
G00 X24.7650 Y58.7468
G01 F80.00
G01 Z-0.2239
G01 F240.00
G01 X24.7507 Y58.7702
G01 X24.7406 Y58.7858
G01 X24.7191 Y58.8163
G01 X24.7004 Y58.8412
G01 X24.6767 Y58.8700
G01 X24.6643 Y58.8840
G01 X24.6433 Y58.9069
G01 X24.6169 Y58.9333
G01 X24.5940 Y58.9543
G01 X24.5657 Y58.9787
G01 X24.5512 Y58.9904
G01 X24.5263 Y59.0091
G01 X24.4958 Y59.0306
G01 X24.4802 Y59.0407
G01 X24.4375 Y59.0663
G01 X24.4046 Y59.0839
G01 X24.3878 Y59.0921
G01 X24.3596 Y59.1052
G01 X24.3425 Y59.1125
G01 X24.3251 Y59.1195
G01 X24.2959 Y59.1302
G01 X24.2605 Y59.1419
G01 X24.2426 Y59.1471
G01 X24.2125 Y59.1548
G01 X24.1761 Y59.1630
G01 X24.1577 Y59.1664
G01 X24.1270 Y59.1712
G01 X24.1085 Y59.1737
G01 X24.0714 Y59.1774
G01 X24.0217 Y59.1798
G01 X7.7470 Y59.1801
G01 X7.7097 Y59.1791
G01 X7.6786 Y59.1774
G01 X7.6415 Y59.1737
G01 X7.6230 Y59.1712
G01 X7.5923 Y59.1664
G01 X7.5739 Y59.1630
G01 X7.5375 Y59.1548
G01 X7.5074 Y59.1471
G01 X7.4717 Y59.1362
G01 X7.4423 Y59.1260
G01 X7.4075 Y59.1125
G01 X7.3734 Y59.0974
G01 X7.3454 Y59.0839
G01 X7.3125 Y59.0663
G01 X7.2857 Y59.0505
G01 X7.2542 Y59.0306
G01 X7.2237 Y59.0091
G01 X7.1988 Y58.9904
G01 X7.1700 Y58.9667
G01 X7.1468 Y58.9460
G01 X7.1331 Y58.9333
G01 X7.1067 Y58.9069
G01 X7.0857 Y58.8840
G01 X7.0613 Y58.8557
G01 X7.0383 Y58.8263
G01 X7.0200 Y58.8012
G01 X6.9993 Y58.7702
G01 X6.9831 Y58.7436
G01 X6.9647 Y58.7112
G01 X6.9561 Y58.6946
G01 X6.9426 Y58.6666
G01 X6.9275 Y58.6325
G01 X6.9140 Y58.5977
G01 X6.9038 Y58.5683
G01 X6.8929 Y58.5326
G01 X6.8882 Y58.5145
G01 X6.8808 Y58.4843
G01 X6.8736 Y58.4477
G01 X6.8688 Y58.4170
G01 X6.8642 Y58.3799
G01 X6.8615 Y58.3427
G01 X6.8602 Y58.3120
G01 X6.8599 Y58.2938
G01 X6.8545 Y52.8301
G01 X1.3970 Y52.8301
G01 X1.3597 Y52.8291
G01 X1.3286 Y52.8274
G01 X1.2915 Y52.8237
G01 X1.2730 Y52.8212
G01 X1.2423 Y52.8164
G01 X1.2057 Y52.8092
G01 X1.1755 Y52.8018
G01 X1.1395 Y52.7919
G01 X1.1217 Y52.7862
G01 X1.0923 Y52.7760
G01 X1.0749 Y52.7695
G01 X1.0404 Y52.7552
G01 X1.0122 Y52.7421
G01 X0.9788 Y52.7253
G01 X0.9625 Y52.7163
G01 X0.9357 Y52.7005
G01 X0.9042 Y52.6806
G01 X0.8888 Y52.6700
G01 X0.8637 Y52.6517
G01 X0.8343 Y52.6287
G01 X0.8200 Y52.6167
G01 X0.7968 Y52.5960
G01 X0.7831 Y52.5833
G01 X0.7567 Y52.5569
G01 X0.7357 Y52.5340
G01 X0.7113 Y52.5057
G01 X0.6996 Y52.4912
G01 X0.6809 Y52.4663
G01 X0.6700 Y52.4512
G01 X0.6493 Y52.4202
G01 X0.6331 Y52.3936
G01 X0.6147 Y52.3612
G01 X0.6061 Y52.3446
G01 X0.5926 Y52.3166
G01 X0.5775 Y52.2825
G01 X0.5705 Y52.2651
G01 X0.5538 Y52.2183
G01 X0.5429 Y52.1826
G01 X0.5308 Y52.1343
G01 X0.5236 Y52.0977
G01 X0.5206 Y52.0793
G01 X0.5163 Y52.0485
G01 X0.5142 Y52.0299
G01 X0.5126 Y52.0114
G01 X0.5109 Y51.9803
G01 X0.5099 Y51.9430
G01 X0.5099 Y7.7470
G01 X0.5109 Y7.7097
G01 X0.5126 Y7.6786
G01 X0.5163 Y7.6415
G01 X0.5206 Y7.6107
G01 X0.5270 Y7.5739
G01 X0.5352 Y7.5375
G01 X0.5429 Y7.5074
G01 X0.5538 Y7.4717
G01 X0.5640 Y7.4423
G01 X0.5775 Y7.4075
G01 X0.5848 Y7.3904
G01 X0.5979 Y7.3622
G01 X0.6061 Y7.3454
G01 X0.6237 Y7.3125
G01 X0.6395 Y7.2857
G01 X0.6594 Y7.2542
G01 X0.6809 Y7.2237
G01 X0.6996 Y7.1988
G01 X0.7233 Y7.1700
G01 X0.7440 Y7.1468
G01 X0.7698 Y7.1198
G01 X0.7831 Y7.1067
G01 X0.8060 Y7.0857
G01 X0.8343 Y7.0613
G01 X0.8637 Y7.0383
G01 X0.8888 Y7.0200
G01 X0.9198 Y6.9993
G01 X0.9464 Y6.9831
G01 X0.9625 Y6.9737
G01 X0.9954 Y6.9561
G01 X1.0234 Y6.9426
G01 X1.0575 Y6.9275
G01 X1.0923 Y6.9140
G01 X1.1217 Y6.9038
G01 X1.1395 Y6.8981
G01 X1.1755 Y6.8882
G01 X1.2057 Y6.8808
G01 X1.2423 Y6.8736
G01 X1.2730 Y6.8688
G01 X1.3101 Y6.8642
G01 X1.3473 Y6.8615
G01 X1.3780 Y6.8602
G01 X1.3962 Y6.8599
G01 X6.8599 Y6.8545
G01 X6.8599 Y1.3970
G01 X6.8609 Y1.3597
G01 X6.8626 Y1.3286
G01 X6.8642 Y1.3101
G01 X6.8688 Y1.2730
G01 X6.8736 Y1.2423
G01 X6.8770 Y1.2239
G01 X6.8852 Y1.1875
G01 X6.8929 Y1.1574
G01 X6.8981 Y1.1395
G01 X6.9098 Y1.1041
G01 X6.9205 Y1.0749
G01 X6.9275 Y1.0575
G01 X6.9426 Y1.0234
G01 X6.9561 Y0.9954
G01 X6.9737 Y0.9625
G01 X6.9895 Y0.9357
G01 X7.0094 Y0.9042
G01 X7.0200 Y0.8888
G01 X7.0383 Y0.8637
G01 X7.0613 Y0.8343
G01 X7.0733 Y0.8200
G01 X7.0940 Y0.7968
G01 X7.1198 Y0.7698
G01 X7.1331 Y0.7567
G01 X7.1560 Y0.7357
G01 X7.1700 Y0.7233
G01 X7.1988 Y0.6996
G01 X7.2237 Y0.6809
G01 X7.2542 Y0.6594
G01 X7.2698 Y0.6493
G01 X7.2964 Y0.6331
G01 X7.3288 Y0.6147
G01 X7.3454 Y0.6061
G01 X7.3734 Y0.5926
G01 X7.4075 Y0.5775
G01 X7.4423 Y0.5640
G01 X7.4717 Y0.5538
G01 X7.4895 Y0.5481
G01 X7.5074 Y0.5429
G01 X7.5375 Y0.5352
G01 X7.5739 Y0.5270
G01 X7.6107 Y0.5206
G01 X7.6415 Y0.5163
G01 X7.6601 Y0.5142
G01 X7.6786 Y0.5126
G01 X7.7097 Y0.5109
G01 X7.7470 Y0.5099
G01 X17.6530 Y0.5099
G01 X17.6903 Y0.5109
G01 X17.7214 Y0.5126
G01 X17.7399 Y0.5142
G01 X17.7770 Y0.5188
G01 X17.8077 Y0.5236
G01 X17.8443 Y0.5308
G01 X17.8745 Y0.5382
G01 X17.9105 Y0.5481
G01 X17.9283 Y0.5538
G01 X17.9577 Y0.5640
G01 X17.9925 Y0.5775
G01 X18.0266 Y0.5926
G01 X18.0546 Y0.6061
G01 X18.0875 Y0.6237
G01 X18.1143 Y0.6395
G01 X18.1458 Y0.6594
G01 X18.1763 Y0.6809
G01 X18.2012 Y0.6996
G01 X18.2300 Y0.7233
G01 X18.2669 Y0.7567
G01 X18.2933 Y0.7831
G01 X18.3143 Y0.8060
G01 X18.3387 Y0.8343
G01 X18.3617 Y0.8637
G01 X18.3800 Y0.8888
G01 X18.3906 Y0.9042
G01 X18.4007 Y0.9198
G01 X18.4169 Y0.9464
G01 X18.4353 Y0.9788
G01 X18.4521 Y1.0122
G01 X18.4652 Y1.0404
G01 X18.4795 Y1.0749
G01 X18.4902 Y1.1041
G01 X18.5019 Y1.1395
G01 X18.5118 Y1.1755
G01 X18.5192 Y1.2057
G01 X18.5264 Y1.2423
G01 X18.5337 Y1.2915
G01 X18.5374 Y1.3286
G01 X18.5391 Y1.3597
G01 X18.5401 Y1.3966
G01 X18.5458 Y11.9399
G01 X24.0030 Y11.9399
G01 X24.0403 Y11.9409
G01 X24.0714 Y11.9426
G01 X24.0899 Y11.9442
G01 X24.1270 Y11.9488
G01 X24.1577 Y11.9536
G01 X24.1761 Y11.9570
G01 X24.1943 Y11.9608
G01 X24.2245 Y11.9682
G01 X24.2426 Y11.9729
G01 X24.2783 Y11.9838
G01 X24.3077 Y11.9940
G01 X24.3425 Y12.0075
G01 X24.3596 Y12.0148
G01 X24.3878 Y12.0279
G01 X24.4212 Y12.0447
G01 X24.4375 Y12.0537
G01 X24.4802 Y12.0793
G01 X24.4958 Y12.0894
G01 X24.5263 Y12.1109
G01 X24.5512 Y12.1296
G01 X24.5657 Y12.1413
G01 X24.5800 Y12.1533
G01 X24.6032 Y12.1740
G01 X24.6302 Y12.1998
G01 X24.6433 Y12.2131
G01 X24.6767 Y12.2500
G01 X24.7004 Y12.2788
G01 X24.7117 Y12.2937
G01 X24.7300 Y12.3188
G01 X24.7406 Y12.3342
G01 X24.7507 Y12.3498
G01 X24.7650 Y12.3732
G01 X24.7793 Y12.3498
G01 X24.7894 Y12.3342
G01 X24.8109 Y12.3037
G01 X24.8296 Y12.2788
G01 X24.8413 Y12.2643
G01 X24.8657 Y12.2360
G01 X24.8867 Y12.2131
G01 X24.8998 Y12.1998
G01 X24.9131 Y12.1867
G01 X24.9360 Y12.1657
G01 X24.9500 Y12.1533
G01 X24.9788 Y12.1296
G01 X25.0188 Y12.1000
G01 X25.0342 Y12.0894
G01 X25.0657 Y12.0695
G01 X25.0925 Y12.0537
G01 X25.1088 Y12.0447
G01 X25.1422 Y12.0279
G01 X25.1704 Y12.0148
G01 X25.2049 Y12.0005
G01 X25.2223 Y11.9940
G01 X25.2517 Y11.9838
G01 X25.2695 Y11.9781
G01 X25.2874 Y11.9729
G01 X25.3175 Y11.9652
G01 X25.3357 Y11.9608
G01 X25.3723 Y11.9536
G01 X25.4215 Y11.9463
G01 X25.4401 Y11.9442
G01 X25.4773 Y11.9415
G01 X25.5080 Y11.9402
G01 X25.5264 Y11.9399
G01 X32.2599 Y11.9344
G01 X32.2602 Y1.3783
G01 X32.2615 Y1.3473
G01 X32.2642 Y1.3101
G01 X32.2688 Y1.2730
G01 X32.2736 Y1.2423
G01 X32.2770 Y1.2239
G01 X32.2852 Y1.1875
G01 X32.2929 Y1.1574
G01 X32.2981 Y1.1395
G01 X32.3038 Y1.1217
G01 X32.3140 Y1.0923
G01 X32.3275 Y1.0575
G01 X32.3348 Y1.0404
G01 X32.3479 Y1.0122
G01 X32.3647 Y0.9788
G01 X32.3831 Y0.9464
G01 X32.3993 Y0.9198
G01 X32.4094 Y0.9042
G01 X32.4200 Y0.8888
G01 X32.4383 Y0.8637
G01 X32.4613 Y0.8343
G01 X32.4857 Y0.8060
G01 X32.5067 Y0.7831
G01 X32.5331 Y0.7567
G01 X32.5700 Y0.7233
G01 X32.5988 Y0.6996
G01 X32.6388 Y0.6700
G01 X32.6698 Y0.6493
G01 X32.7125 Y0.6237
G01 X32.7454 Y0.6061
G01 X32.7904 Y0.5848
G01 X32.8249 Y0.5705
G01 X32.8717 Y0.5538
G01 X32.9074 Y0.5429
G01 X32.9557 Y0.5308
G01 X32.9923 Y0.5236
G01 X33.0415 Y0.5163
G01 X33.0786 Y0.5126
G01 X33.1283 Y0.5102
G01 X43.0530 Y0.5099
G01 X43.0903 Y0.5109
G01 X43.1214 Y0.5126
G01 X43.1585 Y0.5163
G01 X43.1893 Y0.5206
G01 X43.2261 Y0.5270
G01 X43.2625 Y0.5352
G01 X43.2926 Y0.5429
G01 X43.3283 Y0.5538
G01 X43.3577 Y0.5640
G01 X43.3925 Y0.5775
G01 X43.4096 Y0.5848
G01 X43.4378 Y0.5979
G01 X43.4712 Y0.6147
G01 X43.4875 Y0.6237
G01 X43.5143 Y0.6395
G01 X43.5458 Y0.6594
G01 X43.5763 Y0.6809
G01 X43.6012 Y0.6996
G01 X43.6157 Y0.7113
G01 X43.6440 Y0.7357
G01 X43.6669 Y0.7567
G01 X43.6933 Y0.7831
G01 X43.7143 Y0.8060
G01 X43.7387 Y0.8343
G01 X43.7617 Y0.8637
G01 X43.7800 Y0.8888
G01 X43.8007 Y0.9198
G01 X43.8169 Y0.9464
G01 X43.8353 Y0.9788
G01 X43.8439 Y0.9954
G01 X43.8574 Y1.0234
G01 X43.8725 Y1.0575
G01 X43.8860 Y1.0923
G01 X43.8962 Y1.1217
G01 X43.9071 Y1.1574
G01 X43.9118 Y1.1755
G01 X43.9192 Y1.2057
G01 X43.9264 Y1.2423
G01 X43.9312 Y1.2730
G01 X43.9358 Y1.3101
G01 X43.9385 Y1.3473
G01 X43.9398 Y1.3780
G01 X43.9401 Y1.3962
G01 X43.9455 Y6.8599
G01 X49.4030 Y6.8599
G01 X49.4217 Y6.8602
G01 X49.4527 Y6.8615
G01 X49.4714 Y6.8626
G01 X49.5085 Y6.8663
G01 X49.5393 Y6.8706
G01 X49.5761 Y6.8770
G01 X49.5943 Y6.8808
G01 X49.6245 Y6.8882
G01 X49.6605 Y6.8981
G01 X49.6959 Y6.9098
G01 X49.7251 Y6.9205
G01 X49.7596 Y6.9348
G01 X49.7878 Y6.9479
G01 X49.8212 Y6.9647
G01 X49.8536 Y6.9831
G01 X49.8802 Y6.9993
G01 X49.9112 Y7.0200
G01 X49.9363 Y7.0383
G01 X49.9657 Y7.0613
G01 X49.9940 Y7.0857
G01 X50.0169 Y7.1067
G01 X50.0302 Y7.1198
G01 X50.0560 Y7.1468
G01 X50.0767 Y7.1700
G01 X50.1004 Y7.1988
G01 X50.1191 Y7.2237
G01 X50.1406 Y7.2542
G01 X50.1605 Y7.2857
G01 X50.1763 Y7.3125
G01 X50.1939 Y7.3454
G01 X50.2074 Y7.3734
G01 X50.2225 Y7.4075
G01 X50.2295 Y7.4249
G01 X50.2402 Y7.4541
G01 X50.2519 Y7.4895
G01 X50.2618 Y7.5255
G01 X50.2692 Y7.5557
G01 X50.2764 Y7.5923
G01 X50.2812 Y7.6230
G01 X50.2837 Y7.6415
G01 X50.2874 Y7.6786
G01 X50.2891 Y7.7097
G01 X50.2901 Y7.7470
G01 X50.2901 Y50.6730
G01 X50.2891 Y50.7103
G01 X50.2874 Y50.7414
G01 X50.2837 Y50.7785
G01 X50.2794 Y50.8093
G01 X50.2730 Y50.8461
G01 X50.2648 Y50.8825
G01 X50.2571 Y50.9126
G01 X50.2462 Y50.9483
G01 X50.2360 Y50.9777
G01 X50.2225 Y51.0125
G01 X50.2152 Y51.0296
G01 X50.2021 Y51.0578
G01 X50.1939 Y51.0746
G01 X50.1763 Y51.1075
G01 X50.1605 Y51.1343
G01 X50.1406 Y51.1658
G01 X50.1191 Y51.1963
G01 X50.1004 Y51.2212
G01 X50.0767 Y51.2500
G01 X50.0560 Y51.2732
G01 X50.0433 Y51.2869
G01 X50.0169 Y51.3133
G01 X49.9940 Y51.3343
G01 X49.9657 Y51.3587
G01 X49.9363 Y51.3817
G01 X49.9112 Y51.4000
G01 X49.8802 Y51.4207
G01 X49.8536 Y51.4369
G01 X49.8212 Y51.4553
G01 X49.8046 Y51.4639
G01 X49.7766 Y51.4774
G01 X49.7425 Y51.4925
G01 X49.7077 Y51.5060
G01 X49.6783 Y51.5162
G01 X49.6605 Y51.5219
G01 X49.6245 Y51.5318
G01 X49.5943 Y51.5392
G01 X49.5577 Y51.5464
G01 X49.5270 Y51.5512
G01 X49.4899 Y51.5558
G01 X49.4527 Y51.5585
G01 X49.4220 Y51.5598
G01 X49.4038 Y51.5601
G01 X43.9401 Y51.5655
G01 X43.9401 Y58.2930
G01 X43.9391 Y58.3303
G01 X43.9374 Y58.3614
G01 X43.9337 Y58.3985
G01 X43.9294 Y58.4293
G01 X43.9230 Y58.4661
G01 X43.9148 Y58.5025
G01 X43.9071 Y58.5326
G01 X43.8962 Y58.5683
G01 X43.8860 Y58.5977
G01 X43.8725 Y58.6325
G01 X43.8574 Y58.6666
G01 X43.8439 Y58.6946
G01 X43.8263 Y58.7275
G01 X43.8169 Y58.7436
G01 X43.8007 Y58.7702
G01 X43.7800 Y58.8012
G01 X43.7617 Y58.8263
G01 X43.7387 Y58.8557
G01 X43.7143 Y58.8840
G01 X43.6933 Y58.9069
G01 X43.6669 Y58.9333
G01 X43.6532 Y58.9460
G01 X43.6300 Y58.9667
G01 X43.6012 Y58.9904
G01 X43.5763 Y59.0091
G01 X43.5458 Y59.0306
G01 X43.5143 Y59.0505
G01 X43.4875 Y59.0663
G01 X43.4546 Y59.0839
G01 X43.4266 Y59.0974
G01 X43.4096 Y59.1052
G01 X43.3751 Y59.1195
G01 X43.3459 Y59.1302
G01 X43.3105 Y59.1419
G01 X43.2745 Y59.1518
G01 X43.2443 Y59.1592
G01 X43.2077 Y59.1664
G01 X43.1893 Y59.1694
G01 X43.1585 Y59.1737
G01 X43.1214 Y59.1774
G01 X43.0903 Y59.1791
G01 X43.0530 Y59.1801
G01 X25.5083 Y59.1798
G01 X25.4586 Y59.1774
G01 X25.4215 Y59.1737
G01 X25.4030 Y59.1712
G01 X25.3723 Y59.1664
G01 X25.3539 Y59.1630
G01 X25.3175 Y59.1548
G01 X25.2874 Y59.1471
G01 X25.2517 Y59.1362
G01 X25.2341 Y59.1302
G01 X25.2049 Y59.1195
G01 X25.1875 Y59.1125
G01 X25.1704 Y59.1052
G01 X25.1422 Y59.0921
G01 X25.1254 Y59.0839
G01 X25.0925 Y59.0663
G01 X25.0498 Y59.0407
G01 X25.0188 Y59.0200
G01 X25.0037 Y59.0091
G01 X24.9788 Y58.9904
G01 X24.9643 Y58.9787
G01 X24.9360 Y58.9543
G01 X24.9131 Y58.9333
G01 X24.8867 Y58.9069
G01 X24.8657 Y58.8840
G01 X24.8413 Y58.8557
G01 X24.8296 Y58.8412
G01 X24.8109 Y58.8163
G01 X24.7894 Y58.7858
G01 X24.7793 Y58.7702
G01 X24.7650 Y58.7468
G00 Z2.0000
G00 X21.4511 Y38.8260
G01 F80.00
G01 Z-0.2239
G01 F240.00
G01 X21.5571 Y38.7201
G01 X21.5736 Y38.7216
G01 X21.7500 Y38.7300
G01 X21.9264 Y38.7216
G01 X21.9429 Y38.7201
G01 X22.0398 Y38.8169
G01 X21.8523 Y38.8451
G01 X21.4511 Y38.8260
G00 Z2.0000
G00 X19.8183 Y36.4901
G01 F80.00
G01 Z-0.2239
G01 F240.00
G01 X19.8500 Y36.4917
G01 X19.8817 Y36.4901
G01 X19.8591 Y36.6438
G01 X19.8500 Y36.8300
G01 X19.8591 Y37.0162
G01 X19.8817 Y37.1699
G01 X19.8500 Y37.1683
G01 X19.8183 Y37.1699
G01 X19.8409 Y37.0162
G01 X19.8500 Y36.8300
G01 X19.8409 Y36.6438
G01 X19.8183 Y36.4901
G00 Z2.0000
G00 X21.5571 Y34.9399
G01 F80.00
G01 Z-0.2239
G01 F240.00
G01 X21.4602 Y34.8431
G01 X21.6477 Y34.8149
G01 X22.0489 Y34.8340
G01 X21.9429 Y34.9399
G01 X21.9264 Y34.9384
G01 X21.7500 Y34.9300
G01 X21.5736 Y34.9384
G01 X21.5571 Y34.9399
G00 Z2.0000
G00 X17.7571 Y34.9399
G01 F80.00
G01 Z-0.2239
G01 F240.00
G01 X17.6602 Y34.8431
G01 X17.8477 Y34.8149
G01 X18.2489 Y34.8340
G01 X18.1429 Y34.9399
G01 X18.1264 Y34.9384
G01 X17.9500 Y34.9300
G01 X17.7736 Y34.9384
G01 X17.7571 Y34.9399
G00 Z2.0000
G00 X15.9540 Y36.5311
G01 F80.00
G01 Z-0.2239
G01 F240.00
G01 X16.0599 Y36.6371
G01 X16.0584 Y36.6536
G01 X16.0500 Y36.8300
G01 X16.0584 Y37.0064
G01 X16.0599 Y37.0229
G01 X15.9631 Y37.1198
G01 X15.9349 Y36.9323
G01 X15.9540 Y36.5311
G00 Z2.0000
G00 X17.6511 Y38.8260
G01 F80.00
G01 Z-0.2239
G01 F240.00
G01 X17.7571 Y38.7201
G01 X17.7736 Y38.7216
G01 X17.9500 Y38.7300
G01 X18.1264 Y38.7216
G01 X18.1429 Y38.7201
G01 X18.2398 Y38.8169
G01 X18.0523 Y38.8451
G01 X17.6511 Y38.8260
G00 Z2.0000
G00 X16.1766 Y32.9913
G01 F80.00
G01 Z-0.2239
G01 F240.00
G01 X16.5594 Y32.9913
G01 X16.7615 Y33.1121
G01 X17.0454 Y33.2464
G01 X17.3411 Y33.3522
G01 X17.6457 Y33.4285
G01 X17.9466 Y33.4734
G01 X17.9612 Y33.4750
G01 X18.2651 Y33.4899
G01 X18.5916 Y33.4900
G01 X18.5855 Y33.5073
G01 X18.5827 Y33.5167
G01 X18.5772 Y33.5383
G01 X18.5753 Y33.5479
G01 X18.5721 Y33.5700
G01 X18.5711 Y33.5798
G01 X18.5702 Y33.5971
G01 X18.5699 Y33.6107
G01 X18.2661 Y33.7198
G01 X17.6351 Y33.6643
G01 X16.9890 Y33.4756
G01 X16.3921 Y33.1645
G01 X16.1766 Y32.9913
G00 Z2.0000
G00 X16.1766 Y27.5887
G01 F80.00
G01 Z-0.2239
G01 F240.00
G01 X16.3921 Y27.4155
G01 X16.9890 Y27.1044
G01 X17.6351 Y26.9157
G01 X18.2661 Y26.8602
G01 X18.5699 Y26.9693
G01 X18.5702 Y26.9829
G01 X18.5711 Y27.0002
G01 X18.5721 Y27.0100
G01 X18.5753 Y27.0321
G01 X18.5772 Y27.0417
G01 X18.5827 Y27.0633
G01 X18.5855 Y27.0727
G01 X18.5916 Y27.0900
G01 X18.2651 Y27.0901
G01 X17.9612 Y27.1050
G01 X17.9466 Y27.1066
G01 X17.6457 Y27.1515
G01 X17.3411 Y27.2278
G01 X17.0454 Y27.3336
G01 X16.7615 Y27.4679
G01 X16.5594 Y27.5887
G01 X16.1766 Y27.5887
G00 Z2.0000
G00 X30.9484 Y27.0900
G01 F80.00
G01 Z-0.2239
G01 F240.00
G01 X30.9545 Y27.0727
G01 X30.9573 Y27.0633
G01 X30.9628 Y27.0417
G01 X30.9647 Y27.0321
G01 X30.9679 Y27.0100
G01 X30.9689 Y27.0002
G01 X30.9698 Y26.9829
G01 X30.9701 Y26.9693
G01 X31.2739 Y26.8602
G01 X31.9049 Y26.9157
G01 X32.5510 Y27.1044
G01 X33.1479 Y27.4155
G01 X33.3634 Y27.5887
G01 X32.9806 Y27.5887
G01 X32.7785 Y27.4679
G01 X32.4946 Y27.3336
G01 X32.1989 Y27.2278
G01 X31.8943 Y27.1515
G01 X31.5934 Y27.1066
G01 X31.5788 Y27.1050
G01 X31.2749 Y27.0901
G01 X30.9484 Y27.0900
G00 Z2.0000
G00 X1.0699 Y51.9430
G01 F80.00
G01 Z-0.2239
G01 F240.00
G01 X1.0699 Y7.7470
G01 X1.0711 Y7.7198
G01 X1.0721 Y7.7101
G01 X1.0745 Y7.6929
G01 X1.0784 Y7.6736
G01 X1.0827 Y7.6568
G01 X1.0855 Y7.6474
G01 X1.0948 Y7.6218
G01 X1.1063 Y7.5972
G01 X1.1109 Y7.5885
G01 X1.1198 Y7.5736
G01 X1.1307 Y7.5573
G01 X1.1411 Y7.5433
G01 X1.1473 Y7.5358
G01 X1.1657 Y7.5157
G01 X1.1858 Y7.4973
G01 X1.1933 Y7.4911
G01 X1.2073 Y7.4807
G01 X1.2236 Y7.4698
G01 X1.2385 Y7.4609
G01 X1.2472 Y7.4563
G01 X1.2718 Y7.4448
G01 X1.2974 Y7.4355
G01 X1.3068 Y7.4327
G01 X1.3236 Y7.4284
G01 X1.3380 Y7.4253
G01 X1.3649 Y7.4215
G01 X1.3921 Y7.4200
G01 X7.4199 Y7.4199
G01 X7.4200 Y1.3921
G01 X7.4215 Y1.3649
G01 X7.4253 Y1.3380
G01 X7.4272 Y1.3284
G01 X7.4314 Y1.3115
G01 X7.4355 Y1.2974
G01 X7.4448 Y1.2718
G01 X7.4563 Y1.2472
G01 X7.4609 Y1.2385
G01 X7.4698 Y1.2236
G01 X7.4778 Y1.2112
G01 X7.4942 Y1.1895
G01 X7.5123 Y1.1692
G01 X7.5192 Y1.1623
G01 X7.5321 Y1.1506
G01 X7.5433 Y1.1411
G01 X7.5653 Y1.1251
G01 X7.5885 Y1.1109
G01 X7.5972 Y1.1063
G01 X7.6129 Y1.0988
G01 X7.6264 Y1.0930
G01 X7.6521 Y1.0840
G01 X7.6832 Y1.0762
G01 X7.7149 Y1.0715
G01 X7.7470 Y1.0699
G01 X17.6530 Y1.0699
G01 X17.6802 Y1.0711
G01 X17.6899 Y1.0721
G01 X17.7071 Y1.0745
G01 X17.7264 Y1.0784
G01 X17.7432 Y1.0827
G01 X17.7526 Y1.0855
G01 X17.7782 Y1.0948
G01 X17.8028 Y1.1063
G01 X17.8115 Y1.1109
G01 X17.8264 Y1.1198
G01 X17.8427 Y1.1307
G01 X17.8567 Y1.1411
G01 X17.8642 Y1.1473
G01 X17.8843 Y1.1657
G01 X17.9027 Y1.1858
G01 X17.9089 Y1.1933
G01 X17.9193 Y1.2073
G01 X17.9302 Y1.2236
G01 X17.9391 Y1.2385
G01 X17.9437 Y1.2472
G01 X17.9552 Y1.2718
G01 X17.9645 Y1.2974
G01 X17.9686 Y1.3115
G01 X17.9728 Y1.3284
G01 X17.9747 Y1.3380
G01 X17.9785 Y1.3649
G01 X17.9800 Y1.3921
G01 X17.9801 Y12.4999
G01 X24.0128 Y12.5002
G01 X24.0302 Y12.5011
G01 X24.0399 Y12.5021
G01 X24.0620 Y12.5053
G01 X24.0716 Y12.5072
G01 X24.0979 Y12.5140
G01 X24.1282 Y12.5248
G01 X24.1572 Y12.5386
G01 X24.1806 Y12.5524
G01 X24.1888 Y12.5578
G01 X24.2067 Y12.5711
G01 X24.2142 Y12.5773
G01 X24.2272 Y12.5890
G01 X24.2410 Y12.6028
G01 X24.2527 Y12.6158
G01 X24.2619 Y12.6273
G01 X24.2722 Y12.6412
G01 X24.2776 Y12.6494
G01 X24.2891 Y12.6685
G01 X24.2937 Y12.6772
G01 X24.3052 Y12.7018
G01 X24.3160 Y12.7321
G01 X24.3238 Y12.7632
G01 X24.3279 Y12.7901
G01 X24.3292 Y12.8047
G01 X24.3301 Y12.8270
G01 X24.3301 Y27.7222
G01 X24.3285 Y27.7541
G01 X24.3255 Y27.7761
G01 X24.3228 Y27.7905
G01 X24.3175 Y27.8121
G01 X24.3146 Y27.8214
G01 X24.3072 Y27.8423
G01 X24.3014 Y27.8558
G01 X24.2940 Y27.8715
G01 X24.2870 Y27.8843
G01 X24.2754 Y27.9033
G01 X24.2624 Y27.9213
G01 X24.2533 Y27.9327
G01 X24.2384 Y27.9492
G01 X24.2315 Y27.9562
G01 X24.2152 Y27.9711
G01 X24.2037 Y27.9803
G01 X24.1858 Y27.9934
G01 X24.1585 Y28.0100
G01 X24.1297 Y28.0238
G01 X24.0996 Y28.0347
G01 X24.0687 Y28.0426
G01 X24.0468 Y28.0463
G01 X24.0322 Y28.0480
G01 X24.0101 Y28.0492
G01 X24.0003 Y28.0493
G01 X23.9781 Y28.0483
G01 X23.9635 Y28.0468
G01 X23.9464 Y28.0443
G01 X23.9320 Y28.0414
G01 X23.9105 Y28.0359
G01 X23.8895 Y28.0289
G01 X23.8714 Y28.0215
G01 X23.8557 Y28.0142
G01 X23.8428 Y28.0073
G01 X23.8279 Y27.9984
G01 X23.8197 Y27.9931
G01 X23.8018 Y27.9800
G01 X23.7942 Y27.9739
G01 X23.7740 Y27.9558
G01 X23.7555 Y27.9360
G01 X23.6726 Y27.8371
G01 X23.1479 Y27.4155
G01 X22.5510 Y27.1044
G01 X21.9049 Y26.9157
G01 X21.2739 Y26.8602
G01 X20.9701 Y26.9693
G01 X20.9698 Y26.9829
G01 X20.9689 Y27.0002
G01 X20.9679 Y27.0100
G01 X20.9647 Y27.0321
G01 X20.9628 Y27.0417
G01 X20.9573 Y27.0633
G01 X20.9545 Y27.0727
G01 X20.9484 Y27.0900
G01 X21.2749 Y27.0901
G01 X21.5788 Y27.1050
G01 X21.5934 Y27.1066
G01 X21.8943 Y27.1515
G01 X22.1989 Y27.2278
G01 X22.4854 Y27.3301
G01 X22.5036 Y27.3376
G01 X22.7697 Y27.4634
G01 X22.7870 Y27.4727
G01 X23.0478 Y27.6293
G01 X23.2923 Y27.8103
G01 X23.3038 Y27.8195
G01 X23.5256 Y28.0205
G01 X23.5362 Y28.0308
G01 X23.7405 Y28.2562
G01 X23.7497 Y28.2677
G01 X23.8434 Y28.3941
G01 X23.9145 Y28.4198
G01 X23.9900 Y28.4552
G01 X24.0073 Y28.4645
G01 X24.0705 Y28.5023
G01 X24.0868 Y28.5132
G01 X24.1536 Y28.5631
G01 X24.2227 Y28.6257
G01 X24.2853 Y28.6948
G01 X24.3352 Y28.7617
G01 X24.3461 Y28.7780
G01 X24.3839 Y28.8411
G01 X24.3932 Y28.8584
G01 X24.4286 Y28.9339
G01 X24.4600 Y29.0217
G01 X24.4827 Y29.1121
G01 X24.4964 Y29.2044
G01 X24.5007 Y29.2877
G01 X24.5007 Y29.3073
G01 X24.4964 Y29.3906
G01 X24.4836 Y29.4780
G01 X24.4805 Y29.4924
G01 X24.4627 Y29.5638
G01 X24.4586 Y29.5779
G01 X24.4305 Y29.6565
G01 X24.4267 Y29.6655
G01 X24.4130 Y29.6946
G01 X24.4546 Y29.9763
G01 X24.4700 Y30.2900
G01 X24.4546 Y30.6037
G01 X24.4130 Y30.8854
G01 X24.4267 Y30.9145
G01 X24.4305 Y30.9235
G01 X24.4586 Y31.0021
G01 X24.4627 Y31.0162
G01 X24.4805 Y31.0876
G01 X24.4836 Y31.1020
G01 X24.4964 Y31.1894
G01 X24.5007 Y31.2727
G01 X24.5007 Y31.2923
G01 X24.4968 Y31.3707
G01 X24.4952 Y31.3854
G01 X24.4844 Y31.4582
G01 X24.4805 Y31.4774
G01 X24.4600 Y31.5583
G01 X24.4286 Y31.6461
G01 X24.3932 Y31.7216
G01 X24.3839 Y31.7389
G01 X24.3408 Y31.8103
G01 X24.2853 Y31.8852
G01 X24.2227 Y31.9543
G01 X24.1611 Y32.0105
G01 X24.1459 Y32.0229
G01 X24.0787 Y32.0724
G01 X24.0073 Y32.1155
G01 X23.9900 Y32.1248
G01 X23.9145 Y32.1602
G01 X23.8434 Y32.1859
G01 X23.7497 Y32.3123
G01 X23.7405 Y32.3238
G01 X23.5362 Y32.5492
G01 X23.5256 Y32.5595
G01 X23.3001 Y32.7636
G01 X23.0478 Y32.9507
G01 X22.7870 Y33.1073
G01 X22.7697 Y33.1166
G01 X22.4946 Y33.2464
G01 X22.2082 Y33.3491
G01 X22.1895 Y33.3548
G01 X21.8943 Y33.4285
G01 X21.5934 Y33.4734
G01 X21.5788 Y33.4750
G01 X21.2749 Y33.4899
G01 X20.9484 Y33.4900
G01 X20.9545 Y33.5073
G01 X20.9573 Y33.5167
G01 X20.9628 Y33.5383
G01 X20.9647 Y33.5479
G01 X20.9679 Y33.5700
G01 X20.9689 Y33.5798
G01 X20.9698 Y33.5971
G01 X20.9701 Y33.6107
G01 X21.2739 Y33.7198
G01 X21.9049 Y33.6643
G01 X22.5510 Y33.4756
G01 X23.1479 Y33.1645
G01 X23.6726 Y32.7429
G01 X23.7555 Y32.6440
G01 X23.7740 Y32.6242
G01 X23.7942 Y32.6061
G01 X23.8018 Y32.6000
G01 X23.8197 Y32.5869
G01 X23.8279 Y32.5816
G01 X23.8428 Y32.5727
G01 X23.8557 Y32.5658
G01 X23.8714 Y32.5585
G01 X23.8895 Y32.5511
G01 X23.9059 Y32.5455
G01 X23.9200 Y32.5415
G01 X23.9416 Y32.5365
G01 X23.9635 Y32.5332
G01 X23.9781 Y32.5317
G01 X24.0003 Y32.5307
G01 X24.0101 Y32.5308
G01 X24.0322 Y32.5320
G01 X24.0468 Y32.5337
G01 X24.0687 Y32.5374
G01 X24.0996 Y32.5453
G01 X24.1297 Y32.5562
G01 X24.1498 Y32.5656
G01 X24.1628 Y32.5724
G01 X24.1817 Y32.5839
G01 X24.1899 Y32.5894
G01 X24.2076 Y32.6027
G01 X24.2188 Y32.6121
G01 X24.2350 Y32.6273
G01 X24.2501 Y32.6436
G01 X24.2595 Y32.6548
G01 X24.2698 Y32.6687
G01 X24.2780 Y32.6808
G01 X24.2894 Y32.6999
G01 X24.2940 Y32.7085
G01 X24.3035 Y32.7286
G01 X24.3089 Y32.7422
G01 X24.3161 Y32.7632
G01 X24.3238 Y32.7942
G01 X24.3285 Y32.8259
G01 X24.3301 Y32.8578
G01 X24.3301 Y36.2353
G01 X24.3285 Y36.2670
G01 X24.3248 Y36.2936
G01 X24.3218 Y36.3078
G01 X24.3163 Y36.3292
G01 X24.3092 Y36.3500
G01 X24.3038 Y36.3636
G01 X24.2945 Y36.3835
G01 X24.2875 Y36.3963
G01 X24.2761 Y36.4152
G01 X24.2633 Y36.4331
G01 X24.2543 Y36.4445
G01 X24.2396 Y36.4610
G01 X24.2293 Y36.4712
G01 X24.2130 Y36.4860
G01 X24.1955 Y36.4995
G01 X24.1836 Y36.5079
G01 X24.1649 Y36.5194
G01 X24.1520 Y36.5263
G01 X24.1321 Y36.5358
G01 X24.1070 Y36.5453
G01 X24.0977 Y36.5483
G01 X24.0811 Y36.5527
G01 X24.0670 Y36.5560
G01 X24.0404 Y36.5602
G01 X24.0136 Y36.5621
G01 X24.0039 Y36.5623
G01 X23.9867 Y36.5618
G01 X23.9722 Y36.5608
G01 X23.9455 Y36.5572
G01 X23.9193 Y36.5514
G01 X23.9053 Y36.5473
G01 X23.8890 Y36.5418
G01 X23.8800 Y36.5383
G01 X23.8555 Y36.5272
G01 X23.8320 Y36.5140
G01 X23.8238 Y36.5088
G01 X23.8058 Y36.4961
G01 X23.7921 Y36.4851
G01 X23.6401 Y36.6371
G01 X23.6416 Y36.6536
G01 X23.6500 Y36.8300
G01 X23.6416 Y37.0064
G01 X23.6401 Y37.0229
G01 X23.7921 Y37.1749
G01 X23.8058 Y37.1639
G01 X23.8238 Y37.1512
G01 X23.8320 Y37.1460
G01 X23.8555 Y37.1328
G01 X23.8800 Y37.1217
G01 X23.8936 Y37.1166
G01 X23.9099 Y37.1112
G01 X23.9193 Y37.1086
G01 X23.9455 Y37.1028
G01 X23.9722 Y37.0992
G01 X23.9818 Y37.0984
G01 X23.9990 Y37.0978
G01 X24.0184 Y37.0981
G01 X24.0356 Y37.0993
G01 X24.0452 Y37.1004
G01 X24.0717 Y37.1050
G01 X24.0977 Y37.1117
G01 X24.1070 Y37.1147
G01 X24.1231 Y37.1206
G01 X24.1409 Y37.1283
G01 X24.1564 Y37.1359
G01 X24.1649 Y37.1406
G01 X24.1877 Y37.1548
G01 X24.2054 Y37.1679
G01 X24.2166 Y37.1771
G01 X24.2363 Y37.1955
G01 X24.2511 Y37.2118
G01 X24.2604 Y37.2230
G01 X24.2761 Y37.2448
G01 X24.2875 Y37.2637
G01 X24.2945 Y37.2765
G01 X24.3057 Y37.3009
G01 X24.3133 Y37.3216
G01 X24.3176 Y37.3355
G01 X24.3239 Y37.3616
G01 X24.3273 Y37.3834
G01 X24.3289 Y37.3979
G01 X24.3300 Y37.4199
G01 X24.3301 Y48.7353
G01 X24.3292 Y48.7573
G01 X24.3280 Y48.7718
G01 X24.3239 Y48.7984
G01 X24.3189 Y48.8198
G01 X24.3148 Y48.8338
G01 X24.3057 Y48.8591
G01 X24.2966 Y48.8792
G01 X24.2900 Y48.8921
G01 X24.2788 Y48.9111
G01 X24.2706 Y48.9231
G01 X24.2574 Y48.9408
G01 X24.2396 Y48.9610
G01 X24.2293 Y48.9712
G01 X24.2130 Y48.9860
G01 X24.1916 Y49.0024
G01 X24.1795 Y49.0105
G01 X24.1606 Y49.0218
G01 X24.1366 Y49.0338
G01 X24.1231 Y49.0394
G01 X24.1070 Y49.0453
G01 X24.0977 Y49.0483
G01 X24.0717 Y49.0550
G01 X24.0452 Y49.0596
G01 X24.0356 Y49.0607
G01 X24.0184 Y49.0619
G01 X23.9990 Y49.0622
G01 X23.9818 Y49.0616
G01 X23.9722 Y49.0608
G01 X23.9455 Y49.0572
G01 X23.9193 Y49.0514
G01 X23.9053 Y49.0473
G01 X23.8890 Y49.0418
G01 X23.8800 Y49.0383
G01 X23.8555 Y49.0272
G01 X23.8320 Y49.0140
G01 X23.8238 Y49.0088
G01 X23.8058 Y48.9961
G01 X23.7921 Y48.9851
G01 X23.6401 Y49.1371
G01 X23.6416 Y49.1536
G01 X23.6500 Y49.3300
G01 X23.6416 Y49.5064
G01 X23.6401 Y49.5229
G01 X23.7920 Y49.6749
G01 X23.8067 Y49.6632
G01 X23.8200 Y49.6537
G01 X23.8298 Y49.6473
G01 X23.8511 Y49.6351
G01 X23.8615 Y49.6299
G01 X23.8764 Y49.6232
G01 X23.8872 Y49.6189
G01 X23.9027 Y49.6135
G01 X23.9218 Y49.6080
G01 X23.9450 Y49.6029
G01 X23.9694 Y49.5994
G01 X23.9810 Y49.5984
G01 X23.9973 Y49.5978
G01 X24.0172 Y49.5980
G01 X24.0410 Y49.5999
G01 X24.0653 Y49.6037
G01 X24.0767 Y49.6061
G01 X24.0925 Y49.6102
G01 X24.1115 Y49.6162
G01 X24.1268 Y49.6220
G01 X24.1374 Y49.6266
G01 X24.1595 Y49.6376
G01 X24.1799 Y49.6497
G01 X24.1964 Y49.6610
G01 X24.2125 Y49.6736
G01 X24.2302 Y49.6895
G01 X24.2413 Y49.7007
G01 X24.2549 Y49.7161
G01 X24.2646 Y49.7285
G01 X24.2782 Y49.7480
G01 X24.2907 Y49.7692
G01 X24.2979 Y49.7833
G01 X24.3062 Y49.8020
G01 X24.3143 Y49.8244
G01 X24.3188 Y49.8395
G01 X24.3243 Y49.8635
G01 X24.3279 Y49.8871
G01 X24.3293 Y49.9028
G01 X24.3301 Y49.9247
G01 X24.3301 Y58.2930
G01 X24.3289 Y58.3202
G01 X24.3279 Y58.3299
G01 X24.3255 Y58.3471
G01 X24.3216 Y58.3664
G01 X24.3173 Y58.3832
G01 X24.3145 Y58.3926
G01 X24.3052 Y58.4182
G01 X24.2937 Y58.4428
G01 X24.2891 Y58.4515
G01 X24.2802 Y58.4664
G01 X24.2693 Y58.4827
G01 X24.2589 Y58.4967
G01 X24.2527 Y58.5042
G01 X24.2343 Y58.5243
G01 X24.2142 Y58.5427
G01 X24.2067 Y58.5489
G01 X24.1927 Y58.5593
G01 X24.1764 Y58.5702
G01 X24.1615 Y58.5791
G01 X24.1528 Y58.5837
G01 X24.1282 Y58.5952
G01 X24.1026 Y58.6045
G01 X24.0932 Y58.6073
G01 X24.0764 Y58.6116
G01 X24.0620 Y58.6147
G01 X24.0351 Y58.6185
G01 X24.0079 Y58.6200
G01 X7.7470 Y58.6201
G01 X7.7198 Y58.6189
G01 X7.7052 Y58.6173
G01 X7.6832 Y58.6138
G01 X7.6568 Y58.6073
G01 X7.6474 Y58.6045
G01 X7.6310 Y58.5987
G01 X7.6129 Y58.5912
G01 X7.5972 Y58.5837
G01 X7.5885 Y58.5791
G01 X7.5653 Y58.5649
G01 X7.5433 Y58.5489
G01 X7.5358 Y58.5427
G01 X7.5228 Y58.5310
G01 X7.5090 Y58.5172
G01 X7.4973 Y58.5042
G01 X7.4911 Y58.4967
G01 X7.4751 Y58.4747
G01 X7.4609 Y58.4515
G01 X7.4563 Y58.4428
G01 X7.4488 Y58.4271
G01 X7.4413 Y58.4090
G01 X7.4355 Y58.3926
G01 X7.4327 Y58.3832
G01 X7.4262 Y58.3568
G01 X7.4221 Y58.3299
G01 X7.4211 Y58.3202
G01 X7.4202 Y58.3028
G01 X7.4199 Y52.2701
G01 X1.3970 Y52.2701
G01 X1.3747 Y52.2692
G01 X1.3552 Y52.2673
G01 X1.3380 Y52.2647
G01 X1.3236 Y52.2616
G01 X1.3068 Y52.2573
G01 X1.2974 Y52.2545
G01 X1.2764 Y52.2470
G01 X1.2629 Y52.2412
G01 X1.2472 Y52.2337
G01 X1.2385 Y52.2291
G01 X1.2194 Y52.2176
G01 X1.2112 Y52.2122
G01 X1.1933 Y52.1989
G01 X1.1858 Y52.1927
G01 X1.1692 Y52.1777
G01 X1.1623 Y52.1708
G01 X1.1442 Y52.1505
G01 X1.1251 Y52.1247
G01 X1.1086 Y52.0972
G01 X1.0948 Y52.0682
G01 X1.0840 Y52.0379
G01 X1.0762 Y52.0068
G01 X1.0715 Y51.9751
G01 X1.0699 Y51.9430
G00 Z2.0000
G00 X0.7899 Y51.9430
G01 F80.00
G01 Z-0.2239
G01 F240.00
G01 X0.7899 Y7.7470
G01 X0.7905 Y7.7234
G01 X0.7918 Y7.6992
G01 X0.7942 Y7.6758
G01 X0.7976 Y7.6518
G01 X0.8016 Y7.6286
G01 X0.8068 Y7.6056
G01 X0.8128 Y7.5821
G01 X0.8196 Y7.5595
G01 X0.8277 Y7.5367
G01 X0.8361 Y7.5147
G01 X0.8457 Y7.4931
G01 X0.8562 Y7.4713
G01 X0.8616 Y7.4608
G01 X0.8732 Y7.4403
G01 X0.8858 Y7.4196
G01 X0.8989 Y7.4000
G01 X0.9132 Y7.3805
G01 X0.9277 Y7.3619
G01 X0.9431 Y7.3440
G01 X0.9595 Y7.3262
G01 X0.9762 Y7.3095
G01 X0.9940 Y7.2931
G01 X1.0029 Y7.2853
G01 X1.0211 Y7.2704
G01 X1.0405 Y7.2558
G01 X1.0597 Y7.2422
G01 X1.0796 Y7.2296
G01 X1.1005 Y7.2173
G01 X1.1108 Y7.2116
G01 X1.1319 Y7.2010
G01 X1.1539 Y7.1908
G01 X1.1756 Y7.1818
G01 X1.1984 Y7.1735
G01 X1.2208 Y7.1661
G01 X1.2435 Y7.1598
G01 X1.2670 Y7.1540
G01 X1.2901 Y7.1494
G01 X1.3018 Y7.1476
G01 X1.3258 Y7.1442
G01 X1.3492 Y7.1418
G01 X1.3734 Y7.1405
G01 X1.3970 Y7.1399
G01 X7.1399 Y7.1399
G01 X7.1399 Y1.3970
G01 X7.1411 Y1.3610
G01 X7.1429 Y1.3375
G01 X7.1442 Y1.3258
G01 X7.1476 Y1.3018
G01 X7.1516 Y1.2786
G01 X7.1568 Y1.2556
G01 X7.1628 Y1.2321
G01 X7.1696 Y1.2095
G01 X7.1777 Y1.1867
G01 X7.1818 Y1.1756
G01 X7.1908 Y1.1539
G01 X7.2010 Y1.1319
G01 X7.2116 Y1.1108
G01 X7.2232 Y1.0903
G01 X7.2358 Y1.0696
G01 X7.2489 Y1.0500
G01 X7.2558 Y1.0405
G01 X7.2777 Y1.0119
G01 X7.2931 Y0.9940
G01 X7.3095 Y0.9762
G01 X7.3262 Y0.9595
G01 X7.3440 Y0.9431
G01 X7.3619 Y0.9277
G01 X7.3711 Y0.9204
G01 X7.3905 Y0.9058
G01 X7.4097 Y0.8922
G01 X7.4296 Y0.8796
G01 X7.4505 Y0.8673
G01 X7.4713 Y0.8562
G01 X7.4931 Y0.8457
G01 X7.5147 Y0.8361
G01 X7.5256 Y0.8318
G01 X7.5484 Y0.8235
G01 X7.5708 Y0.8161
G01 X7.6056 Y0.8068
G01 X7.6286 Y0.8016
G01 X7.6518 Y0.7976
G01 X7.6875 Y0.7929
G01 X7.7234 Y0.7905
G01 X7.7470 Y0.7899
G01 X17.6530 Y0.7899
G01 X17.6766 Y0.7905
G01 X17.7008 Y0.7918
G01 X17.7242 Y0.7942
G01 X17.7482 Y0.7976
G01 X17.7714 Y0.8016
G01 X17.7944 Y0.8068
G01 X17.8179 Y0.8128
G01 X17.8405 Y0.8196
G01 X17.8633 Y0.8277
G01 X17.8853 Y0.8361
G01 X17.9069 Y0.8457
G01 X17.9287 Y0.8562
G01 X17.9495 Y0.8673
G01 X17.9704 Y0.8796
G01 X17.9903 Y0.8922
G01 X18.0095 Y0.9058
G01 X18.0289 Y0.9204
G01 X18.0471 Y0.9353
G01 X18.0652 Y0.9515
G01 X18.0823 Y0.9677
G01 X18.0985 Y0.9848
G01 X18.1147 Y1.0029
G01 X18.1296 Y1.0211
G01 X18.1442 Y1.0405
G01 X18.1578 Y1.0597
G01 X18.1704 Y1.0796
G01 X18.1827 Y1.1005
G01 X18.1938 Y1.1213
G01 X18.2043 Y1.1431
G01 X18.2139 Y1.1647
G01 X18.2223 Y1.1867
G01 X18.2304 Y1.2095
G01 X18.2372 Y1.2321
G01 X18.2402 Y1.2435
G01 X18.2460 Y1.2670
G01 X18.2506 Y1.2901
G01 X18.2543 Y1.3141
G01 X18.2571 Y1.3375
G01 X18.2589 Y1.3610
G01 X18.2599 Y1.3852
G01 X18.2601 Y12.2199
G01 X24.0030 Y12.2199
G01 X24.0266 Y12.2205
G01 X24.0508 Y12.2218
G01 X24.0742 Y12.2242
G01 X24.1099 Y12.2294
G01 X24.1330 Y12.2340
G01 X24.1565 Y12.2398
G01 X24.1792 Y12.2461
G01 X24.2016 Y12.2535
G01 X24.2244 Y12.2618
G01 X24.2461 Y12.2708
G01 X24.2681 Y12.2810
G01 X24.2892 Y12.2916
G01 X24.3204 Y12.3096
G01 X24.3403 Y12.3222
G01 X24.3595 Y12.3358
G01 X24.3881 Y12.3577
G01 X24.4060 Y12.3731
G01 X24.4238 Y12.3895
G01 X24.4405 Y12.4062
G01 X24.4569 Y12.4240
G01 X24.4723 Y12.4419
G01 X24.4868 Y12.4605
G01 X24.5011 Y12.4800
G01 X24.5142 Y12.4996
G01 X24.5327 Y12.5305
G01 X24.5438 Y12.5513
G01 X24.5543 Y12.5731
G01 X24.5639 Y12.5947
G01 X24.5765 Y12.6284
G01 X24.5839 Y12.6508
G01 X24.5932 Y12.6856
G01 X24.5984 Y12.7086
G01 X24.6024 Y12.7318
G01 X24.6058 Y12.7558
G01 X24.6082 Y12.7792
G01 X24.6089 Y12.7910
G01 X24.6101 Y12.8270
G01 X24.6099 Y27.7340
G01 X24.6089 Y27.7581
G01 X24.6072 Y27.7815
G01 X24.6025 Y27.8170
G01 X24.5985 Y27.8402
G01 X24.5961 Y27.8516
G01 X24.5904 Y27.8751
G01 X24.5841 Y27.8977
G01 X24.5768 Y27.9200
G01 X24.5686 Y27.9427
G01 X24.5596 Y27.9644
G01 X24.5495 Y27.9863
G01 X24.5390 Y28.0073
G01 X24.5333 Y28.0176
G01 X24.5211 Y28.0384
G01 X24.5086 Y28.0582
G01 X24.4951 Y28.0775
G01 X24.4807 Y28.0968
G01 X24.4659 Y28.1150
G01 X24.4498 Y28.1330
G01 X24.4337 Y28.1501
G01 X24.4253 Y28.1583
G01 X24.4076 Y28.1747
G01 X24.3899 Y28.1901
G01 X24.3714 Y28.2046
G01 X24.3520 Y28.2189
G01 X24.3325 Y28.2320
G01 X24.3226 Y28.2382
G01 X24.3019 Y28.2506
G01 X24.2812 Y28.2617
