(G-CODE GENERATED BY FLATCAM v8.994 - www.flatcam.org - Version Date: 2020/11/7)

(Name: zvire-vetrnik-current-sensor-opamp.drl_mill_cnc)
(Type: G-code from Geometry)
(Units: MM)

(Created on Sobota, 04 února 2023 at 20:25)

(This preprocessor is the default preprocessor used by FlatCAM.)
(It is made to work with MACH3 compatible motion controllers.)

(TOOL DIAMETER: 1.0 mm)
(Feedrate_XY: 60.0 mm/min)
(Feedrate_Z: 25.0 mm/min)
(Feedrate rapids 1500.0 mm/min)

(Z_Cut: -1.6 mm)
(Z_Move: 2.0 mm)
(Z Start: None mm)
(Z End: 5.0 mm)
(X,Y End: None mm)
(Steps per circle: 64)
(Preprocessor Geometry: default)

(X range:    3.9800 ...   52.5850  mm)
(Y range:    2.7100 ...   21.4200  mm)

(Spindle Speed: 10000.0 RPM)
G21
G90
G94

G01 F60.00

M5
G00 Z15.0000
G00 X0.0000 Y0.0000
T1
M6    
(MSG, Change to Tool Dia = 1.0000)
M0
G00 Z15.0000

M03 S10000.0
G4 P1.0
G01 F60.00
G00 X6.1800 Y20.3200
G01 F25.00
G01 Z-1.6000
G01 F60.00
G01 X6.1747 Y20.2122
G01 X6.1589 Y20.1054
G01 X6.1326 Y20.0007
G01 X6.0963 Y19.8990
G01 X6.0501 Y19.8015
G01 X5.9946 Y19.7089
G01 X5.9303 Y19.6222
G01 X5.8578 Y19.5422
G01 X5.7778 Y19.4697
G01 X5.6911 Y19.4054
G01 X5.5985 Y19.3499
G01 X5.5010 Y19.3037
G01 X5.3993 Y19.2674
G01 X5.2946 Y19.2411
G01 X5.1878 Y19.2253
G01 X5.0800 Y19.2200
G01 X4.9722 Y19.2253
G01 X4.8654 Y19.2411
G01 X4.7607 Y19.2674
G01 X4.6590 Y19.3037
G01 X4.5615 Y19.3499
G01 X4.4689 Y19.4054
G01 X4.3822 Y19.4697
G01 X4.3022 Y19.5422
G01 X4.2297 Y19.6222
G01 X4.1654 Y19.7089
G01 X4.1099 Y19.8015
G01 X4.0637 Y19.8990
G01 X4.0274 Y20.0007
G01 X4.0011 Y20.1054
G01 X3.9853 Y20.2122
G01 X3.9800 Y20.3200
G01 X3.9853 Y20.4278
G01 X4.0011 Y20.5346
G01 X4.0274 Y20.6393
G01 X4.0637 Y20.7410
G01 X4.1099 Y20.8385
G01 X4.1654 Y20.9311
G01 X4.2297 Y21.0178
G01 X4.3022 Y21.0978
G01 X4.3822 Y21.1703
G01 X4.4689 Y21.2346
G01 X4.5615 Y21.2901
G01 X4.6590 Y21.3363
G01 X4.7607 Y21.3726
G01 X4.8654 Y21.3989
G01 X4.9722 Y21.4147
G01 X5.0800 Y21.4200
G01 X5.1878 Y21.4147
G01 X5.2946 Y21.3989
G01 X5.3993 Y21.3726
G01 X5.5010 Y21.3363
G01 X5.5985 Y21.2901
G01 X5.6911 Y21.2346
G01 X5.7778 Y21.1703
G01 X5.8578 Y21.0978
G01 X5.9303 Y21.0178
G01 X5.9946 Y20.9311
G01 X6.0501 Y20.8385
G01 X6.0963 Y20.7410
G01 X6.1326 Y20.6393
G01 X6.1589 Y20.5346
G01 X6.1747 Y20.4278
G01 X6.1800 Y20.3200
G00 Z2.0000
G00 X36.3300 Y13.9700
G01 F25.00
G01 Z-1.6000
G01 F60.00
G01 X36.3263 Y13.8945
G01 X36.3152 Y13.8198
G01 X36.2968 Y13.7465
G01 X36.2714 Y13.6753
G01 X36.2391 Y13.6070
G01 X36.2002 Y13.5422
G01 X36.1552 Y13.4815
G01 X36.1045 Y13.4255
G01 X36.0485 Y13.3748
G01 X35.9878 Y13.3298
G01 X35.9230 Y13.2909
G01 X35.8547 Y13.2586
G01 X35.7835 Y13.2332
G01 X35.7102 Y13.2148
G01 X35.6355 Y13.2037
G01 X35.5600 Y13.2000
G01 X35.4845 Y13.2037
G01 X35.4098 Y13.2148
G01 X35.3365 Y13.2332
G01 X35.2653 Y13.2586
G01 X35.1970 Y13.2909
G01 X35.1322 Y13.3298
G01 X35.0715 Y13.3748
G01 X35.0155 Y13.4255
G01 X34.9648 Y13.4815
G01 X34.9198 Y13.5422
G01 X34.8809 Y13.6070
G01 X34.8486 Y13.6753
G01 X34.8232 Y13.7465
G01 X34.8048 Y13.8198
G01 X34.7937 Y13.8945
G01 X34.7900 Y13.9700
G01 X34.7937 Y14.0455
G01 X34.8048 Y14.1202
G01 X34.8232 Y14.1935
G01 X34.8486 Y14.2647
G01 X34.8809 Y14.3330
G01 X34.9198 Y14.3978
G01 X34.9648 Y14.4585
G01 X35.0155 Y14.5145
G01 X35.0715 Y14.5652
G01 X35.1322 Y14.6102
G01 X35.1970 Y14.6491
G01 X35.2653 Y14.6814
G01 X35.3365 Y14.7068
G01 X35.4098 Y14.7252
G01 X35.4845 Y14.7363
G01 X35.5600 Y14.7400
G01 X35.6355 Y14.7363
G01 X35.7102 Y14.7252
G01 X35.7835 Y14.7068
G01 X35.8547 Y14.6814
G01 X35.9230 Y14.6491
G01 X35.9878 Y14.6102
G01 X36.0485 Y14.5652
G01 X36.1045 Y14.5145
G01 X36.1552 Y14.4585
G01 X36.2002 Y14.3978
G01 X36.2391 Y14.3330
G01 X36.2714 Y14.2647
G01 X36.2968 Y14.1935
G01 X36.3152 Y14.1202
G01 X36.3263 Y14.0455
G01 X36.3300 Y13.9700
G00 Z2.0000
G00 X39.2000 Y3.8100
G01 F25.00
G01 Z-1.6000
G01 F60.00
G01 X39.1947 Y3.7022
G01 X39.1789 Y3.5954
G01 X39.1526 Y3.4907
G01 X39.1163 Y3.3890
G01 X39.0701 Y3.2915
G01 X39.0146 Y3.1989
G01 X38.9503 Y3.1122
G01 X38.8778 Y3.0322
G01 X38.7978 Y2.9597
G01 X38.7111 Y2.8954
G01 X38.6185 Y2.8399
G01 X38.5210 Y2.7937
G01 X38.4193 Y2.7574
G01 X38.3146 Y2.7311
G01 X38.2078 Y2.7153
G01 X38.1000 Y2.7100
G01 X37.9922 Y2.7153
G01 X37.8854 Y2.7311
G01 X37.7807 Y2.7574
G01 X37.6790 Y2.7937
G01 X37.5815 Y2.8399
G01 X37.4889 Y2.8954
G01 X37.4022 Y2.9597
G01 X37.3222 Y3.0322
G01 X37.2497 Y3.1122
G01 X37.1854 Y3.1989
G01 X37.1299 Y3.2915
G01 X37.0837 Y3.3890
G01 X37.0474 Y3.4907
G01 X37.0211 Y3.5954
G01 X37.0053 Y3.7022
G01 X37.0000 Y3.8100
G01 X37.0053 Y3.9178
G01 X37.0211 Y4.0246
G01 X37.0474 Y4.1293
G01 X37.0837 Y4.2310
G01 X37.1299 Y4.3285
G01 X37.1854 Y4.4211
G01 X37.2497 Y4.5078
G01 X37.3222 Y4.5878
G01 X37.4022 Y4.6603
G01 X37.4889 Y4.7246
G01 X37.5815 Y4.7801
G01 X37.6790 Y4.8263
G01 X37.7807 Y4.8626
G01 X37.8854 Y4.8889
G01 X37.9922 Y4.9047
G01 X38.1000 Y4.9100
G01 X38.2078 Y4.9047
G01 X38.3146 Y4.8889
G01 X38.4193 Y4.8626
G01 X38.5210 Y4.8263
G01 X38.6185 Y4.7801
G01 X38.7111 Y4.7246
G01 X38.7978 Y4.6603
G01 X38.8778 Y4.5878
G01 X38.9503 Y4.5078
G01 X39.0146 Y4.4211
G01 X39.0701 Y4.3285
G01 X39.1163 Y4.2310
G01 X39.1526 Y4.1293
G01 X39.1789 Y4.0246
G01 X39.1947 Y3.9178
G01 X39.2000 Y3.8100
G00 Z2.0000
G00 X52.5850 Y13.9700
G01 F25.00
G01 Z-1.6000
G01 F60.00
G01 X52.5642 Y13.5461
G01 X52.5019 Y13.1262
G01 X52.3988 Y12.7145
G01 X52.2558 Y12.3149
G01 X52.0743 Y11.9312
G01 X51.8561 Y11.5672
G01 X51.6033 Y11.2262
G01 X51.3182 Y10.9118
G01 X51.0038 Y10.6267
G01 X50.6628 Y10.3739
G01 X50.2988 Y10.1557
G01 X49.9151 Y9.9742
G01 X49.5155 Y9.8312
G01 X49.1038 Y9.7281
G01 X48.6839 Y9.6658
G01 X48.2600 Y9.6450
G01 X47.8361 Y9.6658
G01 X47.4162 Y9.7281
G01 X47.0045 Y9.8312
G01 X46.6049 Y9.9742
G01 X46.2212 Y10.1557
G01 X45.8572 Y10.3739
G01 X45.5162 Y10.6267
G01 X45.2018 Y10.9118
G01 X44.9167 Y11.2262
G01 X44.6639 Y11.5672
G01 X44.4457 Y11.9312
G01 X44.2642 Y12.3149
G01 X44.1212 Y12.7145
G01 X44.0181 Y13.1262
G01 X43.9558 Y13.5461
G01 X43.9350 Y13.9700
G01 X43.9558 Y14.3939
G01 X44.0181 Y14.8138
G01 X44.1212 Y15.2255
G01 X44.2642 Y15.6251
G01 X44.4457 Y16.0088
G01 X44.6639 Y16.3728
G01 X44.9167 Y16.7138
G01 X45.2018 Y17.0282
G01 X45.5162 Y17.3133
G01 X45.8572 Y17.5661
G01 X46.2212 Y17.7843
G01 X46.6049 Y17.9658
G01 X47.0045 Y18.1088
G01 X47.4162 Y18.2119
G01 X47.8361 Y18.2742
G01 X48.2600 Y18.2950
G01 X48.6839 Y18.2742
G01 X49.1038 Y18.2119
G01 X49.5155 Y18.1088
G01 X49.9151 Y17.9658
G01 X50.2988 Y17.7843
G01 X50.6628 Y17.5661
G01 X51.0038 Y17.3133
G01 X51.3182 Y17.0282
G01 X51.6033 Y16.7138
G01 X51.8561 Y16.3728
G01 X52.0743 Y16.0088
G01 X52.2558 Y15.6251
G01 X52.3988 Y15.2255
G01 X52.5019 Y14.8138
G01 X52.5642 Y14.3939
G01 X52.5850 Y13.9700
G00 Z2.0000
M05
G00 Z2.0000
G00 Z5.00


