(G-CODE GENERATED BY FLATCAM v8.994 - www.flatcam.org - Version Date: 2020/11/7)

(Name: zvire-vetrnik-power.drl_mill_cnc)
(Type: G-code from Geometry)
(Units: MM)

(Created on Čtvrtek, 01 září 2022 at 17:34)

(This preprocessor is used with a motion controller loaded with GRBL firmware.)
(It is configured to be compatible with almost any version of GRBL firmware.)

(TOOL DIAMETER: 1.0 mm)
(Feedrate_XY: 50.0 mm/min)
(Feedrate_Z: 20.0 mm/min)
(Feedrate rapids 1500.0 mm/min)

(Z_Cut: -1.6 mm)
(Z_Move: 2.0 mm)
(Z Start: None mm)
(Z End: 5.0 mm)
(X,Y End: None mm)
(Steps per circle: 64)
(Steps per circle: 64)
(Preprocessor Geometry: GRBL_11_no_M6)

(X range:    2.7100 ...  121.7500  mm)
(Y range:  -96.3500 ...   -3.9800  mm)

(Spindle Speed: 10000.0 RPM)
G21
G90
G17
G94


G01 F50.00

M5             
G00 Z15.0000
G00 X0.0000 Y0.0000                
T1
(MSG, Change to Tool Dia = 1.0000)
M0
G00 Z15.0000
        
M03 S10000.0
G4 P1.0
G01 F50.00
G00 X4.9100 Y-5.0800
G01 F20.00
G01 Z-1.6000
G01 F50.00
G01 X4.9047 Y-5.1878 F50.00
G01 X4.8889 Y-5.2946 F50.00
G01 X4.8626 Y-5.3993 F50.00
G01 X4.8263 Y-5.5010 F50.00
G01 X4.7801 Y-5.5985 F50.00
G01 X4.7246 Y-5.6911 F50.00
G01 X4.6603 Y-5.7778 F50.00
G01 X4.5878 Y-5.8578 F50.00
G01 X4.5078 Y-5.9303 F50.00
G01 X4.4211 Y-5.9946 F50.00
G01 X4.3285 Y-6.0501 F50.00
G01 X4.2310 Y-6.0963 F50.00
G01 X4.1293 Y-6.1326 F50.00
G01 X4.0246 Y-6.1589 F50.00
G01 X3.9178 Y-6.1747 F50.00
G01 X3.8100 Y-6.1800 F50.00
G01 X3.7022 Y-6.1747 F50.00
G01 X3.5954 Y-6.1589 F50.00
G01 X3.4907 Y-6.1326 F50.00
G01 X3.3890 Y-6.0963 F50.00
G01 X3.2915 Y-6.0501 F50.00
G01 X3.1989 Y-5.9946 F50.00
G01 X3.1122 Y-5.9303 F50.00
G01 X3.0322 Y-5.8578 F50.00
G01 X2.9597 Y-5.7778 F50.00
G01 X2.8954 Y-5.6911 F50.00
G01 X2.8399 Y-5.5985 F50.00
G01 X2.7937 Y-5.5010 F50.00
G01 X2.7574 Y-5.3993 F50.00
G01 X2.7311 Y-5.2946 F50.00
G01 X2.7153 Y-5.1878 F50.00
G01 X2.7100 Y-5.0800 F50.00
G01 X2.7153 Y-4.9722 F50.00
G01 X2.7311 Y-4.8654 F50.00
G01 X2.7574 Y-4.7607 F50.00
G01 X2.7937 Y-4.6590 F50.00
G01 X2.8399 Y-4.5615 F50.00
G01 X2.8954 Y-4.4689 F50.00
G01 X2.9597 Y-4.3822 F50.00
G01 X3.0322 Y-4.3022 F50.00
G01 X3.1122 Y-4.2297 F50.00
G01 X3.1989 Y-4.1654 F50.00
G01 X3.2915 Y-4.1099 F50.00
G01 X3.3890 Y-4.0637 F50.00
G01 X3.4907 Y-4.0274 F50.00
G01 X3.5954 Y-4.0011 F50.00
G01 X3.7022 Y-3.9853 F50.00
G01 X3.8100 Y-3.9800 F50.00
G01 X3.9178 Y-3.9853 F50.00
G01 X4.0246 Y-4.0011 F50.00
G01 X4.1293 Y-4.0274 F50.00
G01 X4.2310 Y-4.0637 F50.00
G01 X4.3285 Y-4.1099 F50.00
G01 X4.4211 Y-4.1654 F50.00
G01 X4.5078 Y-4.2297 F50.00
G01 X4.5878 Y-4.3022 F50.00
G01 X4.6603 Y-4.3822 F50.00
G01 X4.7246 Y-4.4689 F50.00
G01 X4.7801 Y-4.5615 F50.00
G01 X4.8263 Y-4.6590 F50.00
G01 X4.8626 Y-4.7607 F50.00
G01 X4.8889 Y-4.8654 F50.00
G01 X4.9047 Y-4.9722 F50.00
G01 X4.9100 Y-5.0800 F50.00
G00 Z2.0000
G00 X11.9300 Y-19.0500
G01 F20.00
G01 Z-1.6000
G01 F50.00
G01 X11.9276 Y-19.0990 F50.00
G01 X11.9204 Y-19.1475 F50.00
G01 X11.9085 Y-19.1951 F50.00
G01 X11.8919 Y-19.2413 F50.00
G01 X11.8710 Y-19.2857 F50.00
G01 X11.8457 Y-19.3278 F50.00
G01 X11.8165 Y-19.3672 F50.00
G01 X11.7836 Y-19.4036 F50.00
G01 X11.7472 Y-19.4365 F50.00
G01 X11.7078 Y-19.4657 F50.00
G01 X11.6657 Y-19.4910 F50.00
G01 X11.6213 Y-19.5119 F50.00
G01 X11.5751 Y-19.5285 F50.00
G01 X11.5275 Y-19.5404 F50.00
G01 X11.4790 Y-19.5476 F50.00
G01 X11.4300 Y-19.5500 F50.00
G01 X11.3810 Y-19.5476 F50.00
G01 X11.3325 Y-19.5404 F50.00
G01 X11.2849 Y-19.5285 F50.00
G01 X11.2387 Y-19.5119 F50.00
G01 X11.1943 Y-19.4910 F50.00
G01 X11.1522 Y-19.4657 F50.00
G01 X11.1128 Y-19.4365 F50.00
G01 X11.0764 Y-19.4036 F50.00
G01 X11.0435 Y-19.3672 F50.00
G01 X11.0143 Y-19.3278 F50.00
G01 X10.9890 Y-19.2857 F50.00
G01 X10.9681 Y-19.2413 F50.00
G01 X10.9515 Y-19.1951 F50.00
G01 X10.9396 Y-19.1475 F50.00
G01 X10.9324 Y-19.0990 F50.00
G01 X10.9300 Y-19.0500 F50.00
G01 X10.9324 Y-19.0010 F50.00
G01 X10.9396 Y-18.9525 F50.00
G01 X10.9515 Y-18.9049 F50.00
G01 X10.9681 Y-18.8587 F50.00
G01 X10.9890 Y-18.8143 F50.00
G01 X11.0143 Y-18.7722 F50.00
G01 X11.0435 Y-18.7328 F50.00
G01 X11.0764 Y-18.6964 F50.00
G01 X11.1128 Y-18.6635 F50.00
G01 X11.1522 Y-18.6343 F50.00
G01 X11.1943 Y-18.6090 F50.00
G01 X11.2387 Y-18.5881 F50.00
G01 X11.2849 Y-18.5715 F50.00
G01 X11.3325 Y-18.5596 F50.00
G01 X11.3810 Y-18.5524 F50.00
G01 X11.4300 Y-18.5500 F50.00
G01 X11.4790 Y-18.5524 F50.00
G01 X11.5275 Y-18.5596 F50.00
G01 X11.5751 Y-18.5715 F50.00
G01 X11.6213 Y-18.5881 F50.00
G01 X11.6657 Y-18.6090 F50.00
G01 X11.7078 Y-18.6343 F50.00
G01 X11.7472 Y-18.6635 F50.00
G01 X11.7836 Y-18.6964 F50.00
G01 X11.8165 Y-18.7328 F50.00
G01 X11.8457 Y-18.7722 F50.00
G01 X11.8710 Y-18.8143 F50.00
G01 X11.8919 Y-18.8587 F50.00
G01 X11.9085 Y-18.9049 F50.00
G01 X11.9204 Y-18.9525 F50.00
G01 X11.9276 Y-19.0010 F50.00
G01 X11.9300 Y-19.0500 F50.00
G00 Z2.0000
G00 X21.9300 Y-19.0500
G01 F20.00
G01 Z-1.6000
G01 F50.00
G01 X21.9276 Y-19.0990 F50.00
G01 X21.9204 Y-19.1475 F50.00
G01 X21.9085 Y-19.1951 F50.00
G01 X21.8919 Y-19.2413 F50.00
G01 X21.8710 Y-19.2857 F50.00
G01 X21.8457 Y-19.3278 F50.00
G01 X21.8165 Y-19.3672 F50.00
G01 X21.7836 Y-19.4036 F50.00
G01 X21.7472 Y-19.4365 F50.00
G01 X21.7078 Y-19.4657 F50.00
G01 X21.6657 Y-19.4910 F50.00
G01 X21.6213 Y-19.5119 F50.00
G01 X21.5751 Y-19.5285 F50.00
G01 X21.5275 Y-19.5404 F50.00
G01 X21.4790 Y-19.5476 F50.00
G01 X21.4300 Y-19.5500 F50.00
G01 X21.3810 Y-19.5476 F50.00
G01 X21.3325 Y-19.5404 F50.00
G01 X21.2849 Y-19.5285 F50.00
G01 X21.2387 Y-19.5119 F50.00
G01 X21.1943 Y-19.4910 F50.00
G01 X21.1522 Y-19.4657 F50.00
G01 X21.1128 Y-19.4365 F50.00
G01 X21.0764 Y-19.4036 F50.00
G01 X21.0435 Y-19.3672 F50.00
G01 X21.0143 Y-19.3278 F50.00
G01 X20.9890 Y-19.2857 F50.00
G01 X20.9681 Y-19.2413 F50.00
G01 X20.9515 Y-19.1951 F50.00
G01 X20.9396 Y-19.1475 F50.00
G01 X20.9324 Y-19.0990 F50.00
G01 X20.9300 Y-19.0500 F50.00
G01 X20.9324 Y-19.0010 F50.00
G01 X20.9396 Y-18.9525 F50.00
G01 X20.9515 Y-18.9049 F50.00
G01 X20.9681 Y-18.8587 F50.00
G01 X20.9890 Y-18.8143 F50.00
G01 X21.0143 Y-18.7722 F50.00
G01 X21.0435 Y-18.7328 F50.00
G01 X21.0764 Y-18.6964 F50.00
G01 X21.1128 Y-18.6635 F50.00
G01 X21.1522 Y-18.6343 F50.00
G01 X21.1943 Y-18.6090 F50.00
G01 X21.2387 Y-18.5881 F50.00
G01 X21.2849 Y-18.5715 F50.00
G01 X21.3325 Y-18.5596 F50.00
G01 X21.3810 Y-18.5524 F50.00
G01 X21.4300 Y-18.5500 F50.00
G01 X21.4790 Y-18.5524 F50.00
G01 X21.5275 Y-18.5596 F50.00
G01 X21.5751 Y-18.5715 F50.00
G01 X21.6213 Y-18.5881 F50.00
G01 X21.6657 Y-18.6090 F50.00
G01 X21.7078 Y-18.6343 F50.00
G01 X21.7472 Y-18.6635 F50.00
G01 X21.7836 Y-18.6964 F50.00
G01 X21.8165 Y-18.7328 F50.00
G01 X21.8457 Y-18.7722 F50.00
G01 X21.8710 Y-18.8143 F50.00
G01 X21.8919 Y-18.8587 F50.00
G01 X21.9085 Y-18.9049 F50.00
G01 X21.9204 Y-18.9525 F50.00
G01 X21.9276 Y-19.0010 F50.00
G01 X21.9300 Y-19.0500 F50.00
G00 Z2.0000
G00 X22.0900 Y-50.8000
G01 F20.00
G01 Z-1.6000
G01 F50.00
G01 X22.0876 Y-50.8490 F50.00
G01 X22.0804 Y-50.8975 F50.00
G01 X22.0685 Y-50.9451 F50.00
G01 X22.0519 Y-50.9913 F50.00
G01 X22.0310 Y-51.0357 F50.00
G01 X22.0057 Y-51.0778 F50.00
G01 X21.9765 Y-51.1172 F50.00
G01 X21.9436 Y-51.1536 F50.00
G01 X21.9072 Y-51.1865 F50.00
G01 X21.8678 Y-51.2157 F50.00
G01 X21.8257 Y-51.2410 F50.00
G01 X21.7813 Y-51.2619 F50.00
G01 X21.7351 Y-51.2785 F50.00
G01 X21.6875 Y-51.2904 F50.00
G01 X21.6390 Y-51.2976 F50.00
G01 X21.5900 Y-51.3000 F50.00
G01 X21.5410 Y-51.2976 F50.00
G01 X21.4925 Y-51.2904 F50.00
G01 X21.4449 Y-51.2785 F50.00
G01 X21.3987 Y-51.2619 F50.00
G01 X21.3543 Y-51.2410 F50.00
G01 X21.3122 Y-51.2157 F50.00
G01 X21.2728 Y-51.1865 F50.00
G01 X21.2364 Y-51.1536 F50.00
G01 X21.2035 Y-51.1172 F50.00
G01 X21.1743 Y-51.0778 F50.00
G01 X21.1490 Y-51.0357 F50.00
G01 X21.1281 Y-50.9913 F50.00
G01 X21.1115 Y-50.9451 F50.00
G01 X21.0996 Y-50.8975 F50.00
G01 X21.0924 Y-50.8490 F50.00
G01 X21.0900 Y-50.8000 F50.00
G01 X21.0924 Y-50.7510 F50.00
G01 X21.0996 Y-50.7025 F50.00
G01 X21.1115 Y-50.6549 F50.00
G01 X21.1281 Y-50.6087 F50.00
G01 X21.1490 Y-50.5643 F50.00
G01 X21.1743 Y-50.5222 F50.00
G01 X21.2035 Y-50.4828 F50.00
G01 X21.2364 Y-50.4464 F50.00
G01 X21.2728 Y-50.4135 F50.00
G01 X21.3122 Y-50.3843 F50.00
G01 X21.3543 Y-50.3590 F50.00
G01 X21.3987 Y-50.3381 F50.00
G01 X21.4449 Y-50.3215 F50.00
G01 X21.4925 Y-50.3096 F50.00
G01 X21.5410 Y-50.3024 F50.00
G01 X21.5900 Y-50.3000 F50.00
G01 X21.6390 Y-50.3024 F50.00
G01 X21.6875 Y-50.3096 F50.00
G01 X21.7351 Y-50.3215 F50.00
G01 X21.7813 Y-50.3381 F50.00
G01 X21.8257 Y-50.3590 F50.00
G01 X21.8678 Y-50.3843 F50.00
G01 X21.9072 Y-50.4135 F50.00
G01 X21.9436 Y-50.4464 F50.00
G01 X21.9765 Y-50.4828 F50.00
G01 X22.0057 Y-50.5222 F50.00
G01 X22.0310 Y-50.5643 F50.00
G01 X22.0519 Y-50.6087 F50.00
G01 X22.0685 Y-50.6549 F50.00
G01 X22.0804 Y-50.7025 F50.00
G01 X22.0876 Y-50.7510 F50.00
G01 X22.0900 Y-50.8000 F50.00
G00 Z2.0000
G00 X12.0900 Y-50.8000
G01 F20.00
G01 Z-1.6000
G01 F50.00
G01 X12.0876 Y-50.8490 F50.00
G01 X12.0804 Y-50.8975 F50.00
G01 X12.0685 Y-50.9451 F50.00
G01 X12.0519 Y-50.9913 F50.00
G01 X12.0310 Y-51.0357 F50.00
G01 X12.0057 Y-51.0778 F50.00
G01 X11.9765 Y-51.1172 F50.00
G01 X11.9436 Y-51.1536 F50.00
G01 X11.9072 Y-51.1865 F50.00
G01 X11.8678 Y-51.2157 F50.00
G01 X11.8257 Y-51.2410 F50.00
G01 X11.7813 Y-51.2619 F50.00
G01 X11.7351 Y-51.2785 F50.00
G01 X11.6875 Y-51.2904 F50.00
G01 X11.6390 Y-51.2976 F50.00
G01 X11.5900 Y-51.3000 F50.00
G01 X11.5410 Y-51.2976 F50.00
G01 X11.4925 Y-51.2904 F50.00
G01 X11.4449 Y-51.2785 F50.00
G01 X11.3987 Y-51.2619 F50.00
G01 X11.3543 Y-51.2410 F50.00
G01 X11.3122 Y-51.2157 F50.00
G01 X11.2728 Y-51.1865 F50.00
G01 X11.2364 Y-51.1536 F50.00
G01 X11.2035 Y-51.1172 F50.00
G01 X11.1743 Y-51.0778 F50.00
G01 X11.1490 Y-51.0357 F50.00
G01 X11.1281 Y-50.9913 F50.00
G01 X11.1115 Y-50.9451 F50.00
G01 X11.0996 Y-50.8975 F50.00
G01 X11.0924 Y-50.8490 F50.00
G01 X11.0900 Y-50.8000 F50.00
G01 X11.0924 Y-50.7510 F50.00
G01 X11.0996 Y-50.7025 F50.00
G01 X11.1115 Y-50.6549 F50.00
G01 X11.1281 Y-50.6087 F50.00
G01 X11.1490 Y-50.5643 F50.00
G01 X11.1743 Y-50.5222 F50.00
G01 X11.2035 Y-50.4828 F50.00
G01 X11.2364 Y-50.4464 F50.00
G01 X11.2728 Y-50.4135 F50.00
G01 X11.3122 Y-50.3843 F50.00
G01 X11.3543 Y-50.3590 F50.00
G01 X11.3987 Y-50.3381 F50.00
G01 X11.4449 Y-50.3215 F50.00
G01 X11.4925 Y-50.3096 F50.00
G01 X11.5410 Y-50.3024 F50.00
G01 X11.5900 Y-50.3000 F50.00
G01 X11.6390 Y-50.3024 F50.00
G01 X11.6875 Y-50.3096 F50.00
G01 X11.7351 Y-50.3215 F50.00
G01 X11.7813 Y-50.3381 F50.00
G01 X11.8257 Y-50.3590 F50.00
G01 X11.8678 Y-50.3843 F50.00
G01 X11.9072 Y-50.4135 F50.00
G01 X11.9436 Y-50.4464 F50.00
G01 X11.9765 Y-50.4828 F50.00
G01 X12.0057 Y-50.5222 F50.00
G01 X12.0310 Y-50.5643 F50.00
G01 X12.0519 Y-50.6087 F50.00
G01 X12.0685 Y-50.6549 F50.00
G01 X12.0804 Y-50.7025 F50.00
G01 X12.0876 Y-50.7510 F50.00
G01 X12.0900 Y-50.8000 F50.00
G00 Z2.0000
G00 X11.5800 Y-69.8500
G01 F20.00
G01 Z-1.6000
G01 F50.00
G01 X11.5793 Y-69.8647 F50.00
G01 X11.5771 Y-69.8793 F50.00
G01 X11.5735 Y-69.8935 F50.00
G01 X11.5686 Y-69.9074 F50.00
G01 X11.5623 Y-69.9207 F50.00
G01 X11.5547 Y-69.9333 F50.00
G01 X11.5460 Y-69.9452 F50.00
G01 X11.5361 Y-69.9561 F50.00
G01 X11.5252 Y-69.9660 F50.00
G01 X11.5133 Y-69.9747 F50.00
G01 X11.5007 Y-69.9823 F50.00
G01 X11.4874 Y-69.9886 F50.00
G01 X11.4735 Y-69.9935 F50.00
G01 X11.4593 Y-69.9971 F50.00
G01 X11.4447 Y-69.9993 F50.00
G01 X11.4300 Y-70.0000 F50.00
G01 X11.4153 Y-69.9993 F50.00
G01 X11.4007 Y-69.9971 F50.00
G01 X11.3865 Y-69.9935 F50.00
G01 X11.3726 Y-69.9886 F50.00
G01 X11.3593 Y-69.9823 F50.00
G01 X11.3467 Y-69.9747 F50.00
G01 X11.3348 Y-69.9660 F50.00
G01 X11.3239 Y-69.9561 F50.00
G01 X11.3140 Y-69.9452 F50.00
G01 X11.3053 Y-69.9333 F50.00
G01 X11.2977 Y-69.9207 F50.00
G01 X11.2914 Y-69.9074 F50.00
G01 X11.2865 Y-69.8935 F50.00
G01 X11.2829 Y-69.8793 F50.00
G01 X11.2807 Y-69.8647 F50.00
G01 X11.2800 Y-69.8500 F50.00
G01 X11.2807 Y-69.8353 F50.00
G01 X11.2829 Y-69.8207 F50.00
G01 X11.2865 Y-69.8065 F50.00
G01 X11.2914 Y-69.7926 F50.00
G01 X11.2977 Y-69.7793 F50.00
G01 X11.3053 Y-69.7667 F50.00
G01 X11.3140 Y-69.7548 F50.00
G01 X11.3239 Y-69.7439 F50.00
G01 X11.3348 Y-69.7340 F50.00
G01 X11.3467 Y-69.7253 F50.00
G01 X11.3593 Y-69.7177 F50.00
G01 X11.3726 Y-69.7114 F50.00
G01 X11.3865 Y-69.7065 F50.00
G01 X11.4007 Y-69.7029 F50.00
G01 X11.4153 Y-69.7007 F50.00
G01 X11.4300 Y-69.7000 F50.00
G01 X11.4447 Y-69.7007 F50.00
G01 X11.4593 Y-69.7029 F50.00
G01 X11.4735 Y-69.7065 F50.00
G01 X11.4874 Y-69.7114 F50.00
G01 X11.5007 Y-69.7177 F50.00
G01 X11.5133 Y-69.7253 F50.00
G01 X11.5252 Y-69.7340 F50.00
G01 X11.5361 Y-69.7439 F50.00
G01 X11.5460 Y-69.7548 F50.00
G01 X11.5547 Y-69.7667 F50.00
G01 X11.5623 Y-69.7793 F50.00
G01 X11.5686 Y-69.7926 F50.00
G01 X11.5735 Y-69.8065 F50.00
G01 X11.5771 Y-69.8207 F50.00
G01 X11.5793 Y-69.8353 F50.00
G01 X11.5800 Y-69.8500 F50.00
G00 Z2.0000
G00 X13.3100 Y-76.4000
G01 F20.00
G01 Z-1.6000
G01 F50.00
G01 X13.3078 Y-76.4441 F50.00
G01 X13.3014 Y-76.4878 F50.00
G01 X13.2906 Y-76.5306 F50.00
G01 X13.2757 Y-76.5722 F50.00
G01 X13.2569 Y-76.6121 F50.00
G01 X13.2342 Y-76.6500 F50.00
G01 X13.2079 Y-76.6855 F50.00
G01 X13.1782 Y-76.7182 F50.00
G01 X13.1455 Y-76.7479 F50.00
G01 X13.1100 Y-76.7742 F50.00
G01 X13.0721 Y-76.7969 F50.00
G01 X13.0322 Y-76.8157 F50.00
G01 X12.9906 Y-76.8306 F50.00
G01 X12.9478 Y-76.8414 F50.00
G01 X12.9041 Y-76.8478 F50.00
G01 X12.8600 Y-76.8500 F50.00
G01 X12.8159 Y-76.8478 F50.00
G01 X12.7722 Y-76.8414 F50.00
G01 X12.7294 Y-76.8306 F50.00
G01 X12.6878 Y-76.8157 F50.00
G01 X12.6479 Y-76.7969 F50.00
G01 X12.6100 Y-76.7742 F50.00
G01 X12.5745 Y-76.7479 F50.00
G01 X12.5418 Y-76.7182 F50.00
G01 X12.5121 Y-76.6855 F50.00
G01 X12.4858 Y-76.6500 F50.00
G01 X12.4631 Y-76.6121 F50.00
G01 X12.4443 Y-76.5722 F50.00
G01 X12.4294 Y-76.5306 F50.00
G01 X12.4186 Y-76.4878 F50.00
G01 X12.4122 Y-76.4441 F50.00
G01 X12.4100 Y-76.4000 F50.00
G01 X12.4122 Y-76.3559 F50.00
G01 X12.4186 Y-76.3122 F50.00
G01 X12.4294 Y-76.2694 F50.00
G01 X12.4443 Y-76.2278 F50.00
G01 X12.4631 Y-76.1879 F50.00
G01 X12.4858 Y-76.1500 F50.00
G01 X12.5121 Y-76.1145 F50.00
G01 X12.5418 Y-76.0818 F50.00
G01 X12.5745 Y-76.0521 F50.00
G01 X12.6100 Y-76.0258 F50.00
G01 X12.6479 Y-76.0031 F50.00
G01 X12.6878 Y-75.9843 F50.00
G01 X12.7294 Y-75.9694 F50.00
G01 X12.7722 Y-75.9586 F50.00
G01 X12.8159 Y-75.9522 F50.00
G01 X12.8600 Y-75.9500 F50.00
G01 X12.9041 Y-75.9522 F50.00
G01 X12.9478 Y-75.9586 F50.00
G01 X12.9906 Y-75.9694 F50.00
G01 X13.0322 Y-75.9843 F50.00
G01 X13.0721 Y-76.0031 F50.00
G01 X13.1100 Y-76.0258 F50.00
G01 X13.1455 Y-76.0521 F50.00
G01 X13.1782 Y-76.0818 F50.00
G01 X13.2079 Y-76.1145 F50.00
G01 X13.2342 Y-76.1500 F50.00
G01 X13.2569 Y-76.1879 F50.00
G01 X13.2757 Y-76.2278 F50.00
G01 X13.2906 Y-76.2694 F50.00
G01 X13.3014 Y-76.3122 F50.00
G01 X13.3078 Y-76.3559 F50.00
G01 X13.3100 Y-76.4000 F50.00
G00 Z2.0000
G00 X17.1100 Y-76.4000
G01 F20.00
G01 Z-1.6000
G01 F50.00
G01 X17.1078 Y-76.4441 F50.00
G01 X17.1014 Y-76.4878 F50.00
G01 X17.0906 Y-76.5306 F50.00
G01 X17.0757 Y-76.5722 F50.00
G01 X17.0569 Y-76.6121 F50.00
G01 X17.0342 Y-76.6500 F50.00
G01 X17.0079 Y-76.6855 F50.00
G01 X16.9782 Y-76.7182 F50.00
G01 X16.9455 Y-76.7479 F50.00
G01 X16.9100 Y-76.7742 F50.00
G01 X16.8721 Y-76.7969 F50.00
G01 X16.8322 Y-76.8157 F50.00
G01 X16.7906 Y-76.8306 F50.00
G01 X16.7478 Y-76.8414 F50.00
G01 X16.7041 Y-76.8478 F50.00
G01 X16.6600 Y-76.8500 F50.00
G01 X16.6159 Y-76.8478 F50.00
G01 X16.5722 Y-76.8414 F50.00
G01 X16.5294 Y-76.8306 F50.00
G01 X16.4878 Y-76.8157 F50.00
G01 X16.4479 Y-76.7969 F50.00
G01 X16.4100 Y-76.7742 F50.00
G01 X16.3745 Y-76.7479 F50.00
G01 X16.3418 Y-76.7182 F50.00
G01 X16.3121 Y-76.6855 F50.00
G01 X16.2858 Y-76.6500 F50.00
G01 X16.2631 Y-76.6121 F50.00
G01 X16.2443 Y-76.5722 F50.00
G01 X16.2294 Y-76.5306 F50.00
G01 X16.2186 Y-76.4878 F50.00
G01 X16.2122 Y-76.4441 F50.00
G01 X16.2100 Y-76.4000 F50.00
G01 X16.2122 Y-76.3559 F50.00
G01 X16.2186 Y-76.3122 F50.00
G01 X16.2294 Y-76.2694 F50.00
G01 X16.2443 Y-76.2278 F50.00
G01 X16.2631 Y-76.1879 F50.00
G01 X16.2858 Y-76.1500 F50.00
G01 X16.3121 Y-76.1145 F50.00
G01 X16.3418 Y-76.0818 F50.00
G01 X16.3745 Y-76.0521 F50.00
G01 X16.4100 Y-76.0258 F50.00
G01 X16.4479 Y-76.0031 F50.00
G01 X16.4878 Y-75.9843 F50.00
G01 X16.5294 Y-75.9694 F50.00
G01 X16.5722 Y-75.9586 F50.00
G01 X16.6159 Y-75.9522 F50.00
G01 X16.6600 Y-75.9500 F50.00
G01 X16.7041 Y-75.9522 F50.00
G01 X16.7478 Y-75.9586 F50.00
G01 X16.7906 Y-75.9694 F50.00
G01 X16.8322 Y-75.9843 F50.00
G01 X16.8721 Y-76.0031 F50.00
G01 X16.9100 Y-76.0258 F50.00
G01 X16.9455 Y-76.0521 F50.00
G01 X16.9782 Y-76.0818 F50.00
G01 X17.0079 Y-76.1145 F50.00
G01 X17.0342 Y-76.1500 F50.00
G01 X17.0569 Y-76.1879 F50.00
G01 X17.0757 Y-76.2278 F50.00
G01 X17.0906 Y-76.2694 F50.00
G01 X17.1014 Y-76.3122 F50.00
G01 X17.1078 Y-76.3559 F50.00
G01 X17.1100 Y-76.4000 F50.00
G00 Z2.0000
G00 X23.3100 Y-76.4000
G01 F20.00
G01 Z-1.6000
G01 F50.00
G01 X23.3078 Y-76.4441 F50.00
G01 X23.3014 Y-76.4878 F50.00
G01 X23.2906 Y-76.5306 F50.00
G01 X23.2757 Y-76.5722 F50.00
G01 X23.2569 Y-76.6121 F50.00
G01 X23.2342 Y-76.6500 F50.00
G01 X23.2079 Y-76.6855 F50.00
G01 X23.1782 Y-76.7182 F50.00
G01 X23.1455 Y-76.7479 F50.00
G01 X23.1100 Y-76.7742 F50.00
G01 X23.0721 Y-76.7969 F50.00
G01 X23.0322 Y-76.8157 F50.00
G01 X22.9906 Y-76.8306 F50.00
G01 X22.9478 Y-76.8414 F50.00
G01 X22.9041 Y-76.8478 F50.00
G01 X22.8600 Y-76.8500 F50.00
G01 X22.8159 Y-76.8478 F50.00
G01 X22.7722 Y-76.8414 F50.00
G01 X22.7294 Y-76.8306 F50.00
G01 X22.6878 Y-76.8157 F50.00
G01 X22.6479 Y-76.7969 F50.00
G01 X22.6100 Y-76.7742 F50.00
G01 X22.5745 Y-76.7479 F50.00
G01 X22.5418 Y-76.7182 F50.00
G01 X22.5121 Y-76.6855 F50.00
G01 X22.4858 Y-76.6500 F50.00
G01 X22.4631 Y-76.6121 F50.00
G01 X22.4443 Y-76.5722 F50.00
G01 X22.4294 Y-76.5306 F50.00
G01 X22.4186 Y-76.4878 F50.00
G01 X22.4122 Y-76.4441 F50.00
G01 X22.4100 Y-76.4000 F50.00
G01 X22.4122 Y-76.3559 F50.00
G01 X22.4186 Y-76.3122 F50.00
G01 X22.4294 Y-76.2694 F50.00
G01 X22.4443 Y-76.2278 F50.00
G01 X22.4631 Y-76.1879 F50.00
G01 X22.4858 Y-76.1500 F50.00
G01 X22.5121 Y-76.1145 F50.00
G01 X22.5418 Y-76.0818 F50.00
G01 X22.5745 Y-76.0521 F50.00
G01 X22.6100 Y-76.0258 F50.00
G01 X22.6479 Y-76.0031 F50.00
G01 X22.6878 Y-75.9843 F50.00
G01 X22.7294 Y-75.9694 F50.00
G01 X22.7722 Y-75.9586 F50.00
G01 X22.8159 Y-75.9522 F50.00
G01 X22.8600 Y-75.9500 F50.00
G01 X22.9041 Y-75.9522 F50.00
G01 X22.9478 Y-75.9586 F50.00
G01 X22.9906 Y-75.9694 F50.00
G01 X23.0322 Y-75.9843 F50.00
G01 X23.0721 Y-76.0031 F50.00
G01 X23.1100 Y-76.0258 F50.00
G01 X23.1455 Y-76.0521 F50.00
G01 X23.1782 Y-76.0818 F50.00
G01 X23.2079 Y-76.1145 F50.00
G01 X23.2342 Y-76.1500 F50.00
G01 X23.2569 Y-76.1879 F50.00
G01 X23.2757 Y-76.2278 F50.00
G01 X23.2906 Y-76.2694 F50.00
G01 X23.3014 Y-76.3122 F50.00
G01 X23.3078 Y-76.3559 F50.00
G01 X23.3100 Y-76.4000 F50.00
G00 Z2.0000
G00 X27.1100 Y-76.4000
G01 F20.00
G01 Z-1.6000
G01 F50.00
G01 X27.1078 Y-76.4441 F50.00
G01 X27.1014 Y-76.4878 F50.00
G01 X27.0906 Y-76.5306 F50.00
G01 X27.0757 Y-76.5722 F50.00
G01 X27.0569 Y-76.6121 F50.00
G01 X27.0342 Y-76.6500 F50.00
G01 X27.0079 Y-76.6855 F50.00
G01 X26.9782 Y-76.7182 F50.00
G01 X26.9455 Y-76.7479 F50.00
G01 X26.9100 Y-76.7742 F50.00
G01 X26.8721 Y-76.7969 F50.00
G01 X26.8322 Y-76.8157 F50.00
G01 X26.7906 Y-76.8306 F50.00
G01 X26.7478 Y-76.8414 F50.00
G01 X26.7041 Y-76.8478 F50.00
G01 X26.6600 Y-76.8500 F50.00
G01 X26.6159 Y-76.8478 F50.00
G01 X26.5722 Y-76.8414 F50.00
G01 X26.5294 Y-76.8306 F50.00
G01 X26.4878 Y-76.8157 F50.00
G01 X26.4479 Y-76.7969 F50.00
G01 X26.4100 Y-76.7742 F50.00
G01 X26.3745 Y-76.7479 F50.00
G01 X26.3418 Y-76.7182 F50.00
G01 X26.3121 Y-76.6855 F50.00
G01 X26.2858 Y-76.6500 F50.00
G01 X26.2631 Y-76.6121 F50.00
G01 X26.2443 Y-76.5722 F50.00
G01 X26.2294 Y-76.5306 F50.00
G01 X26.2186 Y-76.4878 F50.00
G01 X26.2122 Y-76.4441 F50.00
G01 X26.2100 Y-76.4000 F50.00
G01 X26.2122 Y-76.3559 F50.00
G01 X26.2186 Y-76.3122 F50.00
G01 X26.2294 Y-76.2694 F50.00
G01 X26.2443 Y-76.2278 F50.00
G01 X26.2631 Y-76.1879 F50.00
G01 X26.2858 Y-76.1500 F50.00
G01 X26.3121 Y-76.1145 F50.00
G01 X26.3418 Y-76.0818 F50.00
G01 X26.3745 Y-76.0521 F50.00
G01 X26.4100 Y-76.0258 F50.00
G01 X26.4479 Y-76.0031 F50.00
G01 X26.4878 Y-75.9843 F50.00
G01 X26.5294 Y-75.9694 F50.00
G01 X26.5722 Y-75.9586 F50.00
G01 X26.6159 Y-75.9522 F50.00
G01 X26.6600 Y-75.9500 F50.00
G01 X26.7041 Y-75.9522 F50.00
G01 X26.7478 Y-75.9586 F50.00
G01 X26.7906 Y-75.9694 F50.00
G01 X26.8322 Y-75.9843 F50.00
G01 X26.8721 Y-76.0031 F50.00
G01 X26.9100 Y-76.0258 F50.00
G01 X26.9455 Y-76.0521 F50.00
G01 X26.9782 Y-76.0818 F50.00
G01 X27.0079 Y-76.1145 F50.00
G01 X27.0342 Y-76.1500 F50.00
G01 X27.0569 Y-76.1879 F50.00
G01 X27.0757 Y-76.2278 F50.00
G01 X27.0906 Y-76.2694 F50.00
G01 X27.1014 Y-76.3122 F50.00
G01 X27.1078 Y-76.3559 F50.00
G01 X27.1100 Y-76.4000 F50.00
G00 Z2.0000
G00 X26.8200 Y-69.8500
G01 F20.00
G01 Z-1.6000
G01 F50.00
G01 X26.8193 Y-69.8647 F50.00
G01 X26.8171 Y-69.8793 F50.00
G01 X26.8135 Y-69.8935 F50.00
G01 X26.8086 Y-69.9074 F50.00
G01 X26.8023 Y-69.9207 F50.00
G01 X26.7947 Y-69.9333 F50.00
G01 X26.7860 Y-69.9452 F50.00
G01 X26.7761 Y-69.9561 F50.00
G01 X26.7652 Y-69.9660 F50.00
G01 X26.7533 Y-69.9747 F50.00
G01 X26.7407 Y-69.9823 F50.00
G01 X26.7274 Y-69.9886 F50.00
G01 X26.7135 Y-69.9935 F50.00
G01 X26.6993 Y-69.9971 F50.00
G01 X26.6847 Y-69.9993 F50.00
G01 X26.6700 Y-70.0000 F50.00
G01 X26.6553 Y-69.9993 F50.00
G01 X26.6407 Y-69.9971 F50.00
G01 X26.6265 Y-69.9935 F50.00
G01 X26.6126 Y-69.9886 F50.00
G01 X26.5993 Y-69.9823 F50.00
G01 X26.5867 Y-69.9747 F50.00
G01 X26.5748 Y-69.9660 F50.00
G01 X26.5639 Y-69.9561 F50.00
G01 X26.5540 Y-69.9452 F50.00
G01 X26.5453 Y-69.9333 F50.00
G01 X26.5377 Y-69.9207 F50.00
G01 X26.5314 Y-69.9074 F50.00
G01 X26.5265 Y-69.8935 F50.00
G01 X26.5229 Y-69.8793 F50.00
G01 X26.5207 Y-69.8647 F50.00
G01 X26.5200 Y-69.8500 F50.00
G01 X26.5207 Y-69.8353 F50.00
G01 X26.5229 Y-69.8207 F50.00
G01 X26.5265 Y-69.8065 F50.00
G01 X26.5314 Y-69.7926 F50.00
G01 X26.5377 Y-69.7793 F50.00
G01 X26.5453 Y-69.7667 F50.00
G01 X26.5540 Y-69.7548 F50.00
G01 X26.5639 Y-69.7439 F50.00
G01 X26.5748 Y-69.7340 F50.00
G01 X26.5867 Y-69.7253 F50.00
G01 X26.5993 Y-69.7177 F50.00
G01 X26.6126 Y-69.7114 F50.00
G01 X26.6265 Y-69.7065 F50.00
G01 X26.6407 Y-69.7029 F50.00
G01 X26.6553 Y-69.7007 F50.00
G01 X26.6700 Y-69.7000 F50.00
G01 X26.6847 Y-69.7007 F50.00
G01 X26.6993 Y-69.7029 F50.00
G01 X26.7135 Y-69.7065 F50.00
G01 X26.7274 Y-69.7114 F50.00
G01 X26.7407 Y-69.7177 F50.00
G01 X26.7533 Y-69.7253 F50.00
G01 X26.7652 Y-69.7340 F50.00
G01 X26.7761 Y-69.7439 F50.00
G01 X26.7860 Y-69.7548 F50.00
G01 X26.7947 Y-69.7667 F50.00
G01 X26.8023 Y-69.7793 F50.00
G01 X26.8086 Y-69.7926 F50.00
G01 X26.8135 Y-69.8065 F50.00
G01 X26.8171 Y-69.8207 F50.00
G01 X26.8193 Y-69.8353 F50.00
G01 X26.8200 Y-69.8500 F50.00
G00 Z2.0000
G00 X27.1100 Y-88.9000
G01 F20.00
G01 Z-1.6000
G01 F50.00
G01 X27.1078 Y-88.9441 F50.00
G01 X27.1014 Y-88.9878 F50.00
G01 X27.0906 Y-89.0306 F50.00
G01 X27.0757 Y-89.0722 F50.00
G01 X27.0569 Y-89.1121 F50.00
G01 X27.0342 Y-89.1500 F50.00
G01 X27.0079 Y-89.1855 F50.00
G01 X26.9782 Y-89.2182 F50.00
G01 X26.9455 Y-89.2479 F50.00
G01 X26.9100 Y-89.2742 F50.00
G01 X26.8721 Y-89.2969 F50.00
G01 X26.8322 Y-89.3157 F50.00
G01 X26.7906 Y-89.3306 F50.00
G01 X26.7478 Y-89.3414 F50.00
G01 X26.7041 Y-89.3478 F50.00
G01 X26.6600 Y-89.3500 F50.00
G01 X26.6159 Y-89.3478 F50.00
G01 X26.5722 Y-89.3414 F50.00
G01 X26.5294 Y-89.3306 F50.00
G01 X26.4878 Y-89.3157 F50.00
G01 X26.4479 Y-89.2969 F50.00
G01 X26.4100 Y-89.2742 F50.00
G01 X26.3745 Y-89.2479 F50.00
G01 X26.3418 Y-89.2182 F50.00
G01 X26.3121 Y-89.1855 F50.00
G01 X26.2858 Y-89.1500 F50.00
G01 X26.2631 Y-89.1121 F50.00
G01 X26.2443 Y-89.0722 F50.00
G01 X26.2294 Y-89.0306 F50.00
G01 X26.2186 Y-88.9878 F50.00
G01 X26.2122 Y-88.9441 F50.00
G01 X26.2100 Y-88.9000 F50.00
G01 X26.2122 Y-88.8559 F50.00
G01 X26.2186 Y-88.8122 F50.00
G01 X26.2294 Y-88.7694 F50.00
G01 X26.2443 Y-88.7278 F50.00
G01 X26.2631 Y-88.6879 F50.00
G01 X26.2858 Y-88.6500 F50.00
G01 X26.3121 Y-88.6145 F50.00
G01 X26.3418 Y-88.5818 F50.00
G01 X26.3745 Y-88.5521 F50.00
G01 X26.4100 Y-88.5258 F50.00
G01 X26.4479 Y-88.5031 F50.00
G01 X26.4878 Y-88.4843 F50.00
G01 X26.5294 Y-88.4694 F50.00
G01 X26.5722 Y-88.4586 F50.00
G01 X26.6159 Y-88.4522 F50.00
G01 X26.6600 Y-88.4500 F50.00
G01 X26.7041 Y-88.4522 F50.00
G01 X26.7478 Y-88.4586 F50.00
G01 X26.7906 Y-88.4694 F50.00
G01 X26.8322 Y-88.4843 F50.00
G01 X26.8721 Y-88.5031 F50.00
G01 X26.9100 Y-88.5258 F50.00
G01 X26.9455 Y-88.5521 F50.00
G01 X26.9782 Y-88.5818 F50.00
G01 X27.0079 Y-88.6145 F50.00
G01 X27.0342 Y-88.6500 F50.00
G01 X27.0569 Y-88.6879 F50.00
G01 X27.0757 Y-88.7278 F50.00
G01 X27.0906 Y-88.7694 F50.00
G01 X27.1014 Y-88.8122 F50.00
G01 X27.1078 Y-88.8559 F50.00
G01 X27.1100 Y-88.9000 F50.00
G00 Z2.0000
G00 X23.3100 Y-88.9000
G01 F20.00
G01 Z-1.6000
G01 F50.00
G01 X23.3078 Y-88.9441 F50.00
G01 X23.3014 Y-88.9878 F50.00
G01 X23.2906 Y-89.0306 F50.00
G01 X23.2757 Y-89.0722 F50.00
G01 X23.2569 Y-89.1121 F50.00
G01 X23.2342 Y-89.1500 F50.00
G01 X23.2079 Y-89.1855 F50.00
G01 X23.1782 Y-89.2182 F50.00
G01 X23.1455 Y-89.2479 F50.00
G01 X23.1100 Y-89.2742 F50.00
G01 X23.0721 Y-89.2969 F50.00
G01 X23.0322 Y-89.3157 F50.00
G01 X22.9906 Y-89.3306 F50.00
G01 X22.9478 Y-89.3414 F50.00
G01 X22.9041 Y-89.3478 F50.00
G01 X22.8600 Y-89.3500 F50.00
G01 X22.8159 Y-89.3478 F50.00
G01 X22.7722 Y-89.3414 F50.00
G01 X22.7294 Y-89.3306 F50.00
G01 X22.6878 Y-89.3157 F50.00
G01 X22.6479 Y-89.2969 F50.00
G01 X22.6100 Y-89.2742 F50.00
G01 X22.5745 Y-89.2479 F50.00
G01 X22.5418 Y-89.2182 F50.00
G01 X22.5121 Y-89.1855 F50.00
G01 X22.4858 Y-89.1500 F50.00
G01 X22.4631 Y-89.1121 F50.00
G01 X22.4443 Y-89.0722 F50.00
G01 X22.4294 Y-89.0306 F50.00
G01 X22.4186 Y-88.9878 F50.00
G01 X22.4122 Y-88.9441 F50.00
G01 X22.4100 Y-88.9000 F50.00
G01 X22.4122 Y-88.8559 F50.00
G01 X22.4186 Y-88.8122 F50.00
G01 X22.4294 Y-88.7694 F50.00
G01 X22.4443 Y-88.7278 F50.00
G01 X22.4631 Y-88.6879 F50.00
G01 X22.4858 Y-88.6500 F50.00
G01 X22.5121 Y-88.6145 F50.00
G01 X22.5418 Y-88.5818 F50.00
G01 X22.5745 Y-88.5521 F50.00
G01 X22.6100 Y-88.5258 F50.00
G01 X22.6479 Y-88.5031 F50.00
G01 X22.6878 Y-88.4843 F50.00
G01 X22.7294 Y-88.4694 F50.00
G01 X22.7722 Y-88.4586 F50.00
G01 X22.8159 Y-88.4522 F50.00
G01 X22.8600 Y-88.4500 F50.00
G01 X22.9041 Y-88.4522 F50.00
G01 X22.9478 Y-88.4586 F50.00
G01 X22.9906 Y-88.4694 F50.00
G01 X23.0322 Y-88.4843 F50.00
G01 X23.0721 Y-88.5031 F50.00
G01 X23.1100 Y-88.5258 F50.00
G01 X23.1455 Y-88.5521 F50.00
G01 X23.1782 Y-88.5818 F50.00
G01 X23.2079 Y-88.6145 F50.00
G01 X23.2342 Y-88.6500 F50.00
G01 X23.2569 Y-88.6879 F50.00
G01 X23.2757 Y-88.7278 F50.00
G01 X23.2906 Y-88.7694 F50.00
G01 X23.3014 Y-88.8122 F50.00
G01 X23.3078 Y-88.8559 F50.00
G01 X23.3100 Y-88.9000 F50.00
G00 Z2.0000
G00 X17.1100 Y-88.9000
G01 F20.00
G01 Z-1.6000
G01 F50.00
G01 X17.1078 Y-88.9441 F50.00
G01 X17.1014 Y-88.9878 F50.00
G01 X17.0906 Y-89.0306 F50.00
G01 X17.0757 Y-89.0722 F50.00
G01 X17.0569 Y-89.1121 F50.00
G01 X17.0342 Y-89.1500 F50.00
G01 X17.0079 Y-89.1855 F50.00
G01 X16.9782 Y-89.2182 F50.00
G01 X16.9455 Y-89.2479 F50.00
G01 X16.9100 Y-89.2742 F50.00
G01 X16.8721 Y-89.2969 F50.00
G01 X16.8322 Y-89.3157 F50.00
G01 X16.7906 Y-89.3306 F50.00
G01 X16.7478 Y-89.3414 F50.00
G01 X16.7041 Y-89.3478 F50.00
G01 X16.6600 Y-89.3500 F50.00
G01 X16.6159 Y-89.3478 F50.00
G01 X16.5722 Y-89.3414 F50.00
G01 X16.5294 Y-89.3306 F50.00
G01 X16.4878 Y-89.3157 F50.00
G01 X16.4479 Y-89.2969 F50.00
G01 X16.4100 Y-89.2742 F50.00
G01 X16.3745 Y-89.2479 F50.00
G01 X16.3418 Y-89.2182 F50.00
G01 X16.3121 Y-89.1855 F50.00
G01 X16.2858 Y-89.1500 F50.00
G01 X16.2631 Y-89.1121 F50.00
G01 X16.2443 Y-89.0722 F50.00
G01 X16.2294 Y-89.0306 F50.00
G01 X16.2186 Y-88.9878 F50.00
G01 X16.2122 Y-88.9441 F50.00
G01 X16.2100 Y-88.9000 F50.00
G01 X16.2122 Y-88.8559 F50.00
G01 X16.2186 Y-88.8122 F50.00
G01 X16.2294 Y-88.7694 F50.00
G01 X16.2443 Y-88.7278 F50.00
G01 X16.2631 Y-88.6879 F50.00
G01 X16.2858 Y-88.6500 F50.00
G01 X16.3121 Y-88.6145 F50.00
G01 X16.3418 Y-88.5818 F50.00
G01 X16.3745 Y-88.5521 F50.00
G01 X16.4100 Y-88.5258 F50.00
G01 X16.4479 Y-88.5031 F50.00
G01 X16.4878 Y-88.4843 F50.00
G01 X16.5294 Y-88.4694 F50.00
G01 X16.5722 Y-88.4586 F50.00
G01 X16.6159 Y-88.4522 F50.00
G01 X16.6600 Y-88.4500 F50.00
G01 X16.7041 Y-88.4522 F50.00
G01 X16.7478 Y-88.4586 F50.00
G01 X16.7906 Y-88.4694 F50.00
G01 X16.8322 Y-88.4843 F50.00
G01 X16.8721 Y-88.5031 F50.00
G01 X16.9100 Y-88.5258 F50.00
G01 X16.9455 Y-88.5521 F50.00
G01 X16.9782 Y-88.5818 F50.00
G01 X17.0079 Y-88.6145 F50.00
G01 X17.0342 Y-88.6500 F50.00
G01 X17.0569 Y-88.6879 F50.00
G01 X17.0757 Y-88.7278 F50.00
G01 X17.0906 Y-88.7694 F50.00
G01 X17.1014 Y-88.8122 F50.00
G01 X17.1078 Y-88.8559 F50.00
G01 X17.1100 Y-88.9000 F50.00
G00 Z2.0000
G00 X13.3100 Y-88.9000
G01 F20.00
G01 Z-1.6000
G01 F50.00
G01 X13.3078 Y-88.9441 F50.00
G01 X13.3014 Y-88.9878 F50.00
G01 X13.2906 Y-89.0306 F50.00
G01 X13.2757 Y-89.0722 F50.00
G01 X13.2569 Y-89.1121 F50.00
G01 X13.2342 Y-89.1500 F50.00
G01 X13.2079 Y-89.1855 F50.00
G01 X13.1782 Y-89.2182 F50.00
G01 X13.1455 Y-89.2479 F50.00
G01 X13.1100 Y-89.2742 F50.00
G01 X13.0721 Y-89.2969 F50.00
G01 X13.0322 Y-89.3157 F50.00
G01 X12.9906 Y-89.3306 F50.00
G01 X12.9478 Y-89.3414 F50.00
G01 X12.9041 Y-89.3478 F50.00
G01 X12.8600 Y-89.3500 F50.00
G01 X12.8159 Y-89.3478 F50.00
G01 X12.7722 Y-89.3414 F50.00
G01 X12.7294 Y-89.3306 F50.00
G01 X12.6878 Y-89.3157 F50.00
G01 X12.6479 Y-89.2969 F50.00
G01 X12.6100 Y-89.2742 F50.00
G01 X12.5745 Y-89.2479 F50.00
G01 X12.5418 Y-89.2182 F50.00
G01 X12.5121 Y-89.1855 F50.00
G01 X12.4858 Y-89.1500 F50.00
G01 X12.4631 Y-89.1121 F50.00
G01 X12.4443 Y-89.0722 F50.00
G01 X12.4294 Y-89.0306 F50.00
G01 X12.4186 Y-88.9878 F50.00
G01 X12.4122 Y-88.9441 F50.00
G01 X12.4100 Y-88.9000 F50.00
G01 X12.4122 Y-88.8559 F50.00
G01 X12.4186 Y-88.8122 F50.00
G01 X12.4294 Y-88.7694 F50.00
G01 X12.4443 Y-88.7278 F50.00
G01 X12.4631 Y-88.6879 F50.00
G01 X12.4858 Y-88.6500 F50.00
G01 X12.5121 Y-88.6145 F50.00
G01 X12.5418 Y-88.5818 F50.00
G01 X12.5745 Y-88.5521 F50.00
G01 X12.6100 Y-88.5258 F50.00
G01 X12.6479 Y-88.5031 F50.00
G01 X12.6878 Y-88.4843 F50.00
G01 X12.7294 Y-88.4694 F50.00
G01 X12.7722 Y-88.4586 F50.00
G01 X12.8159 Y-88.4522 F50.00
G01 X12.8600 Y-88.4500 F50.00
G01 X12.9041 Y-88.4522 F50.00
G01 X12.9478 Y-88.4586 F50.00
G01 X12.9906 Y-88.4694 F50.00
G01 X13.0322 Y-88.4843 F50.00
G01 X13.0721 Y-88.5031 F50.00
G01 X13.1100 Y-88.5258 F50.00
G01 X13.1455 Y-88.5521 F50.00
G01 X13.1782 Y-88.5818 F50.00
G01 X13.2079 Y-88.6145 F50.00
G01 X13.2342 Y-88.6500 F50.00
G01 X13.2569 Y-88.6879 F50.00
G01 X13.2757 Y-88.7278 F50.00
G01 X13.2906 Y-88.7694 F50.00
G01 X13.3014 Y-88.8122 F50.00
G01 X13.3078 Y-88.8559 F50.00
G01 X13.3100 Y-88.9000 F50.00
G00 Z2.0000
G00 X4.9100 Y-95.2500
G01 F20.00
G01 Z-1.6000
G01 F50.00
G01 X4.9047 Y-95.3578 F50.00
G01 X4.8889 Y-95.4646 F50.00
G01 X4.8626 Y-95.5693 F50.00
G01 X4.8263 Y-95.6710 F50.00
G01 X4.7801 Y-95.7685 F50.00
G01 X4.7246 Y-95.8611 F50.00
G01 X4.6603 Y-95.9478 F50.00
G01 X4.5878 Y-96.0278 F50.00
G01 X4.5078 Y-96.1003 F50.00
G01 X4.4211 Y-96.1646 F50.00
G01 X4.3285 Y-96.2201 F50.00
G01 X4.2310 Y-96.2663 F50.00
G01 X4.1293 Y-96.3026 F50.00
G01 X4.0246 Y-96.3289 F50.00
G01 X3.9178 Y-96.3447 F50.00
G01 X3.8100 Y-96.3500 F50.00
G01 X3.7022 Y-96.3447 F50.00
G01 X3.5954 Y-96.3289 F50.00
G01 X3.4907 Y-96.3026 F50.00
G01 X3.3890 Y-96.2663 F50.00
G01 X3.2915 Y-96.2201 F50.00
G01 X3.1989 Y-96.1646 F50.00
G01 X3.1122 Y-96.1003 F50.00
G01 X3.0322 Y-96.0278 F50.00
G01 X2.9597 Y-95.9478 F50.00
G01 X2.8954 Y-95.8611 F50.00
G01 X2.8399 Y-95.7685 F50.00
G01 X2.7937 Y-95.6710 F50.00
G01 X2.7574 Y-95.5693 F50.00
G01 X2.7311 Y-95.4646 F50.00
G01 X2.7153 Y-95.3578 F50.00
G01 X2.7100 Y-95.2500 F50.00
G01 X2.7153 Y-95.1422 F50.00
G01 X2.7311 Y-95.0354 F50.00
G01 X2.7574 Y-94.9307 F50.00
G01 X2.7937 Y-94.8290 F50.00
G01 X2.8399 Y-94.7315 F50.00
G01 X2.8954 Y-94.6389 F50.00
G01 X2.9597 Y-94.5522 F50.00
G01 X3.0322 Y-94.4722 F50.00
G01 X3.1122 Y-94.3997 F50.00
G01 X3.1989 Y-94.3354 F50.00
G01 X3.2915 Y-94.2799 F50.00
G01 X3.3890 Y-94.2337 F50.00
G01 X3.4907 Y-94.1974 F50.00
G01 X3.5954 Y-94.1711 F50.00
G01 X3.7022 Y-94.1553 F50.00
G01 X3.8100 Y-94.1500 F50.00
G01 X3.9178 Y-94.1553 F50.00
G01 X4.0246 Y-94.1711 F50.00
G01 X4.1293 Y-94.1974 F50.00
G01 X4.2310 Y-94.2337 F50.00
G01 X4.3285 Y-94.2799 F50.00
G01 X4.4211 Y-94.3354 F50.00
G01 X4.5078 Y-94.3997 F50.00
G01 X4.5878 Y-94.4722 F50.00
G01 X4.6603 Y-94.5522 F50.00
G01 X4.7246 Y-94.6389 F50.00
G01 X4.7801 Y-94.7315 F50.00
G01 X4.8263 Y-94.8290 F50.00
G01 X4.8626 Y-94.9307 F50.00
G01 X4.8889 Y-95.0354 F50.00
G01 X4.9047 Y-95.1422 F50.00
G01 X4.9100 Y-95.2500 F50.00
G00 Z2.0000
G00 X36.8650 Y-95.4350
G01 F20.00
G01 Z-1.6000
G01 F50.00
G01 X36.8643 Y-95.4497 F50.00
G01 X36.8621 Y-95.4643 F50.00
G01 X36.8585 Y-95.4785 F50.00
G01 X36.8536 Y-95.4924 F50.00
G01 X36.8473 Y-95.5057 F50.00
G01 X36.8397 Y-95.5183 F50.00
G01 X36.8310 Y-95.5302 F50.00
G01 X36.8211 Y-95.5411 F50.00
G01 X36.8102 Y-95.5510 F50.00
G01 X36.7983 Y-95.5597 F50.00
G01 X36.7857 Y-95.5673 F50.00
G01 X36.7724 Y-95.5736 F50.00
G01 X36.7585 Y-95.5785 F50.00
G01 X36.7443 Y-95.5821 F50.00
G01 X36.7297 Y-95.5843 F50.00
G01 X36.7150 Y-95.5850 F50.00
G01 X36.7003 Y-95.5843 F50.00
G01 X36.6857 Y-95.5821 F50.00
G01 X36.6715 Y-95.5785 F50.00
G01 X36.6576 Y-95.5736 F50.00
G01 X36.6443 Y-95.5673 F50.00
G01 X36.6317 Y-95.5597 F50.00
G01 X36.6198 Y-95.5510 F50.00
G01 X36.6089 Y-95.5411 F50.00
G01 X36.5990 Y-95.5302 F50.00
G01 X36.5903 Y-95.5183 F50.00
G01 X36.5827 Y-95.5057 F50.00
G01 X36.5764 Y-95.4924 F50.00
G01 X36.5715 Y-95.4785 F50.00
G01 X36.5679 Y-95.4643 F50.00
G01 X36.5657 Y-95.4497 F50.00
G01 X36.5650 Y-95.4350 F50.00
G01 X36.5657 Y-95.4203 F50.00
G01 X36.5679 Y-95.4057 F50.00
G01 X36.5715 Y-95.3915 F50.00
G01 X36.5764 Y-95.3776 F50.00
G01 X36.5827 Y-95.3643 F50.00
G01 X36.5903 Y-95.3517 F50.00
G01 X36.5990 Y-95.3398 F50.00
G01 X36.6089 Y-95.3289 F50.00
G01 X36.6198 Y-95.3190 F50.00
G01 X36.6317 Y-95.3103 F50.00
G01 X36.6443 Y-95.3027 F50.00
G01 X36.6576 Y-95.2964 F50.00
G01 X36.6715 Y-95.2915 F50.00
G01 X36.6857 Y-95.2879 F50.00
G01 X36.7003 Y-95.2857 F50.00
G01 X36.7150 Y-95.2850 F50.00
G01 X36.7297 Y-95.2857 F50.00
G01 X36.7443 Y-95.2879 F50.00
G01 X36.7585 Y-95.2915 F50.00
G01 X36.7724 Y-95.2964 F50.00
G01 X36.7857 Y-95.3027 F50.00
G01 X36.7983 Y-95.3103 F50.00
G01 X36.8102 Y-95.3190 F50.00
G01 X36.8211 Y-95.3289 F50.00
G01 X36.8310 Y-95.3398 F50.00
G01 X36.8397 Y-95.3517 F50.00
G01 X36.8473 Y-95.3643 F50.00
G01 X36.8536 Y-95.3776 F50.00
G01 X36.8585 Y-95.3915 F50.00
G01 X36.8621 Y-95.4057 F50.00
G01 X36.8643 Y-95.4203 F50.00
G01 X36.8650 Y-95.4350 F50.00
G00 Z2.0000
G00 X41.8650 Y-95.4350
G01 F20.00
G01 Z-1.6000
G01 F50.00
G01 X41.8643 Y-95.4497 F50.00
G01 X41.8621 Y-95.4643 F50.00
G01 X41.8585 Y-95.4785 F50.00
G01 X41.8536 Y-95.4924 F50.00
G01 X41.8473 Y-95.5057 F50.00
G01 X41.8397 Y-95.5183 F50.00
G01 X41.8310 Y-95.5302 F50.00
G01 X41.8211 Y-95.5411 F50.00
G01 X41.8102 Y-95.5510 F50.00
G01 X41.7983 Y-95.5597 F50.00
G01 X41.7857 Y-95.5673 F50.00
G01 X41.7724 Y-95.5736 F50.00
G01 X41.7585 Y-95.5785 F50.00
G01 X41.7443 Y-95.5821 F50.00
G01 X41.7297 Y-95.5843 F50.00
G01 X41.7150 Y-95.5850 F50.00
G01 X41.7003 Y-95.5843 F50.00
G01 X41.6857 Y-95.5821 F50.00
G01 X41.6715 Y-95.5785 F50.00
G01 X41.6576 Y-95.5736 F50.00
G01 X41.6443 Y-95.5673 F50.00
G01 X41.6317 Y-95.5597 F50.00
G01 X41.6198 Y-95.5510 F50.00
G01 X41.6089 Y-95.5411 F50.00
G01 X41.5990 Y-95.5302 F50.00
G01 X41.5903 Y-95.5183 F50.00
G01 X41.5827 Y-95.5057 F50.00
G01 X41.5764 Y-95.4924 F50.00
G01 X41.5715 Y-95.4785 F50.00
G01 X41.5679 Y-95.4643 F50.00
G01 X41.5657 Y-95.4497 F50.00
G01 X41.5650 Y-95.4350 F50.00
G01 X41.5657 Y-95.4203 F50.00
G01 X41.5679 Y-95.4057 F50.00
G01 X41.5715 Y-95.3915 F50.00
G01 X41.5764 Y-95.3776 F50.00
G01 X41.5827 Y-95.3643 F50.00
G01 X41.5903 Y-95.3517 F50.00
G01 X41.5990 Y-95.3398 F50.00
G01 X41.6089 Y-95.3289 F50.00
G01 X41.6198 Y-95.3190 F50.00
G01 X41.6317 Y-95.3103 F50.00
G01 X41.6443 Y-95.3027 F50.00
G01 X41.6576 Y-95.2964 F50.00
G01 X41.6715 Y-95.2915 F50.00
G01 X41.6857 Y-95.2879 F50.00
G01 X41.7003 Y-95.2857 F50.00
G01 X41.7150 Y-95.2850 F50.00
G01 X41.7297 Y-95.2857 F50.00
G01 X41.7443 Y-95.2879 F50.00
G01 X41.7585 Y-95.2915 F50.00
G01 X41.7724 Y-95.2964 F50.00
G01 X41.7857 Y-95.3027 F50.00
G01 X41.7983 Y-95.3103 F50.00
G01 X41.8102 Y-95.3190 F50.00
G01 X41.8211 Y-95.3289 F50.00
G01 X41.8310 Y-95.3398 F50.00
G01 X41.8397 Y-95.3517 F50.00
G01 X41.8473 Y-95.3643 F50.00
G01 X41.8536 Y-95.3776 F50.00
G01 X41.8585 Y-95.3915 F50.00
G01 X41.8621 Y-95.4057 F50.00
G01 X41.8643 Y-95.4203 F50.00
G01 X41.8650 Y-95.4350 F50.00
G00 Z2.0000
G00 X49.5650 Y-95.2500
G01 F20.00
G01 Z-1.6000
G01 F50.00
G01 X49.5643 Y-95.2647 F50.00
G01 X49.5621 Y-95.2793 F50.00
G01 X49.5585 Y-95.2935 F50.00
G01 X49.5536 Y-95.3074 F50.00
G01 X49.5473 Y-95.3207 F50.00
G01 X49.5397 Y-95.3333 F50.00
G01 X49.5310 Y-95.3452 F50.00
G01 X49.5211 Y-95.3561 F50.00
G01 X49.5102 Y-95.3660 F50.00
G01 X49.4983 Y-95.3747 F50.00
G01 X49.4857 Y-95.3823 F50.00
G01 X49.4724 Y-95.3886 F50.00
G01 X49.4585 Y-95.3935 F50.00
G01 X49.4443 Y-95.3971 F50.00
G01 X49.4297 Y-95.3993 F50.00
G01 X49.4150 Y-95.4000 F50.00
G01 X49.4003 Y-95.3993 F50.00
G01 X49.3857 Y-95.3971 F50.00
G01 X49.3715 Y-95.3935 F50.00
G01 X49.3576 Y-95.3886 F50.00
G01 X49.3443 Y-95.3823 F50.00
G01 X49.3317 Y-95.3747 F50.00
G01 X49.3198 Y-95.3660 F50.00
G01 X49.3089 Y-95.3561 F50.00
G01 X49.2990 Y-95.3452 F50.00
G01 X49.2903 Y-95.3333 F50.00
G01 X49.2827 Y-95.3207 F50.00
G01 X49.2764 Y-95.3074 F50.00
G01 X49.2715 Y-95.2935 F50.00
G01 X49.2679 Y-95.2793 F50.00
G01 X49.2657 Y-95.2647 F50.00
G01 X49.2650 Y-95.2500 F50.00
G01 X49.2657 Y-95.2353 F50.00
G01 X49.2679 Y-95.2207 F50.00
G01 X49.2715 Y-95.2065 F50.00
G01 X49.2764 Y-95.1926 F50.00
G01 X49.2827 Y-95.1793 F50.00
G01 X49.2903 Y-95.1667 F50.00
G01 X49.2990 Y-95.1548 F50.00
G01 X49.3089 Y-95.1439 F50.00
G01 X49.3198 Y-95.1340 F50.00
G01 X49.3317 Y-95.1253 F50.00
G01 X49.3443 Y-95.1177 F50.00
G01 X49.3576 Y-95.1114 F50.00
G01 X49.3715 Y-95.1065 F50.00
G01 X49.3857 Y-95.1029 F50.00
G01 X49.4003 Y-95.1007 F50.00
G01 X49.4150 Y-95.1000 F50.00
G01 X49.4297 Y-95.1007 F50.00
G01 X49.4443 Y-95.1029 F50.00
G01 X49.4585 Y-95.1065 F50.00
G01 X49.4724 Y-95.1114 F50.00
G01 X49.4857 Y-95.1177 F50.00
G01 X49.4983 Y-95.1253 F50.00
G01 X49.5102 Y-95.1340 F50.00
G01 X49.5211 Y-95.1439 F50.00
G01 X49.5310 Y-95.1548 F50.00
G01 X49.5397 Y-95.1667 F50.00
G01 X49.5473 Y-95.1793 F50.00
G01 X49.5536 Y-95.1926 F50.00
G01 X49.5585 Y-95.2065 F50.00
G01 X49.5621 Y-95.2207 F50.00
G01 X49.5643 Y-95.2353 F50.00
G01 X49.5650 Y-95.2500 F50.00
G00 Z2.0000
G00 X54.5650 Y-95.2500
G01 F20.00
G01 Z-1.6000
G01 F50.00
G01 X54.5643 Y-95.2647 F50.00
G01 X54.5621 Y-95.2793 F50.00
G01 X54.5585 Y-95.2935 F50.00
G01 X54.5536 Y-95.3074 F50.00
G01 X54.5473 Y-95.3207 F50.00
G01 X54.5397 Y-95.3333 F50.00
G01 X54.5310 Y-95.3452 F50.00
G01 X54.5211 Y-95.3561 F50.00
G01 X54.5102 Y-95.3660 F50.00
G01 X54.4983 Y-95.3747 F50.00
G01 X54.4857 Y-95.3823 F50.00
G01 X54.4724 Y-95.3886 F50.00
G01 X54.4585 Y-95.3935 F50.00
G01 X54.4443 Y-95.3971 F50.00
G01 X54.4297 Y-95.3993 F50.00
G01 X54.4150 Y-95.4000 F50.00
G01 X54.4003 Y-95.3993 F50.00
G01 X54.3857 Y-95.3971 F50.00
G01 X54.3715 Y-95.3935 F50.00
G01 X54.3576 Y-95.3886 F50.00
G01 X54.3443 Y-95.3823 F50.00
G01 X54.3317 Y-95.3747 F50.00
G01 X54.3198 Y-95.3660 F50.00
G01 X54.3089 Y-95.3561 F50.00
G01 X54.2990 Y-95.3452 F50.00
G01 X54.2903 Y-95.3333 F50.00
G01 X54.2827 Y-95.3207 F50.00
G01 X54.2764 Y-95.3074 F50.00
G01 X54.2715 Y-95.2935 F50.00
G01 X54.2679 Y-95.2793 F50.00
G01 X54.2657 Y-95.2647 F50.00
G01 X54.2650 Y-95.2500 F50.00
G01 X54.2657 Y-95.2353 F50.00
G01 X54.2679 Y-95.2207 F50.00
G01 X54.2715 Y-95.2065 F50.00
G01 X54.2764 Y-95.1926 F50.00
G01 X54.2827 Y-95.1793 F50.00
G01 X54.2903 Y-95.1667 F50.00
G01 X54.2990 Y-95.1548 F50.00
G01 X54.3089 Y-95.1439 F50.00
G01 X54.3198 Y-95.1340 F50.00
G01 X54.3317 Y-95.1253 F50.00
G01 X54.3443 Y-95.1177 F50.00
G01 X54.3576 Y-95.1114 F50.00
G01 X54.3715 Y-95.1065 F50.00
G01 X54.3857 Y-95.1029 F50.00
G01 X54.4003 Y-95.1007 F50.00
G01 X54.4150 Y-95.1000 F50.00
G01 X54.4297 Y-95.1007 F50.00
G01 X54.4443 Y-95.1029 F50.00
G01 X54.4585 Y-95.1065 F50.00
G01 X54.4724 Y-95.1114 F50.00
G01 X54.4857 Y-95.1177 F50.00
G01 X54.4983 Y-95.1253 F50.00
G01 X54.5102 Y-95.1340 F50.00
G01 X54.5211 Y-95.1439 F50.00
G01 X54.5310 Y-95.1548 F50.00
G01 X54.5397 Y-95.1667 F50.00
G01 X54.5473 Y-95.1793 F50.00
G01 X54.5536 Y-95.1926 F50.00
G01 X54.5585 Y-95.2065 F50.00
G01 X54.5621 Y-95.2207 F50.00
G01 X54.5643 Y-95.2353 F50.00
G01 X54.5650 Y-95.2500 F50.00
G00 Z2.0000
G00 X61.1100 Y-95.2500
G01 F20.00
G01 Z-1.6000
G01 F50.00
G01 X61.1093 Y-95.2647 F50.00
G01 X61.1071 Y-95.2793 F50.00
G01 X61.1035 Y-95.2935 F50.00
G01 X61.0986 Y-95.3074 F50.00
G01 X61.0923 Y-95.3207 F50.00
G01 X61.0847 Y-95.3333 F50.00
G01 X61.0760 Y-95.3452 F50.00
G01 X61.0661 Y-95.3561 F50.00
G01 X61.0552 Y-95.3660 F50.00
G01 X61.0433 Y-95.3747 F50.00
G01 X61.0307 Y-95.3823 F50.00
G01 X61.0174 Y-95.3886 F50.00
G01 X61.0035 Y-95.3935 F50.00
G01 X60.9893 Y-95.3971 F50.00
G01 X60.9747 Y-95.3993 F50.00
G01 X60.9600 Y-95.4000 F50.00
G01 X60.9453 Y-95.3993 F50.00
G01 X60.9307 Y-95.3971 F50.00
G01 X60.9165 Y-95.3935 F50.00
G01 X60.9026 Y-95.3886 F50.00
G01 X60.8893 Y-95.3823 F50.00
G01 X60.8767 Y-95.3747 F50.00
G01 X60.8648 Y-95.3660 F50.00
G01 X60.8539 Y-95.3561 F50.00
G01 X60.8440 Y-95.3452 F50.00
G01 X60.8353 Y-95.3333 F50.00
G01 X60.8277 Y-95.3207 F50.00
G01 X60.8214 Y-95.3074 F50.00
G01 X60.8165 Y-95.2935 F50.00
G01 X60.8129 Y-95.2793 F50.00
G01 X60.8107 Y-95.2647 F50.00
G01 X60.8100 Y-95.2500 F50.00
G01 X60.8107 Y-95.2353 F50.00
G01 X60.8129 Y-95.2207 F50.00
G01 X60.8165 Y-95.2065 F50.00
G01 X60.8214 Y-95.1926 F50.00
G01 X60.8277 Y-95.1793 F50.00
G01 X60.8353 Y-95.1667 F50.00
G01 X60.8440 Y-95.1548 F50.00
G01 X60.8539 Y-95.1439 F50.00
G01 X60.8648 Y-95.1340 F50.00
G01 X60.8767 Y-95.1253 F50.00
G01 X60.8893 Y-95.1177 F50.00
G01 X60.9026 Y-95.1114 F50.00
G01 X60.9165 Y-95.1065 F50.00
G01 X60.9307 Y-95.1029 F50.00
G01 X60.9453 Y-95.1007 F50.00
G01 X60.9600 Y-95.1000 F50.00
G01 X60.9747 Y-95.1007 F50.00
G01 X60.9893 Y-95.1029 F50.00
G01 X61.0035 Y-95.1065 F50.00
G01 X61.0174 Y-95.1114 F50.00
G01 X61.0307 Y-95.1177 F50.00
G01 X61.0433 Y-95.1253 F50.00
G01 X61.0552 Y-95.1340 F50.00
G01 X61.0661 Y-95.1439 F50.00
G01 X61.0760 Y-95.1548 F50.00
G01 X61.0847 Y-95.1667 F50.00
G01 X61.0923 Y-95.1793 F50.00
G01 X61.0986 Y-95.1926 F50.00
G01 X61.1035 Y-95.2065 F50.00
G01 X61.1071 Y-95.2207 F50.00
G01 X61.1093 Y-95.2353 F50.00
G01 X61.1100 Y-95.2500 F50.00
G00 Z2.0000
G00 X61.1100 Y-90.2500
G01 F20.00
G01 Z-1.6000
G01 F50.00
G01 X61.1093 Y-90.2647 F50.00
G01 X61.1071 Y-90.2793 F50.00
G01 X61.1035 Y-90.2935 F50.00
G01 X61.0986 Y-90.3074 F50.00
G01 X61.0923 Y-90.3207 F50.00
G01 X61.0847 Y-90.3333 F50.00
G01 X61.0760 Y-90.3452 F50.00
G01 X61.0661 Y-90.3561 F50.00
G01 X61.0552 Y-90.3660 F50.00
G01 X61.0433 Y-90.3747 F50.00
G01 X61.0307 Y-90.3823 F50.00
G01 X61.0174 Y-90.3886 F50.00
G01 X61.0035 Y-90.3935 F50.00
G01 X60.9893 Y-90.3971 F50.00
G01 X60.9747 Y-90.3993 F50.00
G01 X60.9600 Y-90.4000 F50.00
G01 X60.9453 Y-90.3993 F50.00
G01 X60.9307 Y-90.3971 F50.00
G01 X60.9165 Y-90.3935 F50.00
G01 X60.9026 Y-90.3886 F50.00
G01 X60.8893 Y-90.3823 F50.00
G01 X60.8767 Y-90.3747 F50.00
G01 X60.8648 Y-90.3660 F50.00
G01 X60.8539 Y-90.3561 F50.00
G01 X60.8440 Y-90.3452 F50.00
G01 X60.8353 Y-90.3333 F50.00
G01 X60.8277 Y-90.3207 F50.00
G01 X60.8214 Y-90.3074 F50.00
G01 X60.8165 Y-90.2935 F50.00
G01 X60.8129 Y-90.2793 F50.00
G01 X60.8107 Y-90.2647 F50.00
G01 X60.8100 Y-90.2500 F50.00
G01 X60.8107 Y-90.2353 F50.00
G01 X60.8129 Y-90.2207 F50.00
G01 X60.8165 Y-90.2065 F50.00
G01 X60.8214 Y-90.1926 F50.00
G01 X60.8277 Y-90.1793 F50.00
G01 X60.8353 Y-90.1667 F50.00
G01 X60.8440 Y-90.1548 F50.00
G01 X60.8539 Y-90.1439 F50.00
G01 X60.8648 Y-90.1340 F50.00
G01 X60.8767 Y-90.1253 F50.00
G01 X60.8893 Y-90.1177 F50.00
G01 X60.9026 Y-90.1114 F50.00
G01 X60.9165 Y-90.1065 F50.00
G01 X60.9307 Y-90.1029 F50.00
G01 X60.9453 Y-90.1007 F50.00
G01 X60.9600 Y-90.1000 F50.00
G01 X60.9747 Y-90.1007 F50.00
G01 X60.9893 Y-90.1029 F50.00
G01 X61.0035 Y-90.1065 F50.00
G01 X61.0174 Y-90.1114 F50.00
G01 X61.0307 Y-90.1177 F50.00
G01 X61.0433 Y-90.1253 F50.00
G01 X61.0552 Y-90.1340 F50.00
G01 X61.0661 Y-90.1439 F50.00
G01 X61.0760 Y-90.1548 F50.00
G01 X61.0847 Y-90.1667 F50.00
G01 X61.0923 Y-90.1793 F50.00
G01 X61.0986 Y-90.1926 F50.00
G01 X61.1035 Y-90.2065 F50.00
G01 X61.1071 Y-90.2207 F50.00
G01 X61.1093 Y-90.2353 F50.00
G01 X61.1100 Y-90.2500 F50.00
G00 Z2.0000
G00 X52.2200 Y-87.6300
G01 F20.00
G01 Z-1.6000
G01 F50.00
G01 X52.2193 Y-87.6447 F50.00
G01 X52.2171 Y-87.6593 F50.00
G01 X52.2135 Y-87.6735 F50.00
G01 X52.2086 Y-87.6874 F50.00
G01 X52.2023 Y-87.7007 F50.00
G01 X52.1947 Y-87.7133 F50.00
G01 X52.1860 Y-87.7252 F50.00
G01 X52.1761 Y-87.7361 F50.00
G01 X52.1652 Y-87.7460 F50.00
G01 X52.1533 Y-87.7547 F50.00
G01 X52.1407 Y-87.7623 F50.00
G01 X52.1274 Y-87.7686 F50.00
G01 X52.1135 Y-87.7735 F50.00
G01 X52.0993 Y-87.7771 F50.00
G01 X52.0847 Y-87.7793 F50.00
G01 X52.0700 Y-87.7800 F50.00
G01 X52.0553 Y-87.7793 F50.00
G01 X52.0407 Y-87.7771 F50.00
G01 X52.0265 Y-87.7735 F50.00
G01 X52.0126 Y-87.7686 F50.00
G01 X51.9993 Y-87.7623 F50.00
G01 X51.9867 Y-87.7547 F50.00
G01 X51.9748 Y-87.7460 F50.00
G01 X51.9639 Y-87.7361 F50.00
G01 X51.9540 Y-87.7252 F50.00
G01 X51.9453 Y-87.7133 F50.00
G01 X51.9377 Y-87.7007 F50.00
G01 X51.9314 Y-87.6874 F50.00
G01 X51.9265 Y-87.6735 F50.00
G01 X51.9229 Y-87.6593 F50.00
G01 X51.9207 Y-87.6447 F50.00
G01 X51.9200 Y-87.6300 F50.00
G01 X51.9207 Y-87.6153 F50.00
G01 X51.9229 Y-87.6007 F50.00
G01 X51.9265 Y-87.5865 F50.00
G01 X51.9314 Y-87.5726 F50.00
G01 X51.9377 Y-87.5593 F50.00
G01 X51.9453 Y-87.5467 F50.00
G01 X51.9540 Y-87.5348 F50.00
G01 X51.9639 Y-87.5239 F50.00
G01 X51.9748 Y-87.5140 F50.00
G01 X51.9867 Y-87.5053 F50.00
G01 X51.9993 Y-87.4977 F50.00
G01 X52.0126 Y-87.4914 F50.00
G01 X52.0265 Y-87.4865 F50.00
G01 X52.0407 Y-87.4829 F50.00
G01 X52.0553 Y-87.4807 F50.00
G01 X52.0700 Y-87.4800 F50.00
G01 X52.0847 Y-87.4807 F50.00
G01 X52.0993 Y-87.4829 F50.00
G01 X52.1135 Y-87.4865 F50.00
G01 X52.1274 Y-87.4914 F50.00
G01 X52.1407 Y-87.4977 F50.00
G01 X52.1533 Y-87.5053 F50.00
G01 X52.1652 Y-87.5140 F50.00
G01 X52.1761 Y-87.5239 F50.00
G01 X52.1860 Y-87.5348 F50.00
G01 X52.1947 Y-87.5467 F50.00
G01 X52.2023 Y-87.5593 F50.00
G01 X52.2086 Y-87.5726 F50.00
G01 X52.2135 Y-87.5865 F50.00
G01 X52.2171 Y-87.6007 F50.00
G01 X52.2193 Y-87.6153 F50.00
G01 X52.2200 Y-87.6300 F50.00
G00 Z2.0000
G00 X36.9800 Y-87.6300
G01 F20.00
G01 Z-1.6000
G01 F50.00
G01 X36.9793 Y-87.6447 F50.00
G01 X36.9771 Y-87.6593 F50.00
G01 X36.9735 Y-87.6735 F50.00
G01 X36.9686 Y-87.6874 F50.00
G01 X36.9623 Y-87.7007 F50.00
G01 X36.9547 Y-87.7133 F50.00
G01 X36.9460 Y-87.7252 F50.00
G01 X36.9361 Y-87.7361 F50.00
G01 X36.9252 Y-87.7460 F50.00
G01 X36.9133 Y-87.7547 F50.00
G01 X36.9007 Y-87.7623 F50.00
G01 X36.8874 Y-87.7686 F50.00
G01 X36.8735 Y-87.7735 F50.00
G01 X36.8593 Y-87.7771 F50.00
G01 X36.8447 Y-87.7793 F50.00
G01 X36.8300 Y-87.7800 F50.00
G01 X36.8153 Y-87.7793 F50.00
G01 X36.8007 Y-87.7771 F50.00
G01 X36.7865 Y-87.7735 F50.00
G01 X36.7726 Y-87.7686 F50.00
G01 X36.7593 Y-87.7623 F50.00
G01 X36.7467 Y-87.7547 F50.00
G01 X36.7348 Y-87.7460 F50.00
G01 X36.7239 Y-87.7361 F50.00
G01 X36.7140 Y-87.7252 F50.00
G01 X36.7053 Y-87.7133 F50.00
G01 X36.6977 Y-87.7007 F50.00
G01 X36.6914 Y-87.6874 F50.00
G01 X36.6865 Y-87.6735 F50.00
G01 X36.6829 Y-87.6593 F50.00
G01 X36.6807 Y-87.6447 F50.00
G01 X36.6800 Y-87.6300 F50.00
G01 X36.6807 Y-87.6153 F50.00
G01 X36.6829 Y-87.6007 F50.00
G01 X36.6865 Y-87.5865 F50.00
G01 X36.6914 Y-87.5726 F50.00
G01 X36.6977 Y-87.5593 F50.00
G01 X36.7053 Y-87.5467 F50.00
G01 X36.7140 Y-87.5348 F50.00
G01 X36.7239 Y-87.5239 F50.00
G01 X36.7348 Y-87.5140 F50.00
G01 X36.7467 Y-87.5053 F50.00
G01 X36.7593 Y-87.4977 F50.00
G01 X36.7726 Y-87.4914 F50.00
G01 X36.7865 Y-87.4865 F50.00
G01 X36.8007 Y-87.4829 F50.00
G01 X36.8153 Y-87.4807 F50.00
G01 X36.8300 Y-87.4800 F50.00
G01 X36.8447 Y-87.4807 F50.00
G01 X36.8593 Y-87.4829 F50.00
G01 X36.8735 Y-87.4865 F50.00
G01 X36.8874 Y-87.4914 F50.00
G01 X36.9007 Y-87.4977 F50.00
G01 X36.9133 Y-87.5053 F50.00
G01 X36.9252 Y-87.5140 F50.00
G01 X36.9361 Y-87.5239 F50.00
G01 X36.9460 Y-87.5348 F50.00
G01 X36.9547 Y-87.5467 F50.00
G01 X36.9623 Y-87.5593 F50.00
G01 X36.9686 Y-87.5726 F50.00
G01 X36.9735 Y-87.5865 F50.00
G01 X36.9771 Y-87.6007 F50.00
G01 X36.9793 Y-87.6153 F50.00
G01 X36.9800 Y-87.6300 F50.00
G00 Z2.0000
G00 X121.7500 Y-95.2500
G01 F20.00
G01 Z-1.6000
G01 F50.00
G01 X121.7447 Y-95.3578 F50.00
G01 X121.7289 Y-95.4646 F50.00
G01 X121.7026 Y-95.5693 F50.00
G01 X121.6663 Y-95.6710 F50.00
G01 X121.6201 Y-95.7685 F50.00
G01 X121.5646 Y-95.8611 F50.00
G01 X121.5003 Y-95.9478 F50.00
G01 X121.4278 Y-96.0278 F50.00
G01 X121.3478 Y-96.1003 F50.00
G01 X121.2611 Y-96.1646 F50.00
G01 X121.1685 Y-96.2201 F50.00
G01 X121.0710 Y-96.2663 F50.00
G01 X120.9693 Y-96.3026 F50.00
G01 X120.8646 Y-96.3289 F50.00
G01 X120.7578 Y-96.3447 F50.00
G01 X120.6500 Y-96.3500 F50.00
G01 X120.5422 Y-96.3447 F50.00
G01 X120.4354 Y-96.3289 F50.00
G01 X120.3307 Y-96.3026 F50.00
G01 X120.2290 Y-96.2663 F50.00
G01 X120.1315 Y-96.2201 F50.00
G01 X120.0389 Y-96.1646 F50.00
G01 X119.9522 Y-96.1003 F50.00
G01 X119.8722 Y-96.0278 F50.00
G01 X119.7997 Y-95.9478 F50.00
G01 X119.7354 Y-95.8611 F50.00
G01 X119.6799 Y-95.7685 F50.00
G01 X119.6337 Y-95.6710 F50.00
G01 X119.5974 Y-95.5693 F50.00
G01 X119.5711 Y-95.4646 F50.00
G01 X119.5553 Y-95.3578 F50.00
G01 X119.5500 Y-95.2500 F50.00
G01 X119.5553 Y-95.1422 F50.00
G01 X119.5711 Y-95.0354 F50.00
G01 X119.5974 Y-94.9307 F50.00
G01 X119.6337 Y-94.8290 F50.00
G01 X119.6799 Y-94.7315 F50.00
G01 X119.7354 Y-94.6389 F50.00
G01 X119.7997 Y-94.5522 F50.00
G01 X119.8722 Y-94.4722 F50.00
G01 X119.9522 Y-94.3997 F50.00
G01 X120.0389 Y-94.3354 F50.00
G01 X120.1315 Y-94.2799 F50.00
G01 X120.2290 Y-94.2337 F50.00
G01 X120.3307 Y-94.1974 F50.00
G01 X120.4354 Y-94.1711 F50.00
G01 X120.5422 Y-94.1553 F50.00
G01 X120.6500 Y-94.1500 F50.00
G01 X120.7578 Y-94.1553 F50.00
G01 X120.8646 Y-94.1711 F50.00
G01 X120.9693 Y-94.1974 F50.00
G01 X121.0710 Y-94.2337 F50.00
G01 X121.1685 Y-94.2799 F50.00
G01 X121.2611 Y-94.3354 F50.00
G01 X121.3478 Y-94.3997 F50.00
G01 X121.4278 Y-94.4722 F50.00
G01 X121.5003 Y-94.5522 F50.00
G01 X121.5646 Y-94.6389 F50.00
G01 X121.6201 Y-94.7315 F50.00
G01 X121.6663 Y-94.8290 F50.00
G01 X121.7026 Y-94.9307 F50.00
G01 X121.7289 Y-95.0354 F50.00
G01 X121.7447 Y-95.1422 F50.00
G01 X121.7500 Y-95.2500 F50.00
G00 Z2.0000
G00 X121.7500 Y-5.0800
G01 F20.00
G01 Z-1.6000
G01 F50.00
G01 X121.7447 Y-5.1878 F50.00
G01 X121.7289 Y-5.2946 F50.00
G01 X121.7026 Y-5.3993 F50.00
G01 X121.6663 Y-5.5010 F50.00
G01 X121.6201 Y-5.5985 F50.00
G01 X121.5646 Y-5.6911 F50.00
G01 X121.5003 Y-5.7778 F50.00
G01 X121.4278 Y-5.8578 F50.00
G01 X121.3478 Y-5.9303 F50.00
G01 X121.2611 Y-5.9946 F50.00
G01 X121.1685 Y-6.0501 F50.00
G01 X121.0710 Y-6.0963 F50.00
G01 X120.9693 Y-6.1326 F50.00
G01 X120.8646 Y-6.1589 F50.00
G01 X120.7578 Y-6.1747 F50.00
G01 X120.6500 Y-6.1800 F50.00
G01 X120.5422 Y-6.1747 F50.00
G01 X120.4354 Y-6.1589 F50.00
G01 X120.3307 Y-6.1326 F50.00
G01 X120.2290 Y-6.0963 F50.00
G01 X120.1315 Y-6.0501 F50.00
G01 X120.0389 Y-5.9946 F50.00
G01 X119.9522 Y-5.9303 F50.00
G01 X119.8722 Y-5.8578 F50.00
G01 X119.7997 Y-5.7778 F50.00
G01 X119.7354 Y-5.6911 F50.00
G01 X119.6799 Y-5.5985 F50.00
G01 X119.6337 Y-5.5010 F50.00
G01 X119.5974 Y-5.3993 F50.00
G01 X119.5711 Y-5.2946 F50.00
G01 X119.5553 Y-5.1878 F50.00
G01 X119.5500 Y-5.0800 F50.00
G01 X119.5553 Y-4.9722 F50.00
G01 X119.5711 Y-4.8654 F50.00
G01 X119.5974 Y-4.7607 F50.00
G01 X119.6337 Y-4.6590 F50.00
G01 X119.6799 Y-4.5615 F50.00
G01 X119.7354 Y-4.4689 F50.00
G01 X119.7997 Y-4.3822 F50.00
G01 X119.8722 Y-4.3022 F50.00
G01 X119.9522 Y-4.2297 F50.00
G01 X120.0389 Y-4.1654 F50.00
G01 X120.1315 Y-4.1099 F50.00
G01 X120.2290 Y-4.0637 F50.00
G01 X120.3307 Y-4.0274 F50.00
G01 X120.4354 Y-4.0011 F50.00
G01 X120.5422 Y-3.9853 F50.00
G01 X120.6500 Y-3.9800 F50.00
G01 X120.7578 Y-3.9853 F50.00
G01 X120.8646 Y-4.0011 F50.00
G01 X120.9693 Y-4.0274 F50.00
G01 X121.0710 Y-4.0637 F50.00
G01 X121.1685 Y-4.1099 F50.00
G01 X121.2611 Y-4.1654 F50.00
G01 X121.3478 Y-4.2297 F50.00
G01 X121.4278 Y-4.3022 F50.00
G01 X121.5003 Y-4.3822 F50.00
G01 X121.5646 Y-4.4689 F50.00
G01 X121.6201 Y-4.5615 F50.00
G01 X121.6663 Y-4.6590 F50.00
G01 X121.7026 Y-4.7607 F50.00
G01 X121.7289 Y-4.8654 F50.00
G01 X121.7447 Y-4.9722 F50.00
G01 X121.7500 Y-5.0800 F50.00
G00 Z2.0000
M05
G00 Z2.0000
G00 Z5.00


