(G-CODE GENERATED BY FLATCAM v8.994 - www.flatcam.org - Version Date: 2020/11/7)

(Name: zvire-vetrnik-power.drl_cnc)
(Type: G-code from Geometry)
(Units: MM)

(Created on Čtvrtek, 01 září 2022 at 17:27)

(This preprocessor is used with a motion controller loaded with GRBL firmware.)
(It is configured to be compatible with almost any version of GRBL firmware.)


(TOOLS DIAMETER: )
(Tool: 1 -> Dia: 0.75)
(Tool: 2 -> Dia: 0.8)
(Tool: 3 -> Dia: 1.0)
(Tool: 4 -> Dia: 1.075)
(Tool: 5 -> Dia: 1.1)
(Tool: 6 -> Dia: 1.19)
(Tool: 7 -> Dia: 1.2)
(Tool: 8 -> Dia: 1.3)
(Tool: 9 -> Dia: 1.9)
(Tool: 10 -> Dia: 2.0)
(Tool: 11 -> Dia: 3.2)

(FEEDRATE Z: )
(Tool: 1 -> Feedrate: 100.0)
(Tool: 2 -> Feedrate: 100.0)
(Tool: 3 -> Feedrate: 100.0)
(Tool: 4 -> Feedrate: 100.0)
(Tool: 5 -> Feedrate: 100.0)
(Tool: 6 -> Feedrate: 100.0)
(Tool: 7 -> Feedrate: 100.0)
(Tool: 8 -> Feedrate: 100.0)
(Tool: 9 -> Feedrate: 100.0)
(Tool: 10 -> Feedrate: 100.0)
(Tool: 11 -> Feedrate: 100.0)

(FEEDRATE RAPIDS: )
(Tool: 1 -> Feedrate Rapids: 1500)
(Tool: 2 -> Feedrate Rapids: 1500)
(Tool: 3 -> Feedrate Rapids: 1500)
(Tool: 4 -> Feedrate Rapids: 1500)
(Tool: 5 -> Feedrate Rapids: 1500)
(Tool: 6 -> Feedrate Rapids: 1500)
(Tool: 7 -> Feedrate Rapids: 1500)
(Tool: 8 -> Feedrate Rapids: 1500)
(Tool: 9 -> Feedrate Rapids: 1500)
(Tool: 10 -> Feedrate Rapids: 1500)
(Tool: 11 -> Feedrate Rapids: 1500)

(Z_CUT: )
(Tool: 1 -> Z_Cut: -1.7)
(Tool: 2 -> Z_Cut: -1.7)
(Tool: 3 -> Z_Cut: -1.7)
(Tool: 4 -> Z_Cut: -1.7)
(Tool: 5 -> Z_Cut: -1.7)
(Tool: 6 -> Z_Cut: -1.7)
(Tool: 7 -> Z_Cut: -1.7)
(Tool: 8 -> Z_Cut: -1.7)
(Tool: 9 -> Z_Cut: -1.7)
(Tool: 10 -> Z_Cut: -1.7)
(Tool: 11 -> Z_Cut: -1.7)

(Tools Offset: )
(Tool: 1 -> Offset Z: 0.0)
(Tool: 2 -> Offset Z: 0.0)

(Z_MOVE: )
(Tool: 1 -> Z_Move: 4.0)
(Tool: 2 -> Z_Move: 4.0)
(Tool: 3 -> Z_Move: 4.0)
(Tool: 4 -> Z_Move: 4.0)
(Tool: 5 -> Z_Move: 4.0)
(Tool: 6 -> Z_Move: 4.0)
(Tool: 7 -> Z_Move: 4.0)
(Tool: 8 -> Z_Move: 4.0)
(Tool: 9 -> Z_Move: 4.0)
(Tool: 10 -> Z_Move: 4.0)
(Tool: 11 -> Z_Move: 4.0)

(Z Toolchange: 5.0 mm)
(X,Y Toolchange: 0.0000, 0.0000 mm)
(Z Start: None mm)
(Z End: 5.0 mm)
(X,Y End: None mm)
(Steps per circle: 64)
(Steps per circle: 64)
(Preprocessor Excellon: GRBL_11_no_M6)

(X range:    2.2100 ...  122.2500  mm)
(Y range:  -96.8500 ...   -3.4100  mm)

(Spindle Speed: 10000 RPM)
G21
G90
G17
G94


G01 F100.00

M5             
G00 Z5.0000
G00 X0.0000 Y0.0000                
T1
(MSG, Change to Tool Dia = 0.7500 ||| Total drills for tool T1 = 163)
M0
G00 Z5.0000
        
G01 F100.00
M03 S10000
G4 P1
G00 X43.1800 Y-28.5750
G01 Z-1.7000
G01 Z0
G00 Z4.0000
G00 X44.4500 Y-27.3050
G01 Z-1.7000
G01 Z0
G00 Z4.0000
G00 X45.7200 Y-28.5750
G01 Z-1.7000
G01 Z0
G00 Z4.0000
G00 X52.0700 Y-29.2100
G01 Z-1.7000
G01 Z0
G00 Z4.0000
G00 X52.0700 Y-26.6700
G01 Z-1.7000
G01 Z0
G00 Z4.0000
G00 X55.2450 Y-21.3900
G01 Z-1.7000
G01 Z0
G00 Z4.0000
G00 X55.2450 Y-16.5100
G01 Z-1.7000
G01 Z0
G00 Z4.0000
G00 X53.3400 Y-11.4300
G01 Z-1.7000
G01 Z0
G00 Z4.0000
G00 X48.2600 Y-3.8100
G01 Z-1.7000
G01 Z0
G00 Z4.0000
G00 X59.6900 Y-7.6200
G01 Z-1.7000
G01 Z0
G00 Z4.0000
G00 X59.6900 Y-10.1600
G01 Z-1.7000
G01 Z0
G00 Z4.0000
G00 X59.6900 Y-12.7000
G01 Z-1.7000
G01 Z0
G00 Z4.0000
G00 X59.6900 Y-15.2400
G01 Z-1.7000
G01 Z0
G00 Z4.0000
G00 X59.6900 Y-17.7800
G01 Z-1.7000
G01 Z0
G00 Z4.0000
G00 X59.6900 Y-20.3200
G01 Z-1.7000
G01 Z0
G00 Z4.0000
G00 X59.6900 Y-22.8600
G01 Z-1.7000
G01 Z0
G00 Z4.0000
G00 X59.6900 Y-25.4000
G01 Z-1.7000
G01 Z0
G00 Z4.0000
G00 X67.3100 Y-25.4000
G01 Z-1.7000
G01 Z0
G00 Z4.0000
G00 X67.3100 Y-22.8600
G01 Z-1.7000
G01 Z0
G00 Z4.0000
G00 X67.3100 Y-20.3200
G01 Z-1.7000
G01 Z0
G00 Z4.0000
G00 X67.3100 Y-17.7800
G01 Z-1.7000
G01 Z0
G00 Z4.0000
G00 X67.3100 Y-15.2400
G01 Z-1.7000
G01 Z0
G00 Z4.0000
G00 X67.3100 Y-12.7000
G01 Z-1.7000
G01 Z0
G00 Z4.0000
G00 X67.3100 Y-10.1600
G01 Z-1.7000
G01 Z0
G00 Z4.0000
G00 X67.3100 Y-7.6200
G01 Z-1.7000
G01 Z0
G00 Z4.0000
G00 X72.3900 Y-11.4300
G01 Z-1.7000
G01 Z0
G00 Z4.0000
G00 X73.6600 Y-13.9700
G01 Z-1.7000
G01 Z0
G00 Z4.0000
G00 X72.3900 Y-17.7800
G01 Z-1.7000
G01 Z0
G00 Z4.0000
G00 X72.3160 Y-20.2460
G01 Z-1.7000
G01 Z0
G00 Z4.0000
G00 X73.6600 Y-21.5900
G01 Z-1.7000
G01 Z0
G00 Z4.0000
G00 X69.8500 Y-27.9400
G01 Z-1.7000
G01 Z0
G00 Z4.0000
G00 X67.3100 Y-27.9400
G01 Z-1.7000
G01 Z0
G00 Z4.0000
G00 X67.3100 Y-30.4800
G01 Z-1.7000
G01 Z0
G00 Z4.0000
G00 X67.3100 Y-33.0200
G01 Z-1.7000
G01 Z0
G00 Z4.0000
G00 X67.3100 Y-35.5600
G01 Z-1.7000
G01 Z0
G00 Z4.0000
G00 X67.3100 Y-38.1000
G01 Z-1.7000
G01 Z0
G00 Z4.0000
G00 X67.3100 Y-40.6400
G01 Z-1.7000
G01 Z0
G00 Z4.0000
G00 X63.5000 Y-44.4500
G01 Z-1.7000
G01 Z0
G00 Z4.0000
G00 X66.0400 Y-49.5300
G01 Z-1.7000
G01 Z0
G00 Z4.0000
G00 X71.1200 Y-48.2600
G01 Z-1.7000
G01 Z0
G00 Z4.0000
G00 X66.0400 Y-55.8800
G01 Z-1.7000
G01 Z0
G00 Z4.0000
G00 X67.3100 Y-60.9600
G01 Z-1.7000
G01 Z0
G00 Z4.0000
G00 X68.5800 Y-63.5000
G01 Z-1.7000
G01 Z0
G00 Z4.0000
G00 X71.1200 Y-61.6000
G01 Z-1.7000
G01 Z0
G00 Z4.0000
G00 X73.6600 Y-64.7700
G01 Z-1.7000
G01 Z0
G00 Z4.0000
G00 X73.6600 Y-67.3100
G01 Z-1.7000
G01 Z0
G00 Z4.0000
G00 X78.7400 Y-62.2300
G01 Z-1.7000
G01 Z0
G00 Z4.0000
G00 X81.2800 Y-64.7700
G01 Z-1.7000
G01 Z0
G00 Z4.0000
G00 X81.2800 Y-67.3100
G01 Z-1.7000
G01 Z0
G00 Z4.0000
G00 X88.9000 Y-62.2300
G01 Z-1.7000
G01 Z0
G00 Z4.0000
G00 X93.9800 Y-58.4200
G01 Z-1.7000
G01 Z0
G00 Z4.0000
G00 X97.7900 Y-68.5800
G01 Z-1.7000
G01 Z0
G00 Z4.0000
G00 X100.3300 Y-68.5800
G01 Z-1.7000
G01 Z0
G00 Z4.0000
G00 X100.3300 Y-66.0400
G01 Z-1.7000
G01 Z0
G00 Z4.0000
G00 X100.3300 Y-63.5000
G01 Z-1.7000
G01 Z0
G00 Z4.0000
G00 X100.3300 Y-58.4200
G01 Z-1.7000
G01 Z0
G00 Z4.0000
G00 X100.3300 Y-55.8800
G01 Z-1.7000
G01 Z0
G00 Z4.0000
G00 X97.7900 Y-55.8800
G01 Z-1.7000
G01 Z0
G00 Z4.0000
G00 X96.5200 Y-52.0700
G01 Z-1.7000
G01 Z0
G00 Z4.0000
G00 X92.7100 Y-48.2600
G01 Z-1.7000
G01 Z0
G00 Z4.0000
G00 X93.9800 Y-40.6400
G01 Z-1.7000
G01 Z0
G00 Z4.0000
G00 X80.0100 Y-40.6400
G01 Z-1.7000
G01 Z0
G00 Z4.0000
G00 X79.3750 Y-36.8300
G01 Z-1.7000
G01 Z0
G00 Z4.0000
G00 X81.2800 Y-26.6700
G01 Z-1.7000
G01 Z0
G00 Z4.0000
G00 X82.5500 Y-24.1300
G01 Z-1.7000
G01 Z0
G00 Z4.0000
G00 X88.9000 Y-19.0500
G01 Z-1.7000
G01 Z0
G00 Z4.0000
G00 X90.8050 Y-13.9700
G01 Z-1.7000
G01 Z0
G00 Z4.0000
G00 X86.3600 Y-11.4300
G01 Z-1.7000
G01 Z0
G00 Z4.0000
G00 X84.4550 Y-6.3500
G01 Z-1.7000
G01 Z0
G00 Z4.0000
G00 X92.7100 Y-10.1600
G01 Z-1.7000
G01 Z0
G00 Z4.0000
G00 X96.5200 Y-7.6200
G01 Z-1.7000
G01 Z0
G00 Z4.0000
G00 X104.1400 Y-15.2400
G01 Z-1.7000
G01 Z0
G00 Z4.0000
G00 X101.6000 Y-15.2400
G01 Z-1.7000
G01 Z0
G00 Z4.0000
G00 X93.9800 Y-16.5100
G01 Z-1.7000
G01 Z0
G00 Z4.0000
G00 X96.5200 Y-19.0500
G01 Z-1.7000
G01 Z0
G00 Z4.0000
G00 X100.3300 Y-20.3200
G01 Z-1.7000
G01 Z0
G00 Z4.0000
G00 X100.3300 Y-22.8600
G01 Z-1.7000
G01 Z0
G00 Z4.0000
G00 X100.3300 Y-25.4000
G01 Z-1.7000
G01 Z0
G00 Z4.0000
G00 X100.3300 Y-27.9400
G01 Z-1.7000
G01 Z0
G00 Z4.0000
G00 X100.3300 Y-30.4800
G01 Z-1.7000
G01 Z0
G00 Z4.0000
G00 X100.3300 Y-33.0200
G01 Z-1.7000
G01 Z0
G00 Z4.0000
G00 X100.3300 Y-35.5600
G01 Z-1.7000
G01 Z0
G00 Z4.0000
G00 X100.3300 Y-38.1000
G01 Z-1.7000
G01 Z0
G00 Z4.0000
G00 X100.3300 Y-43.1800
G01 Z-1.7000
G01 Z0
G00 Z4.0000
G00 X100.3300 Y-45.7200
G01 Z-1.7000
G01 Z0
G00 Z4.0000
G00 X107.9500 Y-45.7200
G01 Z-1.7000
G01 Z0
G00 Z4.0000
G00 X107.9500 Y-43.1800
G01 Z-1.7000
G01 Z0
G00 Z4.0000
G00 X107.9500 Y-38.1000
G01 Z-1.7000
G01 Z0
G00 Z4.0000
G00 X109.8550 Y-36.9300
G01 Z-1.7000
G01 Z0
G00 Z4.0000
G00 X107.9500 Y-35.5600
G01 Z-1.7000
G01 Z0
G00 Z4.0000
G00 X107.9500 Y-33.0200
G01 Z-1.7000
G01 Z0
G00 Z4.0000
G00 X107.9500 Y-30.4800
G01 Z-1.7000
G01 Z0
G00 Z4.0000
G00 X107.9500 Y-27.9400
G01 Z-1.7000
G01 Z0
G00 Z4.0000
G00 X107.9500 Y-25.4000
G01 Z-1.7000
G01 Z0
G00 Z4.0000
G00 X107.9500 Y-22.8600
G01 Z-1.7000
G01 Z0
G00 Z4.0000
G00 X107.9500 Y-20.3200
G01 Z-1.7000
G01 Z0
G00 Z4.0000
G00 X109.8550 Y-21.5900
G01 Z-1.7000
G01 Z0
G00 Z4.0000
G00 X109.8550 Y-23.4700
G01 Z-1.7000
G01 Z0
G00 Z4.0000
G00 X109.8550 Y-26.7700
G01 Z-1.7000
G01 Z0
G00 Z4.0000
G00 X109.8550 Y-28.5500
G01 Z-1.7000
G01 Z0
G00 Z4.0000
G00 X109.8550 Y-31.8500
G01 Z-1.7000
G01 Z0
G00 Z4.0000
G00 X109.8550 Y-33.6300
G01 Z-1.7000
G01 Z0
G00 Z4.0000
G00 X117.8300 Y-38.3800
G01 Z-1.7000
G01 Z0
G00 Z4.0000
G00 X115.5700 Y-48.2600
G01 Z-1.7000
G01 Z0
G00 Z4.0000
G00 X120.6500 Y-62.2300
G01 Z-1.7000
G01 Z0
G00 Z4.0000
G00 X107.9500 Y-55.8800
G01 Z-1.7000
G01 Z0
G00 Z4.0000
G00 X107.9500 Y-58.4200
G01 Z-1.7000
G01 Z0
G00 Z4.0000
G00 X107.9500 Y-63.5000
G01 Z-1.7000
G01 Z0
G00 Z4.0000
G00 X107.9500 Y-66.0400
G01 Z-1.7000
G01 Z0
G00 Z4.0000
G00 X107.9500 Y-68.5800
G01 Z-1.7000
G01 Z0
G00 Z4.0000
G00 X107.9500 Y-72.3900
G01 Z-1.7000
G01 Z0
G00 Z4.0000
G00 X107.9500 Y-74.9300
G01 Z-1.7000
G01 Z0
G00 Z4.0000
G00 X107.9500 Y-77.4700
G01 Z-1.7000
G01 Z0
G00 Z4.0000
G00 X120.6500 Y-81.2800
G01 Z-1.7000
G01 Z0
G00 Z4.0000
G00 X115.5700 Y-85.0900
G01 Z-1.7000
G01 Z0
G00 Z4.0000
G00 X115.5700 Y-87.6300
G01 Z-1.7000
G01 Z0
G00 Z4.0000
G00 X107.9500 Y-85.0900
G01 Z-1.7000
G01 Z0
G00 Z4.0000
G00 X107.9500 Y-87.6300
G01 Z-1.7000
G01 Z0
G00 Z4.0000
G00 X107.9500 Y-91.4400
G01 Z-1.7000
G01 Z0
G00 Z4.0000
G00 X100.3300 Y-95.9800
G01 Z-1.7000
G01 Z0
G00 Z4.0000
G00 X100.3300 Y-93.9800
G01 Z-1.7000
G01 Z0
G00 Z4.0000
G00 X101.6000 Y-86.0500
G01 Z-1.7000
G01 Z0
G00 Z4.0000
G00 X101.6000 Y-82.5500
G01 Z-1.7000
G01 Z0
G00 Z4.0000
G00 X100.3300 Y-77.4700
G01 Z-1.7000
G01 Z0
G00 Z4.0000
G00 X100.3300 Y-74.9300
G01 Z-1.7000
G01 Z0
G00 Z4.0000
G00 X100.3300 Y-72.3900
G01 Z-1.7000
G01 Z0
G00 Z4.0000
G00 X96.5200 Y-71.1200
G01 Z-1.7000
G01 Z0
G00 Z4.0000
G00 X93.9800 Y-72.3900
G01 Z-1.7000
G01 Z0
G00 Z4.0000
G00 X93.9800 Y-74.9300
G01 Z-1.7000
G01 Z0
G00 Z4.0000
G00 X90.8050 Y-72.3900
G01 Z-1.7000
G01 Z0
G00 Z4.0000
G00 X86.3600 Y-74.9300
G01 Z-1.7000
G01 Z0
G00 Z4.0000
G00 X84.4550 Y-72.3900
G01 Z-1.7000
G01 Z0
G00 Z4.0000
G00 X78.7400 Y-75.1900
G01 Z-1.7000
G01 Z0
G00 Z4.0000
G00 X78.7400 Y-77.4700
G01 Z-1.7000
G01 Z0
G00 Z4.0000
G00 X83.8200 Y-81.2800
G01 Z-1.7000
G01 Z0
G00 Z4.0000
G00 X83.8200 Y-84.7800
G01 Z-1.7000
G01 Z0
G00 Z4.0000
G00 X81.2800 Y-93.9800
G01 Z-1.7000
G01 Z0
G00 Z4.0000
G00 X81.2800 Y-95.9800
G01 Z-1.7000
G01 Z0
G00 Z4.0000
G00 X64.7700 Y-91.4400
G01 Z-1.7000
G01 Z0
G00 Z4.0000
G00 X55.8800 Y-91.4400
G01 Z-1.7000
G01 Z0
G00 Z4.0000
G00 X55.8800 Y-78.7400
G01 Z-1.7000
G01 Z0
G00 Z4.0000
G00 X50.8000 Y-76.2000
G01 Z-1.7000
G01 Z0
G00 Z4.0000
G00 X64.7700 Y-76.2000
G01 Z-1.7000
G01 Z0
G00 Z4.0000
G00 X60.9600 Y-59.6900
G01 Z-1.7000
G01 Z0
G00 Z4.0000
G00 X52.0700 Y-50.8000
G01 Z-1.7000
G01 Z0
G00 Z4.0000
G00 X53.3400 Y-45.7200
G01 Z-1.7000
G01 Z0
G00 Z4.0000
G00 X55.8800 Y-45.7200
G01 Z-1.7000
G01 Z0
G00 Z4.0000
G00 X59.6900 Y-40.6400
G01 Z-1.7000
G01 Z0
G00 Z4.0000
G00 X59.6900 Y-38.1000
G01 Z-1.7000
G01 Z0
G00 Z4.0000
G00 X59.6900 Y-35.5600
G01 Z-1.7000
G01 Z0
G00 Z4.0000
G00 X59.6900 Y-33.0200
G01 Z-1.7000
G01 Z0
G00 Z4.0000
G00 X59.6900 Y-30.4800
G01 Z-1.7000
G01 Z0
G00 Z4.0000
G00 X59.6900 Y-27.9400
G01 Z-1.7000
G01 Z0
G00 Z4.0000
G00 X57.1500 Y-30.4800
G01 Z-1.7000
G01 Z0
G00 Z4.0000
G00 X52.0700 Y-35.5600
G01 Z-1.7000
G01 Z0
G00 Z4.0000
G00 X52.0700 Y-38.1000
G01 Z-1.7000
G01 Z0
G00 Z4.0000
G00 X43.1800 Y-39.3700
G01 Z-1.7000
G01 Z0
G00 Z4.0000
G00 X39.3700 Y-49.5300
G01 Z-1.7000
G01 Z0
G00 Z4.0000
G00 X35.5600 Y-49.5300
G01 Z-1.7000
G01 Z0
G00 Z4.0000
G00 X39.3700 Y-39.3700
G01 Z-1.7000
G01 Z0
G00 Z4.0000
G00 X35.5600 Y-39.3700
G01 Z-1.7000
G01 Z0
G00 Z4.0000
G00 X34.2900 Y-22.8600
G01 Z-1.7000
G01 Z0
G00 Z4.0000
G00 X39.3700 Y-27.9400
G01 Z-1.7000
G01 Z0
G00 Z4.0000
M05
G00 Z5.00


