(G-CODE GENERATED BY FLATCAM v8.994 - www.flatcam.org - Version Date: 2020/11/7)

(Name: zvire-vetrnik-power-B_Cu.gbr_iso_combined_1_cnc)
(Type: G-code from Geometry)
(Units: MM)

(Created on Čtvrtek, 01 září 2022 at 17:24)

(This preprocessor is used with a motion controller loaded with GRBL firmware.)
(It is configured to be compatible with almost any version of GRBL firmware.)

(TOOL DIAMETER: 1.0 mm)
(Feedrate_XY: 200.0 mm/min)
(Feedrate_Z: 80.0 mm/min)
(Feedrate rapids 1500.0 mm/min)

(Z_Cut: -0.08 mm)
(Z_Move: 4.0 mm)
(Z Start: None mm)
(Z End: 5.0 mm)
(X,Y End: None mm)
(Steps per circle: 64)
(Steps per circle: 64)
(Preprocessor Geometry: GRBL_11_no_M6)

(X range:    7.1285 ...  124.9902  mm)
(Y range:  -99.5902 ...   -1.1097  mm)

(Spindle Speed: 10000.0 RPM)
G21
G90
G17
G94


G01 F200.00

M5             
G00 Z15.0000
G00 X0.0000 Y0.0000                
T3
(MSG, Change to Tool Dia = 1.0000)
M0
G00 Z15.0000
        
M03 S10000.0
G4 P1.0
G01 F200.00
G00 X37.0605 Y-6.1533
G01 F80.00
G01 Z-0.0800
G01 F200.00
G01 X37.0736 Y-6.1447 F200.00
G01 X37.1051 Y-6.1257 F200.00
G01 X37.1157 Y-6.1195 F200.00
G01 X37.1373 Y-6.1079 F200.00
G01 X37.1706 Y-6.0920 F200.00
G01 X37.1930 Y-6.0821 F200.00
G01 X37.2044 Y-6.0775 F200.00
G01 X37.2390 Y-6.0650 F200.00
G01 X37.2506 Y-6.0610 F200.00
G01 X37.2741 Y-6.0539 F200.00
G01 X37.3097 Y-6.0448 F200.00
G01 X37.3337 Y-6.0394 F200.00
G01 X37.3457 Y-6.0372 F200.00
G01 X37.3821 Y-6.0316 F200.00
G01 X37.3943 Y-6.0300 F200.00
G01 X37.4187 Y-6.0276 F200.00
G01 X37.4555 Y-6.0256 F200.00
G01 X37.4800 Y-6.0250 F200.00
G01 X38.7323 Y-6.0252 F200.00
G01 X38.7690 Y-6.0268 F200.00
G01 X38.7935 Y-6.0286 F200.00
G01 X38.8057 Y-6.0300 F200.00
G01 X38.8421 Y-6.0352 F200.00
G01 X38.8663 Y-6.0394 F200.00
G01 X38.8903 Y-6.0448 F200.00
G01 X38.9259 Y-6.0539 F200.00
G01 X38.9377 Y-6.0573 F200.00
G01 X38.9610 Y-6.0650 F200.00
G01 X38.9956 Y-6.0775 F200.00
G01 X39.0183 Y-6.0869 F200.00
G01 X39.0627 Y-6.1079 F200.00
G01 X39.0843 Y-6.1195 F200.00
G01 X39.1159 Y-6.1383 F200.00
G01 X39.1367 Y-6.1514 F200.00
G01 X39.1567 Y-6.1655 F200.00
G01 X39.1862 Y-6.1876 F200.00
G01 X39.2052 Y-6.2031 F200.00
G01 X39.2326 Y-6.2277 F200.00
G01 X39.2503 Y-6.2447 F200.00
G01 X39.2589 Y-6.2535 F200.00
G01 X39.2837 Y-6.2806 F200.00
G01 X39.2998 Y-6.2992 F200.00
G01 X39.3074 Y-6.3088 F200.00
G01 X39.3367 Y-6.3482 F200.00
G01 X39.3503 Y-6.3686 F200.00
G01 X39.3567 Y-6.3791 F200.00
G01 X39.3755 Y-6.4107 F200.00
G01 X39.3814 Y-6.4215 F200.00
G01 X39.3871 Y-6.4323 F200.00
G01 X39.4030 Y-6.4656 F200.00
G01 X39.4129 Y-6.4880 F200.00
G01 X39.4175 Y-6.4994 F200.00
G01 X39.4340 Y-6.5456 F200.00
G01 X39.4411 Y-6.5691 F200.00
G01 X39.4443 Y-6.5809 F200.00
G01 X39.4530 Y-6.6167 F200.00
G01 X39.4556 Y-6.6287 F200.00
G01 X39.4578 Y-6.6407 F200.00
G01 X39.4634 Y-6.6771 F200.00
G01 X39.4650 Y-6.6893 F200.00
G01 X39.4674 Y-6.7137 F200.00
G01 X39.4698 Y-6.7627 F200.00
G01 X39.4700 Y-6.8680 F200.00
G01 X40.4310 Y-7.8290 F200.00
G01 X40.4479 Y-7.8468 F200.00
G01 X40.5139 Y-7.9195 F200.00
G01 X40.5299 Y-7.9381 F200.00
G01 X40.5450 Y-7.9574 F200.00
G01 X40.6035 Y-8.0363 F200.00
G01 X40.6176 Y-8.0564 F200.00
G01 X40.6307 Y-8.0771 F200.00
G01 X40.6812 Y-8.1613 F200.00
G01 X40.6874 Y-8.1719 F200.00
G01 X40.6990 Y-8.1936 F200.00
G01 X40.7463 Y-8.2933 F200.00
G01 X40.7563 Y-8.3158 F200.00
G01 X40.7651 Y-8.3387 F200.00
G01 X40.7982 Y-8.4311 F200.00
G01 X40.8059 Y-8.4544 F200.00
G01 X40.8124 Y-8.4781 F200.00
G01 X40.8363 Y-8.5733 F200.00
G01 X40.8417 Y-8.5973 F200.00
G01 X40.8459 Y-8.6214 F200.00
G01 X40.8603 Y-8.7186 F200.00
G01 X40.8633 Y-8.7429 F200.00
G01 X40.8643 Y-8.7552 F200.00
G01 X40.8703 Y-8.8777 F200.00
G01 X40.8705 Y-9.4522 F200.00
G01 X44.6042 Y-9.4522 F200.00
G01 X44.6333 Y-9.4305 F200.00
G01 X44.6533 Y-9.4164 F200.00
G01 X44.6741 Y-9.4033 F200.00
G01 X44.7057 Y-9.3845 F200.00
G01 X44.7165 Y-9.3786 F200.00
G01 X44.7384 Y-9.3675 F200.00
G01 X44.7717 Y-9.3519 F200.00
G01 X44.7944 Y-9.3425 F200.00
G01 X44.8290 Y-9.3300 F200.00
G01 X44.8523 Y-9.3223 F200.00
G01 X44.8759 Y-9.3157 F200.00
G01 X44.9117 Y-9.3070 F200.00
G01 X44.9357 Y-9.3022 F200.00
G01 X44.9721 Y-9.2966 F200.00
G01 X44.9965 Y-9.2936 F200.00
G01 X45.0087 Y-9.2926 F200.00
G01 X45.0455 Y-9.2906 F200.00
G01 X45.0700 Y-9.2900 F200.00
G01 X46.3700 Y-9.2900 F200.00
G01 X46.3945 Y-9.2906 F200.00
G01 X46.4313 Y-9.2926 F200.00
G01 X46.4435 Y-9.2936 F200.00
G01 X46.4679 Y-9.2966 F200.00
G01 X46.5043 Y-9.3022 F200.00
G01 X46.5283 Y-9.3070 F200.00
G01 X46.5641 Y-9.3157 F200.00
G01 X46.5759 Y-9.3189 F200.00
G01 X46.5994 Y-9.3260 F200.00
G01 X46.6341 Y-9.3383 F200.00
G01 X46.6570 Y-9.3471 F200.00
G01 X46.6794 Y-9.3570 F200.00
G01 X46.7127 Y-9.3729 F200.00
G01 X46.7235 Y-9.3786 F200.00
G01 X46.7449 Y-9.3907 F200.00
G01 X46.7764 Y-9.4097 F200.00
G01 X46.7867 Y-9.4164 F200.00
G01 X46.8067 Y-9.4305 F200.00
G01 X46.8334 Y-9.4505 F200.00
G01 X46.8600 Y-9.4064 F200.00
G01 X46.8737 Y-9.3860 F200.00
G01 X46.9394 Y-9.2973 F200.00
G01 X46.9471 Y-9.2877 F200.00
G01 X46.9631 Y-9.2691 F200.00
G01 X47.0208 Y-9.2055 F200.00
G01 X47.0377 Y-9.1877 F200.00
G01 X47.0555 Y-9.1708 F200.00
G01 X47.1191 Y-9.1131 F200.00
G01 X47.1377 Y-9.0971 F200.00
G01 X47.1473 Y-9.0894 F200.00
G01 X47.2360 Y-9.0237 F200.00
G01 X47.2564 Y-9.0100 F200.00
G01 X47.2812 Y-8.9950 F200.00
G01 X47.1350 Y-8.9950 F200.00
G01 X47.1105 Y-8.9944 F200.00
G01 X47.0860 Y-8.9926 F200.00
G01 X47.0616 Y-8.9896 F200.00
G01 X47.0375 Y-8.9854 F200.00
G01 X47.0135 Y-8.9800 F200.00
G01 X46.9899 Y-8.9735 F200.00
G01 X46.9666 Y-8.9658 F200.00
G01 X46.9551 Y-8.9615 F200.00
G01 X46.9324 Y-8.9521 F200.00
G01 X46.9102 Y-8.9416 F200.00
G01 X46.8886 Y-8.9300 F200.00
G01 X46.8675 Y-8.9174 F200.00
G01 X46.8572 Y-8.9107 F200.00
G01 X46.8372 Y-8.8966 F200.00
G01 X46.8178 Y-8.8815 F200.00
G01 X46.8084 Y-8.8736 F200.00
G01 X46.7902 Y-8.8571 F200.00
G01 X46.7814 Y-8.8486 F200.00
G01 X46.7645 Y-8.8308 F200.00
G01 X46.7564 Y-8.8216 F200.00
G01 X46.7408 Y-8.8026 F200.00
G01 X46.7262 Y-8.7829 F200.00
G01 X46.7126 Y-8.7625 F200.00
G01 X46.7000 Y-8.7414 F200.00
G01 X46.6940 Y-8.7307 F200.00
G01 X46.6830 Y-8.7088 F200.00
G01 X46.6731 Y-8.6863 F200.00
G01 X46.6642 Y-8.6634 F200.00
G01 X46.6565 Y-8.6401 F200.00
G01 X46.6531 Y-8.6284 F200.00
G01 X46.6471 Y-8.6046 F200.00
G01 X46.6446 Y-8.5925 F200.00
G01 X46.6404 Y-8.5684 F200.00
G01 X46.6374 Y-8.5440 F200.00
G01 X46.6356 Y-8.5195 F200.00
G01 X46.6350 Y-8.4950 F200.00
G01 X46.6350 Y-8.4414 F200.00
G01 X46.5994 Y-8.4540 F200.00
G01 X46.5759 Y-8.4611 F200.00
G01 X46.5403 Y-8.4702 F200.00
G01 X46.5163 Y-8.4756 F200.00
G01 X46.4921 Y-8.4798 F200.00
G01 X46.4557 Y-8.4850 F200.00
G01 X46.4435 Y-8.4864 F200.00
G01 X46.4190 Y-8.4882 F200.00
G01 X46.3823 Y-8.4898 F200.00
G01 X45.0700 Y-8.4900 F200.00
G01 X45.0455 Y-8.4894 F200.00
G01 X45.0087 Y-8.4874 F200.00
G01 X44.9843 Y-8.4850 F200.00
G01 X44.9721 Y-8.4834 F200.00
G01 X44.9357 Y-8.4778 F200.00
G01 X44.9237 Y-8.4756 F200.00
G01 X44.9117 Y-8.4730 F200.00
G01 X44.8759 Y-8.4643 F200.00
G01 X44.8641 Y-8.4611 F200.00
G01 X44.8406 Y-8.4540 F200.00
G01 X44.7944 Y-8.4375 F200.00
G01 X44.7717 Y-8.4281 F200.00
G01 X44.7606 Y-8.4230 F200.00
G01 X44.7273 Y-8.4071 F200.00
G01 X44.7165 Y-8.4014 F200.00
G01 X44.7057 Y-8.3955 F200.00
G01 X44.6741 Y-8.3767 F200.00
G01 X44.6533 Y-8.3636 F200.00
G01 X44.6333 Y-8.3495 F200.00
G01 X44.6038 Y-8.3274 F200.00
G01 X44.5942 Y-8.3198 F200.00
G01 X44.5848 Y-8.3119 F200.00
G01 X44.5574 Y-8.2873 F200.00
G01 X44.5397 Y-8.2703 F200.00
G01 X44.5311 Y-8.2615 F200.00
G01 X44.4981 Y-8.2252 F200.00
G01 X44.4902 Y-8.2158 F200.00
G01 X44.4751 Y-8.1964 F200.00
G01 X44.4533 Y-8.1668 F200.00
G01 X44.4464 Y-8.1567 F200.00
G01 X44.4397 Y-8.1464 F200.00
G01 X44.4207 Y-8.1149 F200.00
G01 X44.4086 Y-8.0935 F200.00
G01 X44.4029 Y-8.0827 F200.00
G01 X44.3819 Y-8.0383 F200.00
G01 X44.3771 Y-8.0270 F200.00
G01 X44.3683 Y-8.0041 F200.00
G01 X44.3560 Y-7.9694 F200.00
G01 X44.3523 Y-7.9577 F200.00
G01 X44.3457 Y-7.9341 F200.00
G01 X44.3370 Y-7.8983 F200.00
G01 X44.3344 Y-7.8863 F200.00
G01 X44.3322 Y-7.8743 F200.00
G01 X44.3266 Y-7.8379 F200.00
G01 X44.3250 Y-7.8257 F200.00
G01 X44.3226 Y-7.8013 F200.00
G01 X44.3206 Y-7.7645 F200.00
G01 X44.3200 Y-7.7400 F200.00
G01 X44.3200 Y-6.9150 F200.00
G01 X44.3206 Y-6.8905 F200.00
G01 X44.3226 Y-6.8537 F200.00
G01 X44.3250 Y-6.8293 F200.00
G01 X44.3302 Y-6.7929 F200.00
G01 X44.3344 Y-6.7687 F200.00
G01 X44.3398 Y-6.7447 F200.00
G01 X44.3489 Y-6.7091 F200.00
G01 X44.3560 Y-6.6856 F200.00
G01 X44.3683 Y-6.6509 F200.00
G01 X44.3771 Y-6.6280 F200.00
G01 X44.3870 Y-6.6056 F200.00
G01 X44.4029 Y-6.5723 F200.00
G01 X44.4145 Y-6.5507 F200.00
G01 X44.4333 Y-6.5191 F200.00
G01 X44.4464 Y-6.4983 F200.00
G01 X44.4605 Y-6.4783 F200.00
G01 X44.4826 Y-6.4488 F200.00
G01 X44.4981 Y-6.4298 F200.00
G01 X44.5311 Y-6.3935 F200.00
G01 X44.5485 Y-6.3761 F200.00
G01 X44.5756 Y-6.3513 F200.00
G01 X44.5942 Y-6.3352 F200.00
G01 X44.6038 Y-6.3276 F200.00
G01 X44.6333 Y-6.3055 F200.00
G01 X44.6533 Y-6.2914 F200.00
G01 X44.6741 Y-6.2783 F200.00
G01 X44.7057 Y-6.2595 F200.00
G01 X44.7273 Y-6.2479 F200.00
G01 X44.7717 Y-6.2269 F200.00
G01 X44.7944 Y-6.2175 F200.00
G01 X44.8290 Y-6.2050 F200.00
G01 X44.8523 Y-6.1973 F200.00
G01 X44.8759 Y-6.1907 F200.00
G01 X44.9117 Y-6.1820 F200.00
G01 X44.9237 Y-6.1794 F200.00
G01 X44.9479 Y-6.1752 F200.00
G01 X44.9843 Y-6.1700 F200.00
G01 X44.9965 Y-6.1686 F200.00
G01 X45.0210 Y-6.1668 F200.00
G01 X45.0577 Y-6.1652 F200.00
G01 X45.9530 Y-6.1650 F200.00
G01 X45.0985 Y-5.3105 F200.00
G01 X37.4515 Y-5.3105 F200.00
G01 X37.0605 Y-5.7015 F200.00
G01 X37.0605 Y-6.1533 F200.00
G00 Z4.0000
G00 X40.1200 Y-6.1105
G01 F80.00
G01 Z-0.0800
G01 F200.00
G01 X40.1394 Y-6.1525 F200.00
G01 X40.1520 Y-6.1818 F200.00
G01 X40.1639 Y-6.2115 F200.00
G01 X40.1832 Y-6.2645 F200.00
G01 X40.1936 Y-6.2946 F200.00
G01 X40.2033 Y-6.3251 F200.00
G01 X40.2121 Y-6.3557 F200.00
G01 X40.2203 Y-6.3866 F200.00
G01 X40.2336 Y-6.4414 F200.00
G01 X40.2402 Y-6.4726 F200.00
G01 X40.2477 Y-6.5143 F200.00
G01 X40.9967 Y-7.2633 F200.00
G01 X41.0190 Y-7.2861 F200.00
G01 X41.0407 Y-7.3095 F200.00
G01 X41.1066 Y-7.3823 F200.00
G01 X41.1278 Y-7.4062 F200.00
G01 X41.1483 Y-7.4306 F200.00
G01 X41.1682 Y-7.4555 F200.00
G01 X41.1876 Y-7.4809 F200.00
G01 X41.2461 Y-7.5597 F200.00
G01 X41.2647 Y-7.5856 F200.00
G01 X41.2828 Y-7.6119 F200.00
G01 X41.3002 Y-7.6387 F200.00
G01 X41.3169 Y-7.6658 F200.00
G01 X41.3674 Y-7.7500 F200.00
G01 X41.3835 Y-7.7776 F200.00
G01 X41.3989 Y-7.8056 F200.00
G01 X41.4136 Y-7.8339 F200.00
G01 X41.4275 Y-7.8625 F200.00
G01 X41.4695 Y-7.9513 F200.00
G01 X41.4828 Y-7.9803 F200.00
G01 X41.4954 Y-8.0096 F200.00
G01 X41.5072 Y-8.0393 F200.00
G01 X41.5183 Y-8.0692 F200.00
G01 X41.5514 Y-8.1616 F200.00
G01 X41.5618 Y-8.1918 F200.00
G01 X41.5714 Y-8.2222 F200.00
G01 X41.5803 Y-8.2528 F200.00
G01 X41.5885 Y-8.2837 F200.00
G01 X41.6123 Y-8.3789 F200.00
G01 X41.6197 Y-8.4100 F200.00
G01 X41.6263 Y-8.4412 F200.00
G01 X41.6321 Y-8.4726 F200.00
G01 X41.6372 Y-8.5041 F200.00
G01 X41.6516 Y-8.6012 F200.00
G01 X41.6559 Y-8.6328 F200.00
G01 X41.6578 Y-8.6500 F200.00
G01 X43.8128 Y-8.6461 F200.00
G01 X43.7993 Y-8.6274 F200.00
G01 X43.7812 Y-8.6011 F200.00
G01 X43.7638 Y-8.5744 F200.00
G01 X43.7471 Y-8.5472 F200.00
G01 X43.7184 Y-8.4986 F200.00
G01 X43.7030 Y-8.4707 F200.00
G01 X43.6883 Y-8.4423 F200.00
G01 X43.6638 Y-8.3915 F200.00
G01 X43.6506 Y-8.3625 F200.00
G01 X43.6380 Y-8.3332 F200.00
G01 X43.6261 Y-8.3035 F200.00
G01 X43.6150 Y-8.2736 F200.00
G01 X43.5964 Y-8.2204 F200.00
G01 X43.5867 Y-8.1899 F200.00
G01 X43.5779 Y-8.1593 F200.00
G01 X43.5697 Y-8.1284 F200.00
G01 X43.5564 Y-8.0736 F200.00
G01 X43.5498 Y-8.0424 F200.00
G01 X43.5439 Y-8.0110 F200.00
G01 X43.5353 Y-7.9553 F200.00
G01 X43.5310 Y-7.9236 F200.00
G01 X43.5275 Y-7.8919 F200.00
G01 X43.5247 Y-7.8601 F200.00
G01 X43.5228 Y-7.8283 F200.00
G01 X43.5204 Y-7.7719 F200.00
G01 X43.5200 Y-7.7400 F200.00
G01 X43.5200 Y-6.9150 F200.00
G01 X43.5204 Y-6.8831 F200.00
G01 X43.5228 Y-6.8267 F200.00
G01 X43.5247 Y-6.7949 F200.00
G01 X43.5275 Y-6.7631 F200.00
G01 X43.5310 Y-6.7314 F200.00
G01 X43.5389 Y-6.6755 F200.00
G01 X43.5439 Y-6.6440 F200.00
G01 X43.5498 Y-6.6126 F200.00
G01 X43.5564 Y-6.5814 F200.00
G01 X43.5638 Y-6.5504 F200.00
G01 X43.5779 Y-6.4957 F200.00
G01 X43.5867 Y-6.4651 F200.00
G01 X43.5964 Y-6.4346 F200.00
G01 X43.6068 Y-6.4045 F200.00
G01 X43.6261 Y-6.3515 F200.00
G01 X43.6380 Y-6.3218 F200.00
G01 X43.6506 Y-6.2925 F200.00
G01 X43.6638 Y-6.2635 F200.00
G01 X43.6883 Y-6.2127 F200.00
G01 X43.7030 Y-6.1843 F200.00
G01 X43.7184 Y-6.1564 F200.00
G01 X43.7455 Y-6.1105 F200.00
G01 X40.1200 Y-6.1105 F200.00
G00 Z4.0000
G00 X41.6705 Y-13.4961
G01 F80.00
G01 Z-0.0800
G01 F200.00
G01 X42.9139 Y-12.2527 F200.00
G01 X41.6705 Y-12.2528 F200.00
G01 X41.6705 Y-13.4961 F200.00
G00 Z4.0000
G00 X40.8705 Y-15.4275
G01 F80.00
G01 Z-0.0800
G01 F200.00
G01 X44.6590 Y-11.6390 F200.00
G01 X44.6768 Y-11.6221 F200.00
G01 X44.7594 Y-11.5474 F200.00
G01 X44.7273 Y-11.5321 F200.00
G01 X44.7165 Y-11.5264 F200.00
G01 X44.7057 Y-11.5205 F200.00
G01 X44.6741 Y-11.5017 F200.00
G01 X44.6533 Y-11.4886 F200.00
G01 X44.6432 Y-11.4817 F200.00
G01 X44.6042 Y-11.4528 F200.00
G01 X40.8705 Y-11.4528 F200.00
G01 X40.8705 Y-15.4275 F200.00
G00 Z4.0000
G00 X45.9020 Y-15.7714
G01 F80.00
G01 Z-0.0800
G01 F200.00
G01 X44.2105 Y-17.4629 F200.00
G01 X44.2105 Y-18.5198 F200.00
G01 X44.5449 Y-18.5198 F200.00
G01 X44.5794 Y-18.4982 F200.00
G01 X44.6510 Y-18.4553 F200.00
G01 X44.6785 Y-18.4393 F200.00
G01 X44.7065 Y-18.4239 F200.00
G01 X44.7348 Y-18.4092 F200.00
G01 X44.7635 Y-18.3952 F200.00
G01 X44.8389 Y-18.3595 F200.00
G01 X44.8679 Y-18.3462 F200.00
G01 X44.8972 Y-18.3337 F200.00
G01 X44.9269 Y-18.3218 F200.00
G01 X44.9568 Y-18.3107 F200.00
G01 X45.0353 Y-18.2826 F200.00
G01 X45.0655 Y-18.2722 F200.00
G01 X45.0959 Y-18.2626 F200.00
G01 X45.1265 Y-18.2537 F200.00
G01 X45.1574 Y-18.2456 F200.00
G01 X45.2383 Y-18.2253 F200.00
G01 X45.2693 Y-18.2179 F200.00
G01 X45.3006 Y-18.2113 F200.00
G01 X45.3319 Y-18.2055 F200.00
G01 X45.3634 Y-18.2004 F200.00
G01 X45.4459 Y-18.1882 F200.00
G01 X45.4776 Y-18.1839 F200.00
G01 X45.5093 Y-18.1804 F200.00
G01 X45.5411 Y-18.1776 F200.00
G01 X45.5729 Y-18.1757 F200.00
G01 X45.6562 Y-18.1716 F200.00
G01 X45.6881 Y-18.1704 F200.00
G01 X45.7200 Y-18.1700 F200.00
G01 X45.7519 Y-18.1704 F200.00
G01 X45.7838 Y-18.1716 F200.00
G01 X45.8671 Y-18.1757 F200.00
G01 X45.8989 Y-18.1776 F200.00
G01 X45.9307 Y-18.1804 F200.00
G01 X45.9624 Y-18.1839 F200.00
G01 X45.9941 Y-18.1882 F200.00
G01 X46.0766 Y-18.2004 F200.00
G01 X46.1081 Y-18.2055 F200.00
G01 X46.1394 Y-18.2113 F200.00
G01 X46.1707 Y-18.2179 F200.00
G01 X46.2017 Y-18.2253 F200.00
G01 X46.2826 Y-18.2456 F200.00
G01 X46.3135 Y-18.2537 F200.00
G01 X46.3441 Y-18.2626 F200.00
G01 X46.3745 Y-18.2722 F200.00
G01 X46.4047 Y-18.2826 F200.00
G01 X46.4585 Y-18.3018 F200.00
G01 X46.4568 Y-16.7623 F200.00
G01 X46.4280 Y-16.7317 F200.00
G01 X46.3704 Y-16.6681 F200.00
G01 X46.3492 Y-16.6442 F200.00
G01 X46.3287 Y-16.6198 F200.00
G01 X46.3088 Y-16.5949 F200.00
G01 X46.2894 Y-16.5695 F200.00
G01 X46.2383 Y-16.5005 F200.00
G01 X46.2196 Y-16.4747 F200.00
G01 X46.2016 Y-16.4484 F200.00
G01 X46.1842 Y-16.4216 F200.00
G01 X46.1674 Y-16.3945 F200.00
G01 X46.1233 Y-16.3208 F200.00
G01 X46.1072 Y-16.2932 F200.00
G01 X46.0918 Y-16.2653 F200.00
G01 X46.0771 Y-16.2370 F200.00
G01 X46.0631 Y-16.2083 F200.00
G01 X46.0264 Y-16.1307 F200.00
G01 X46.0131 Y-16.1017 F200.00
G01 X46.0006 Y-16.0723 F200.00
G01 X45.9887 Y-16.0427 F200.00
G01 X45.9776 Y-16.0128 F200.00
G01 X45.9487 Y-15.9320 F200.00
G01 X45.9383 Y-15.9018 F200.00
G01 X45.9287 Y-15.8714 F200.00
G01 X45.9198 Y-15.8407 F200.00
G01 X45.9020 Y-15.7714 F200.00
G00 Z4.0000
G00 X47.1110 Y-14.2005
G01 F80.00
G01 Z-0.0800
G01 F200.00
G01 X46.3415 Y-14.2005 F200.00
G01 X43.4105 Y-17.1315 F200.00
G01 X43.4103 Y-18.9153 F200.00
G01 X43.4043 Y-19.0378 F200.00
G01 X43.4019 Y-19.0623 F200.00
G01 X43.4003 Y-19.0744 F200.00
G01 X43.3859 Y-19.1715 F200.00
G01 X43.3817 Y-19.1957 F200.00
G01 X43.3763 Y-19.2197 F200.00
G01 X43.3512 Y-19.3197 F200.00
G01 X44.8149 Y-19.3197 F200.00
G01 X44.8542 Y-19.2843 F200.00
G01 X44.8731 Y-19.2688 F200.00
G01 X44.9599 Y-19.2045 F200.00
G01 X44.9700 Y-19.1975 F200.00
G01 X44.9907 Y-19.1844 F200.00
G01 X45.0729 Y-19.1353 F200.00
G01 X45.0945 Y-19.1238 F200.00
G01 X45.1055 Y-19.1184 F200.00
G01 X45.1809 Y-19.0827 F200.00
G01 X45.2034 Y-19.0728 F200.00
G01 X45.2263 Y-19.0639 F200.00
G01 X45.3164 Y-19.0318 F200.00
G01 X45.3281 Y-19.0281 F200.00
G01 X45.3518 Y-19.0216 F200.00
G01 X45.4327 Y-19.0013 F200.00
G01 X45.4566 Y-18.9959 F200.00
G01 X45.4808 Y-18.9917 F200.00
G01 X45.5633 Y-18.9795 F200.00
G01 X45.5877 Y-18.9765 F200.00
G01 X45.6122 Y-18.9747 F200.00
G01 X45.6955 Y-18.9706 F200.00
G01 X45.7200 Y-18.9700 F200.00
G01 X45.7445 Y-18.9706 F200.00
G01 X45.8278 Y-18.9747 F200.00
G01 X45.8523 Y-18.9765 F200.00
G01 X45.8767 Y-18.9795 F200.00
G01 X45.9592 Y-18.9917 F200.00
G01 X45.9834 Y-18.9959 F200.00
G01 X46.0073 Y-19.0013 F200.00
G01 X46.0882 Y-19.0216 F200.00
G01 X46.1119 Y-19.0281 F200.00
G01 X46.1352 Y-19.0358 F200.00
G01 X46.2137 Y-19.0639 F200.00
G01 X46.2366 Y-19.0728 F200.00
G01 X46.2591 Y-19.0827 F200.00
G01 X46.3345 Y-19.1184 F200.00
G01 X46.3564 Y-19.1294 F200.00
G01 X46.3777 Y-19.1415 F200.00
G01 X46.4493 Y-19.1844 F200.00
G01 X46.4700 Y-19.1975 F200.00
G01 X46.4901 Y-19.2116 F200.00
G01 X46.5571 Y-19.2613 F200.00
G01 X46.5764 Y-19.2764 F200.00
G01 X46.5950 Y-19.2925 F200.00
G01 X46.6568 Y-19.3485 F200.00
G01 X46.6746 Y-19.3654 F200.00
G01 X46.6915 Y-19.3832 F200.00
G01 X46.7475 Y-19.4450 F200.00
G01 X46.7636 Y-19.4636 F200.00
G01 X46.7787 Y-19.4829 F200.00
G01 X46.8284 Y-19.5499 F200.00
G01 X46.8425 Y-19.5700 F200.00
G01 X46.8556 Y-19.5907 F200.00
G01 X46.8985 Y-19.6623 F200.00
G01 X46.9100 Y-19.6825 F200.00
G01 X46.9102 Y-19.4577 F200.00
G01 X46.9114 Y-19.4332 F200.00
G01 X46.9138 Y-19.4088 F200.00
G01 X46.9174 Y-19.3845 F200.00
G01 X46.9221 Y-19.3604 F200.00
G01 X46.9281 Y-19.3366 F200.00
G01 X46.9315 Y-19.3249 F200.00
G01 X46.9392 Y-19.3016 F200.00
G01 X46.9481 Y-19.2787 F200.00
G01 X46.9580 Y-19.2562 F200.00
G01 X46.9634 Y-19.2452 F200.00
G01 X46.9750 Y-19.2236 F200.00
G01 X46.9876 Y-19.2025 F200.00
G01 X47.0012 Y-19.1821 F200.00
G01 X47.0158 Y-19.1624 F200.00
G01 X47.0314 Y-19.1434 F200.00
G01 X47.0479 Y-19.1252 F200.00
G01 X47.0652 Y-19.1079 F200.00
G01 X47.0834 Y-19.0914 F200.00
G01 X47.1024 Y-19.0758 F200.00
G01 X47.1221 Y-19.0612 F200.00
G01 X47.1425 Y-19.0476 F200.00
G01 X47.1636 Y-19.0350 F200.00
G01 X47.1852 Y-19.0234 F200.00
G01 X47.2074 Y-19.0129 F200.00
G01 X47.2301 Y-19.0035 F200.00
G01 X47.2592 Y-18.9933 F200.00
G01 X47.2563 Y-16.3899 F200.00
G01 X47.2360 Y-16.3763 F200.00
G01 X47.2260 Y-16.3691 F200.00
G01 X47.1571 Y-16.3180 F200.00
G01 X47.1377 Y-16.3029 F200.00
G01 X47.1191 Y-16.2869 F200.00
G01 X47.0555 Y-16.2292 F200.00
G01 X47.0377 Y-16.2123 F200.00
G01 X47.0208 Y-16.1945 F200.00
G01 X46.9631 Y-16.1309 F200.00
G01 X46.9471 Y-16.1123 F200.00
G01 X46.9320 Y-16.0929 F200.00
G01 X46.8809 Y-16.0240 F200.00
G01 X46.8667 Y-16.0039 F200.00
G01 X46.8536 Y-15.9832 F200.00
G01 X46.8095 Y-15.9095 F200.00
G01 X46.7974 Y-15.8882 F200.00
G01 X46.7863 Y-15.8662 F200.00
G01 X46.7496 Y-15.7886 F200.00
G01 X46.7397 Y-15.7662 F200.00
G01 X46.7308 Y-15.7433 F200.00
G01 X46.7019 Y-15.6624 F200.00
G01 X46.6942 Y-15.6391 F200.00
G01 X46.6877 Y-15.6155 F200.00
G01 X46.6668 Y-15.5322 F200.00
G01 X46.6614 Y-15.5082 F200.00
G01 X46.6572 Y-15.4841 F200.00
G01 X46.6446 Y-15.3991 F200.00
G01 X46.6416 Y-15.3748 F200.00
G01 X46.6398 Y-15.3503 F200.00
G01 X46.6356 Y-15.2645 F200.00
G01 X46.6352 Y-15.2523 F200.00
G01 X46.6352 Y-15.2277 F200.00
G01 X46.6398 Y-15.1297 F200.00
G01 X46.6416 Y-15.1052 F200.00
G01 X46.6446 Y-15.0809 F200.00
G01 X46.6572 Y-14.9959 F200.00
G01 X46.6614 Y-14.9718 F200.00
G01 X46.6640 Y-14.9597 F200.00
G01 X46.6877 Y-14.8645 F200.00
G01 X46.6908 Y-14.8526 F200.00
G01 X46.6979 Y-14.8292 F200.00
G01 X46.7351 Y-14.7252 F200.00
G01 X46.7397 Y-14.7138 F200.00
G01 X46.7496 Y-14.6914 F200.00
G01 X46.7863 Y-14.6138 F200.00
G01 X46.7917 Y-14.6027 F200.00
G01 X46.8033 Y-14.5811 F200.00
G01 X46.8600 Y-14.4864 F200.00
G01 X46.8737 Y-14.4660 F200.00
G01 X46.8809 Y-14.4560 F200.00
G01 X46.9394 Y-14.3773 F200.00
G01 X46.9471 Y-14.3677 F200.00
G01 X46.9631 Y-14.3491 F200.00
G01 X47.0208 Y-14.2855 F200.00
G01 X47.0377 Y-14.2677 F200.00
G01 X47.0555 Y-14.2508 F200.00
G01 X47.1110 Y-14.2005 F200.00
G00 Z4.0000
G00 X49.7997 Y-14.7663
G01 F80.00
G01 Z-0.0800
G01 F200.00
G01 X49.7997 Y-14.3843 F200.00
G01 X49.2647 Y-13.8493 F200.00
G01 X49.1689 Y-13.9067 F200.00
G01 X49.1473 Y-13.9183 F200.00
G01 X49.1103 Y-13.9360 F200.00
G01 X49.0936 Y-13.9476 F200.00
G01 X49.0833 Y-13.9543 F200.00
G01 X49.0489 Y-13.9751 F200.00
G01 X49.1362 Y-14.0163 F200.00
G01 X49.1582 Y-14.0274 F200.00
G01 X49.1795 Y-14.0395 F200.00
G01 X49.2532 Y-14.0836 F200.00
G01 X49.2739 Y-14.0967 F200.00
G01 X49.2940 Y-14.1109 F200.00
G01 X49.3629 Y-14.1620 F200.00
G01 X49.3823 Y-14.1771 F200.00
G01 X49.4009 Y-14.1931 F200.00
G01 X49.4645 Y-14.2508 F200.00
G01 X49.4735 Y-14.2592 F200.00
G01 X49.4908 Y-14.2765 F200.00
G01 X49.5569 Y-14.3491 F200.00
G01 X49.5729 Y-14.3677 F200.00
G01 X49.5880 Y-14.3871 F200.00
G01 X49.6391 Y-14.4560 F200.00
G01 X49.6533 Y-14.4761 F200.00
G01 X49.6600 Y-14.4864 F200.00
G01 X49.7105 Y-14.5705 F200.00
G01 X49.7226 Y-14.5918 F200.00
G01 X49.7283 Y-14.6027 F200.00
G01 X49.7755 Y-14.7025 F200.00
G01 X49.7849 Y-14.7252 F200.00
G01 X49.7997 Y-14.7663 F200.00
G00 Z4.0000
G00 X51.8003 Y-16.0651
G01 F80.00
G01 Z-0.0800
G01 F200.00
G01 X51.8003 Y-16.9549 F200.00
G01 X51.8256 Y-16.9460 F200.00
G01 X51.8491 Y-16.9389 F200.00
G01 X51.8967 Y-16.9270 F200.00
G01 X51.9207 Y-16.9222 F200.00
G01 X51.9571 Y-16.9166 F200.00
G01 X51.9815 Y-16.9136 F200.00
G01 X52.0060 Y-16.9118 F200.00
G01 X52.0427 Y-16.9102 F200.00
G01 X53.3550 Y-16.9100 F200.00
G01 X53.3795 Y-16.9106 F200.00
G01 X53.4163 Y-16.9126 F200.00
G01 X53.4285 Y-16.9136 F200.00
G01 X53.4529 Y-16.9166 F200.00
G01 X53.4893 Y-16.9222 F200.00
G01 X53.5133 Y-16.9270 F200.00
G01 X53.5253 Y-16.9298 F200.00
G01 X53.5609 Y-16.9389 F200.00
G01 X53.5727 Y-16.9423 F200.00
G01 X53.5960 Y-16.9500 F200.00
G01 X53.6306 Y-16.9625 F200.00
G01 X53.6420 Y-16.9671 F200.00
G01 X53.6533 Y-16.9719 F200.00
G01 X53.6866 Y-16.9875 F200.00
G01 X53.6977 Y-16.9929 F200.00
G01 X53.7193 Y-17.0045 F200.00
G01 X53.7614 Y-17.0297 F200.00
G01 X53.7717 Y-17.0364 F200.00
G01 X53.7917 Y-17.0505 F200.00
G01 X53.8212 Y-17.0726 F200.00
G01 X53.8308 Y-17.0802 F200.00
G01 X53.8402 Y-17.0881 F200.00
G01 X53.8676 Y-17.1127 F200.00
G01 X53.8765 Y-17.1211 F200.00
G01 X53.8939 Y-17.1385 F200.00
G01 X53.9269 Y-17.1748 F200.00
G01 X53.9424 Y-17.1938 F200.00
G01 X53.9499 Y-17.2036 F200.00
G01 X53.9717 Y-17.2332 F200.00
G01 X53.9786 Y-17.2433 F200.00
G01 X53.9853 Y-17.2536 F200.00
G01 X54.0043 Y-17.2851 F200.00
G01 X54.0105 Y-17.2957 F200.00
G01 X54.0221 Y-17.3173 F200.00
G01 X54.0431 Y-17.3617 F200.00
G01 X54.0525 Y-17.3844 F200.00
G01 X54.0690 Y-17.4306 F200.00
G01 X54.0761 Y-17.4541 F200.00
G01 X54.0880 Y-17.5017 F200.00
G01 X54.0928 Y-17.5257 F200.00
G01 X54.1000 Y-17.5743 F200.00
G01 X54.1014 Y-17.5865 F200.00
G01 X54.1032 Y-17.6110 F200.00
G01 X54.1048 Y-17.6477 F200.00
G01 X54.1050 Y-17.6600 F200.00
G01 X54.1050 Y-18.4850 F200.00
G01 X54.1044 Y-18.5095 F200.00
G01 X54.1024 Y-18.5463 F200.00
G01 X54.1014 Y-18.5585 F200.00
G01 X54.0984 Y-18.5829 F200.00
G01 X54.0928 Y-18.6193 F200.00
G01 X54.0880 Y-18.6433 F200.00
G01 X54.0761 Y-18.6909 F200.00
G01 X54.0690 Y-18.7144 F200.00
G01 X54.0525 Y-18.7606 F200.00
G01 X54.0431 Y-18.7833 F200.00
G01 X54.0221 Y-18.8277 F200.00
G01 X54.0105 Y-18.8493 F200.00
G01 X53.9853 Y-18.8914 F200.00
G01 X53.9786 Y-18.9017 F200.00
G01 X53.9645 Y-18.9217 F200.00
G01 X53.9424 Y-18.9512 F200.00
G01 X53.9348 Y-18.9608 F200.00
G01 X53.9187 Y-18.9794 F200.00
G01 X53.8939 Y-19.0065 F200.00
G01 X53.8765 Y-19.0239 F200.00
G01 X53.8676 Y-19.0323 F200.00
G01 X53.8402 Y-19.0569 F200.00
G01 X53.8308 Y-19.0648 F200.00
G01 X53.8114 Y-19.0799 F200.00
G01 X53.7818 Y-19.1017 F200.00
G01 X53.7717 Y-19.1086 F200.00
G01 X53.7509 Y-19.1217 F200.00
G01 X53.7193 Y-19.1405 F200.00
G01 X53.7053 Y-19.1482 F200.00
G01 X53.7053 Y-19.2443 F200.00
G01 X53.7299 Y-19.2582 F200.00
G01 X53.7614 Y-19.2772 F200.00
G01 X53.7717 Y-19.2839 F200.00
G01 X53.7917 Y-19.2980 F200.00
G01 X53.8212 Y-19.3201 F200.00
G01 X53.8308 Y-19.3277 F200.00
G01 X53.8494 Y-19.3438 F200.00
G01 X53.8765 Y-19.3686 F200.00
G01 X53.8853 Y-19.3772 F200.00
G01 X53.8939 Y-19.3860 F200.00
G01 X53.9187 Y-19.4131 F200.00
G01 X53.9348 Y-19.4317 F200.00
G01 X53.9424 Y-19.4413 F200.00
G01 X53.9645 Y-19.4708 F200.00
G01 X53.9786 Y-19.4908 F200.00
G01 X53.9917 Y-19.5116 F200.00
G01 X54.0105 Y-19.5432 F200.00
G01 X54.0164 Y-19.5540 F200.00
G01 X54.0275 Y-19.5759 F200.00
G01 X54.0431 Y-19.6092 F200.00
G01 X54.0479 Y-19.6205 F200.00
G01 X54.0525 Y-19.6319 F200.00
G01 X54.0650 Y-19.6665 F200.00
G01 X54.0690 Y-19.6781 F200.00
G01 X54.0761 Y-19.7016 F200.00
G01 X54.0880 Y-19.7492 F200.00
G01 X54.0928 Y-19.7732 F200.00
G01 X54.0948 Y-19.7854 F200.00
G01 X54.1000 Y-19.8218 F200.00
G01 X54.1014 Y-19.8340 F200.00
G01 X54.1032 Y-19.8585 F200.00
G01 X54.1048 Y-19.8952 F200.00
G01 X54.1050 Y-20.7325 F200.00
G01 X54.1044 Y-20.7570 F200.00
G01 X54.1024 Y-20.7938 F200.00
G01 X54.1000 Y-20.8182 F200.00
G01 X54.0948 Y-20.8546 F200.00
G01 X54.0906 Y-20.8788 F200.00
G01 X54.0852 Y-20.9028 F200.00
G01 X54.0761 Y-20.9384 F200.00
G01 X54.0690 Y-20.9619 F200.00
G01 X54.0567 Y-20.9966 F200.00
G01 X54.0479 Y-21.0195 F200.00
G01 X54.0380 Y-21.0419 F200.00
G01 X54.0221 Y-21.0752 F200.00
G01 X54.0105 Y-21.0968 F200.00
G01 X53.9917 Y-21.1284 F200.00
G01 X53.9786 Y-21.1492 F200.00
G01 X53.9645 Y-21.1692 F200.00
G01 X53.9424 Y-21.1987 F200.00
G01 X53.9269 Y-21.2177 F200.00
G01 X53.9023 Y-21.2451 F200.00
G01 X53.8853 Y-21.2628 F200.00
G01 X53.8765 Y-21.2714 F200.00
G01 X53.8494 Y-21.2962 F200.00
G01 X53.8308 Y-21.3123 F200.00
G01 X53.8114 Y-21.3274 F200.00
G01 X53.7818 Y-21.3492 F200.00
G01 X53.7614 Y-21.3628 F200.00
G01 X53.7299 Y-21.3818 F200.00
G01 X53.7085 Y-21.3939 F200.00
G01 X53.6866 Y-21.4050 F200.00
G01 X53.6533 Y-21.4206 F200.00
G01 X53.6306 Y-21.4300 F200.00
G01 X53.5960 Y-21.4425 F200.00
G01 X53.5727 Y-21.4502 F200.00
G01 X53.5491 Y-21.4568 F200.00
G01 X53.5133 Y-21.4655 F200.00
G01 X53.5013 Y-21.4681 F200.00
G01 X53.4771 Y-21.4723 F200.00
G01 X53.4407 Y-21.4775 F200.00
G01 X53.4285 Y-21.4789 F200.00
G01 X53.4040 Y-21.4807 F200.00
G01 X53.3673 Y-21.4823 F200.00
G01 X52.0550 Y-21.4825 F200.00
G01 X52.0305 Y-21.4819 F200.00
G01 X51.9937 Y-21.4799 F200.00
G01 X51.9815 Y-21.4789 F200.00
G01 X51.9571 Y-21.4759 F200.00
G01 X51.9207 Y-21.4703 F200.00
G01 X51.8967 Y-21.4655 F200.00
G01 X51.8491 Y-21.4536 F200.00
G01 X51.8256 Y-21.4465 F200.00
G01 X51.8003 Y-21.4376 F200.00
G01 X51.8003 Y-22.3274 F200.00
G01 X51.8256 Y-22.3185 F200.00
G01 X51.8491 Y-22.3114 F200.00
G01 X51.8847 Y-22.3023 F200.00
G01 X51.9087 Y-22.2969 F200.00
G01 X51.9329 Y-22.2927 F200.00
G01 X51.9693 Y-22.2875 F200.00
G01 X51.9937 Y-22.2851 F200.00
G01 X52.0305 Y-22.2831 F200.00
G01 X52.0550 Y-22.2825 F200.00
G01 X52.9379 Y-22.2825 F200.00
G01 X54.0087 Y-21.2118 F200.00
G01 X54.0168 Y-21.1582 F200.00
G01 X54.0216 Y-21.1341 F200.00
G01 X54.0454 Y-21.0389 F200.00
G01 X54.0525 Y-21.0154 F200.00
G01 X54.0565 Y-21.0038 F200.00
G01 X54.0856 Y-20.9230 F200.00
G01 X54.0950 Y-20.9004 F200.00
G01 X54.1316 Y-20.8227 F200.00
G01 X54.1426 Y-20.8008 F200.00
G01 X54.1547 Y-20.7794 F200.00
G01 X54.1990 Y-20.7058 F200.00
G01 X54.2126 Y-20.6854 F200.00
G01 X54.2636 Y-20.6164 F200.00
G01 X54.2787 Y-20.5970 F200.00
G01 X54.2948 Y-20.5784 F200.00
G01 X54.3525 Y-20.5149 F200.00
G01 X54.3611 Y-20.5061 F200.00
G01 X54.3789 Y-20.4892 F200.00
G01 X54.4334 Y-20.4398 F200.00
G01 X54.4520 Y-20.4237 F200.00
G01 X54.4714 Y-20.4086 F200.00
G01 X54.5305 Y-20.3648 F200.00
G01 X54.5404 Y-20.3576 F200.00
G01 X54.5608 Y-20.3440 F200.00
G01 X54.6450 Y-20.2935 F200.00
G01 X54.6666 Y-20.2819 F200.00
G01 X54.6777 Y-20.2766 F200.00
G01 X54.7554 Y-20.2400 F200.00
G01 X54.7780 Y-20.2306 F200.00
G01 X54.7895 Y-20.2263 F200.00
G01 X54.8588 Y-20.2015 F200.00
G01 X54.8821 Y-20.1938 F200.00
G01 X54.9058 Y-20.1873 F200.00
G01 X54.9772 Y-20.1694 F200.00
G01 X55.0011 Y-20.1640 F200.00
G01 X55.0253 Y-20.1598 F200.00
G01 X55.0981 Y-20.1490 F200.00
G01 X55.1225 Y-20.1460 F200.00
G01 X55.1470 Y-20.1442 F200.00
G01 X55.2205 Y-20.1406 F200.00
G01 X55.2327 Y-20.1402 F200.00
G01 X55.2573 Y-20.1402 F200.00
G01 X55.3553 Y-20.1450 F200.00
G01 X55.3797 Y-20.1474 F200.00
G01 X55.4647 Y-20.1598 F200.00
G01 X55.4889 Y-20.1640 F200.00
G01 X55.5128 Y-20.1694 F200.00
G01 X55.5842 Y-20.1873 F200.00
G01 X55.6079 Y-20.1938 F200.00
G01 X55.6312 Y-20.2015 F200.00
G01 X55.7120 Y-20.2306 F200.00
G01 X55.7346 Y-20.2400 F200.00
G01 X55.8123 Y-20.2766 F200.00
G01 X55.8342 Y-20.2876 F200.00
G01 X55.8450 Y-20.2935 F200.00
G01 X55.9292 Y-20.3440 F200.00
G01 X55.9496 Y-20.3576 F200.00
G01 X55.9932 Y-20.3897 F200.00
G01 X56.9357 Y-20.3897 F200.00
G01 X57.7215 Y-19.6041 F200.00
G01 X57.7669 Y-19.5628 F200.00
G01 X57.7854 Y-19.5468 F200.00
G01 X57.8048 Y-19.5317 F200.00
G01 X57.8442 Y-19.5025 F200.00
G01 X57.8643 Y-19.4883 F200.00
G01 X57.8746 Y-19.4816 F200.00
G01 X57.9271 Y-19.4500 F200.00
G01 X57.9485 Y-19.4379 F200.00
G01 X57.9704 Y-19.4268 F200.00
G01 X58.0148 Y-19.4058 F200.00
G01 X58.0372 Y-19.3959 F200.00
G01 X58.0601 Y-19.3871 F200.00
G01 X58.1063 Y-19.3705 F200.00
G01 X58.1296 Y-19.3628 F200.00
G01 X58.1533 Y-19.3563 F200.00
G01 X58.2009 Y-19.3443 F200.00
G01 X58.2249 Y-19.3390 F200.00
G01 X58.2490 Y-19.3348 F200.00
G01 X58.3098 Y-19.3259 F200.00
G01 X58.3220 Y-19.3246 F200.00
G01 X58.3464 Y-19.3228 F200.00
G01 X58.3955 Y-19.3204 F200.00
G01 X58.4200 Y-19.3197 F200.00
G01 X58.8597 Y-19.3197 F200.00
G01 X58.8749 Y-19.3074 F200.00
G01 X58.8846 Y-19.3000 F200.00
G01 X58.9477 Y-19.2532 F200.00
G01 X58.9678 Y-19.2391 F200.00
G01 X58.9885 Y-19.2260 F200.00
G01 X59.0558 Y-19.1856 F200.00
G01 X59.0772 Y-19.1735 F200.00
G01 X59.0991 Y-19.1625 F200.00
G01 X59.1701 Y-19.1289 F200.00
G01 X59.1925 Y-19.1190 F200.00
G01 X59.2154 Y-19.1101 F200.00
G01 X59.2893 Y-19.0837 F200.00
G01 X59.3126 Y-19.0760 F200.00
G01 X59.3244 Y-19.0726 F200.00
G01 X59.4139 Y-19.0500 F200.00
G01 X59.3244 Y-19.0274 F200.00
G01 X59.3126 Y-19.0240 F200.00
G01 X59.2893 Y-19.0163 F200.00
G01 X59.2154 Y-18.9899 F200.00
G01 X59.1925 Y-18.9810 F200.00
G01 X59.1701 Y-18.9711 F200.00
G01 X59.0991 Y-18.9375 F200.00
G01 X59.0772 Y-18.9265 F200.00
G01 X59.0558 Y-18.9144 F200.00
G01 X58.9885 Y-18.8740 F200.00
G01 X58.9678 Y-18.8609 F200.00
G01 X58.9477 Y-18.8468 F200.00
G01 X58.8846 Y-18.8000 F200.00
G01 X58.8749 Y-18.7926 F200.00
G01 X58.8597 Y-18.7802 F200.00
G01 X56.5027 Y-18.7801 F200.00
G01 X56.4414 Y-18.7772 F200.00
G01 X56.4170 Y-18.7754 F200.00
G01 X56.3926 Y-18.7724 F200.00
G01 X56.3440 Y-18.7652 F200.00
G01 X56.3199 Y-18.7610 F200.00
G01 X56.2959 Y-18.7557 F200.00
G01 X56.2483 Y-18.7437 F200.00
G01 X56.2246 Y-18.7372 F200.00
G01 X56.2013 Y-18.7295 F200.00
G01 X56.1436 Y-18.7087 F200.00
G01 X56.1209 Y-18.6993 F200.00
G01 X56.1098 Y-18.6942 F200.00
G01 X56.0544 Y-18.6678 F200.00
G01 X56.0327 Y-18.6562 F200.00
G01 X55.9800 Y-18.6248 F200.00
G01 X55.9593 Y-18.6117 F200.00
G01 X55.9392 Y-18.5975 F200.00
G01 X55.8900 Y-18.5609 F200.00
G01 X55.8804 Y-18.5532 F200.00
G01 X55.8619 Y-18.5372 F200.00
G01 X55.8255 Y-18.5042 F200.00
G01 X55.8077 Y-18.4873 F200.00
G01 X55.0668 Y-17.7463 F200.00
G01 X55.0132 Y-17.7382 F200.00
G01 X54.9891 Y-17.7334 F200.00
G01 X54.9058 Y-17.7127 F200.00
G01 X54.8821 Y-17.7062 F200.00
G01 X54.8704 Y-17.7025 F200.00
G01 X54.7895 Y-17.6737 F200.00
G01 X54.7666 Y-17.6648 F200.00
G01 X54.7442 Y-17.6549 F200.00
G01 X54.6666 Y-17.6181 F200.00
G01 X54.6450 Y-17.6065 F200.00
G01 X54.5713 Y-17.5625 F200.00
G01 X54.5505 Y-17.5493 F200.00
G01 X54.5305 Y-17.5352 F200.00
G01 X54.4714 Y-17.4914 F200.00
G01 X54.4520 Y-17.4763 F200.00
G01 X54.4334 Y-17.4602 F200.00
G01 X54.3699 Y-17.4025 F200.00
G01 X54.3611 Y-17.3939 F200.00
G01 X54.3442 Y-17.3761 F200.00
G01 X54.2866 Y-17.3124 F200.00
G01 X54.2711 Y-17.2934 F200.00
G01 X54.2198 Y-17.2245 F200.00
G01 X54.2057 Y-17.2045 F200.00
G01 X54.1925 Y-17.1837 F200.00
G01 X54.1485 Y-17.1100 F200.00
G01 X54.1369 Y-17.0884 F200.00
G01 X54.1001 Y-17.0108 F200.00
G01 X54.0902 Y-16.9884 F200.00
G01 X54.0813 Y-16.9655 F200.00
G01 X54.0525 Y-16.8846 F200.00
G01 X54.0488 Y-16.8729 F200.00
G01 X54.0423 Y-16.8492 F200.00
G01 X54.0216 Y-16.7659 F200.00
G01 X54.0168 Y-16.7418 F200.00
G01 X54.0087 Y-16.6882 F200.00
G01 X53.4270 Y-16.1065 F200.00
G01 X53.4040 Y-16.1082 F200.00
G01 X53.3795 Y-16.1094 F200.00
G01 X53.3550 Y-16.1100 F200.00
G01 X52.0427 Y-16.1098 F200.00
G01 X52.0060 Y-16.1082 F200.00
G01 X51.9815 Y-16.1064 F200.00
G01 X51.9571 Y-16.1034 F200.00
G01 X51.9207 Y-16.0978 F200.00
G01 X51.8967 Y-16.0930 F200.00
G01 X51.8491 Y-16.0811 F200.00
G01 X51.8256 Y-16.0740 F200.00
G01 X51.8003 Y-16.0651 F200.00
G00 Z4.0000
G00 X54.2819 Y-13.2506
G01 F80.00
G01 Z-0.0800
G01 F200.00
G01 X54.3418 Y-13.2724 F200.00
G01 X54.3714 Y-13.2843 F200.00
G01 X54.4008 Y-13.2969 F200.00
G01 X54.4741 Y-13.3311 F200.00
G01 X54.5028 Y-13.3451 F200.00
G01 X54.5311 Y-13.3598 F200.00
G01 X54.5591 Y-13.3752 F200.00
G01 X54.6288 Y-13.4165 F200.00
G01 X54.6559 Y-13.4332 F200.00
G01 X54.6827 Y-13.4506 F200.00
G01 X54.7090 Y-13.4687 F200.00
G01 X54.7348 Y-13.4874 F200.00
G01 X54.7997 Y-13.5360 F200.00
G01 X54.8246 Y-13.5559 F200.00
G01 X54.8490 Y-13.5764 F200.00
G01 X54.8729 Y-13.5976 F200.00
G01 X54.9326 Y-13.6522 F200.00
G01 X54.9555 Y-13.6745 F200.00
G01 X55.8248 Y-14.5438 F200.00
G01 X55.8401 Y-14.5483 F200.00
G01 X55.8705 Y-14.5579 F200.00
G01 X55.9007 Y-14.5683 F200.00
G01 X55.9700 Y-14.5931 F200.00
G01 X55.9999 Y-14.6042 F200.00
G01 X56.0295 Y-14.6160 F200.00
G01 X56.0588 Y-14.6286 F200.00
G01 X56.0878 Y-14.6419 F200.00
G01 X56.1544 Y-14.6734 F200.00
G01 X56.1830 Y-14.6874 F200.00
G01 X56.2114 Y-14.7021 F200.00
G01 X56.2393 Y-14.7174 F200.00
G01 X56.2669 Y-14.7335 F200.00
G01 X56.3300 Y-14.7714 F200.00
G01 X56.3572 Y-14.7881 F200.00
G01 X56.3839 Y-14.8055 F200.00
G01 X56.4102 Y-14.8235 F200.00
G01 X56.4361 Y-14.8422 F200.00
G01 X56.4952 Y-14.8861 F200.00
G01 X56.5206 Y-14.9054 F200.00
G01 X56.5455 Y-14.9253 F200.00
G01 X56.5699 Y-14.9459 F200.00
G01 X56.5938 Y-14.9670 F200.00
G01 X56.6484 Y-15.0164 F200.00
G01 X56.6717 Y-15.0381 F200.00
G01 X56.6946 Y-15.0604 F200.00
G01 X56.7169 Y-15.0833 F200.00
G01 X56.7386 Y-15.1066 F200.00
G01 X56.7880 Y-15.1612 F200.00
G01 X56.8091 Y-15.1851 F200.00
G01 X56.8297 Y-15.2095 F200.00
G01 X56.8496 Y-15.2344 F200.00
G01 X56.8689 Y-15.2598 F200.00
G01 X56.9128 Y-15.3189 F200.00
G01 X56.9315 Y-15.3448 F200.00
G01 X56.9495 Y-15.3711 F200.00
G01 X56.9669 Y-15.3978 F200.00
G01 X56.9836 Y-15.4250 F200.00
G01 X57.0215 Y-15.4881 F200.00
G01 X57.0376 Y-15.5157 F200.00
G01 X57.0529 Y-15.5436 F200.00
G01 X57.0676 Y-15.5720 F200.00
G01 X57.0816 Y-15.6006 F200.00
G01 X57.1131 Y-15.6672 F200.00
G01 X57.1264 Y-15.6962 F200.00
G01 X57.1390 Y-15.7255 F200.00
G01 X57.1508 Y-15.7551 F200.00
G01 X57.1619 Y-15.7850 F200.00
G01 X57.1867 Y-15.8543 F200.00
G01 X57.1971 Y-15.8845 F200.00
G01 X57.2067 Y-15.9149 F200.00
G01 X57.2112 Y-15.9302 F200.00
G01 X57.2590 Y-15.9781 F200.00
G01 X57.7242 Y-15.9766 F200.00
G01 X57.7004 Y-15.9102 F200.00
G01 X57.6901 Y-15.8800 F200.00
G01 X57.6804 Y-15.8496 F200.00
G01 X57.6715 Y-15.8190 F200.00
G01 X57.6538 Y-15.7497 F200.00
G01 X55.1343 Y-13.2302 F200.00
G01 X54.3203 Y-13.2302 F200.00
G01 X54.2819 Y-13.2506 F200.00
G00 Z4.0000
G00 X54.8897 Y-18.7006
G01 F80.00
G01 Z-0.0800
G01 F200.00
G01 X54.8811 Y-18.7560 F200.00
G01 X54.8752 Y-18.7874 F200.00
G01 X54.8686 Y-18.8186 F200.00
G01 X54.8553 Y-18.8734 F200.00
G01 X54.8471 Y-18.9043 F200.00
G01 X54.8383 Y-18.9349 F200.00
G01 X54.8286 Y-18.9654 F200.00
G01 X54.8100 Y-19.0186 F200.00
G01 X54.7989 Y-19.0485 F200.00
G01 X54.7870 Y-19.0782 F200.00
G01 X54.7744 Y-19.1075 F200.00
G01 X54.7612 Y-19.1365 F200.00
G01 X54.7507 Y-19.1587 F200.00
G01 X54.7321 Y-19.1963 F200.00
G01 X54.7507 Y-19.2338 F200.00
G01 X54.7744 Y-19.2850 F200.00
G01 X54.7870 Y-19.3143 F200.00
G01 X54.7989 Y-19.3440 F200.00
G01 X54.8143 Y-19.3859 F200.00
G01 X54.8451 Y-19.3794 F200.00
G01 X54.8764 Y-19.3736 F200.00
G01 X54.9079 Y-19.3685 F200.00
G01 X54.9807 Y-19.3577 F200.00
G01 X55.0124 Y-19.3534 F200.00
G01 X55.0441 Y-19.3499 F200.00
G01 X55.0759 Y-19.3471 F200.00
G01 X55.1077 Y-19.3452 F200.00
G01 X55.1812 Y-19.3416 F200.00
G01 X55.2131 Y-19.3404 F200.00
G01 X55.2450 Y-19.3400 F200.00
G01 X55.2769 Y-19.3404 F200.00
G01 X55.3088 Y-19.3416 F200.00
G01 X55.3823 Y-19.3452 F200.00
G01 X55.4141 Y-19.3471 F200.00
G01 X55.4459 Y-19.3499 F200.00
G01 X55.4776 Y-19.3534 F200.00
G01 X55.5093 Y-19.3577 F200.00
G01 X55.5821 Y-19.3685 F200.00
G01 X55.6136 Y-19.3736 F200.00
G01 X55.6449 Y-19.3794 F200.00
G01 X55.6761 Y-19.3860 F200.00
G01 X55.7281 Y-19.3986 F200.00
G01 X55.6947 Y-19.3824 F200.00
G01 X55.6664 Y-19.3677 F200.00
G01 X55.6384 Y-19.3523 F200.00
G01 X55.5687 Y-19.3110 F200.00
G01 X55.5416 Y-19.2943 F200.00
G01 X55.5148 Y-19.2769 F200.00
G01 X55.4885 Y-19.2588 F200.00
G01 X55.4627 Y-19.2401 F200.00
G01 X55.3978 Y-19.1915 F200.00
G01 X55.3729 Y-19.1716 F200.00
G01 X55.3485 Y-19.1511 F200.00
G01 X55.3246 Y-19.1299 F200.00
G01 X55.2649 Y-19.0753 F200.00
G01 X55.2420 Y-19.0530 F200.00
G01 X54.8897 Y-18.7006 F200.00
G00 Z4.0000
G00 X56.1155 Y-19.5350
G01 F80.00
G01 Z-0.0800
G01 F200.00
G01 X56.1830 Y-19.5674 F200.00
G01 X56.2114 Y-19.5821 F200.00
G01 X56.2253 Y-19.5898 F200.00
G01 X56.6043 Y-19.5898 F200.00
G01 X56.6138 Y-19.5802 F200.00
G01 X56.5150 Y-19.5802 F200.00
G01 X56.4831 Y-19.5799 F200.00
G01 X56.4022 Y-19.5763 F200.00
G01 X56.3703 Y-19.5743 F200.00
G01 X56.3385 Y-19.5716 F200.00
G01 X56.3068 Y-19.5681 F200.00
G01 X56.2752 Y-19.5638 F200.00
G01 X56.1952 Y-19.5515 F200.00
G01 X56.1638 Y-19.5457 F200.00
G01 X56.1326 Y-19.5391 F200.00
G01 X56.1155 Y-19.5350 F200.00
G00 Z4.0000
G00 X58.2948 Y-21.8597
G01 F80.00
G01 Z-0.0800
G01 F200.00
G01 X58.8597 Y-21.8597 F200.00
G01 X58.8749 Y-21.8474 F200.00
G01 X58.8846 Y-21.8400 F200.00
G01 X58.9477 Y-21.7932 F200.00
G01 X58.9678 Y-21.7791 F200.00
G01 X58.9885 Y-21.7660 F200.00
G01 X59.0558 Y-21.7256 F200.00
G01 X59.0772 Y-21.7135 F200.00
G01 X59.0991 Y-21.7025 F200.00
G01 X59.1701 Y-21.6689 F200.00
G01 X59.1925 Y-21.6590 F200.00
G01 X59.2154 Y-21.6501 F200.00
G01 X59.2893 Y-21.6237 F200.00
G01 X59.3009 Y-21.6197 F200.00
G01 X59.3244 Y-21.6126 F200.00
G01 X59.4139 Y-21.5900 F200.00
G01 X59.3363 Y-21.5706 F200.00
G01 X59.3126 Y-21.5640 F200.00
G01 X59.3009 Y-21.5603 F200.00
G01 X59.2039 Y-21.5256 F200.00
G01 X59.1925 Y-21.5210 F200.00
G01 X59.1701 Y-21.5111 F200.00
G01 X59.0991 Y-21.4775 F200.00
G01 X59.0772 Y-21.4665 F200.00
G01 X59.0558 Y-21.4544 F200.00
G01 X58.9885 Y-21.4140 F200.00
G01 X58.9678 Y-21.4009 F200.00
G01 X58.9477 Y-21.3868 F200.00
G01 X58.8846 Y-21.3400 F200.00
G01 X58.8749 Y-21.3326 F200.00
G01 X58.8597 Y-21.3203 F200.00
G01 X58.8343 Y-21.3203 F200.00
G01 X58.2948 Y-21.8597 F200.00
G00 Z4.0000
G00 X59.3729 Y-24.1197
G01 F80.00
G01 Z-0.0800
G01 F200.00
G01 X59.3244 Y-24.1074 F200.00
G01 X59.3009 Y-24.1003 F200.00
G01 X59.2039 Y-24.0656 F200.00
G01 X59.1925 Y-24.0610 F200.00
G01 X59.1701 Y-24.0511 F200.00
G01 X59.0881 Y-24.0121 F200.00
G01 X59.0772 Y-24.0065 F200.00
G01 X59.0558 Y-23.9944 F200.00
G01 X58.9885 Y-23.9540 F200.00
G01 X58.9678 Y-23.9409 F200.00
G01 X58.9477 Y-23.9268 F200.00
G01 X58.8846 Y-23.8800 F200.00
G01 X58.8749 Y-23.8726 F200.00
G01 X58.8597 Y-23.8603 F200.00
G01 X57.2663 Y-23.8603 F200.00
G01 X57.1566 Y-23.9700 F200.00
G01 X57.7750 Y-23.9700 F200.00
G01 X57.7995 Y-23.9706 F200.00
G01 X57.8363 Y-23.9726 F200.00
G01 X57.8607 Y-23.9750 F200.00
G01 X57.8729 Y-23.9766 F200.00
G01 X57.9093 Y-23.9822 F200.00
G01 X57.9213 Y-23.9844 F200.00
G01 X57.9453 Y-23.9898 F200.00
G01 X57.9809 Y-23.9989 F200.00
G01 X57.9927 Y-24.0023 F200.00
G01 X58.0160 Y-24.0100 F200.00
G01 X58.0506 Y-24.0225 F200.00
G01 X58.0620 Y-24.0271 F200.00
G01 X58.0733 Y-24.0319 F200.00
G01 X58.1066 Y-24.0475 F200.00
G01 X58.1177 Y-24.0529 F200.00
G01 X58.1393 Y-24.0645 F200.00
G01 X58.1709 Y-24.0833 F200.00
G01 X58.1917 Y-24.0964 F200.00
G01 X58.2018 Y-24.1033 F200.00
G01 X58.2242 Y-24.1197 F200.00
G01 X59.3729 Y-24.1197 F200.00
G00 Z4.0000
G00 X60.8000 Y-23.5349
G01 F80.00
G01 Z-0.0800
G01 F200.00
G01 X60.7776 Y-23.5720 F200.00
G01 X60.7640 Y-23.5924 F200.00
G01 X60.7026 Y-23.6751 F200.00
G01 X60.6949 Y-23.6847 F200.00
G01 X60.6789 Y-23.7033 F200.00
G01 X60.6178 Y-23.7705 F200.00
G01 X60.6092 Y-23.7792 F200.00
G01 X60.5915 Y-23.7962 F200.00
G01 X60.5333 Y-23.8489 F200.00
G01 X60.5147 Y-23.8649 F200.00
G01 X60.4954 Y-23.8800 F200.00
G01 X60.4224 Y-23.9340 F200.00
G01 X60.4122 Y-23.9409 F200.00
G01 X60.3915 Y-23.9540 F200.00
G01 X60.3242 Y-23.9944 F200.00
G01 X60.3028 Y-24.0065 F200.00
G01 X60.2809 Y-24.0175 F200.00
G01 X60.1988 Y-24.0562 F200.00
G01 X60.1875 Y-24.0610 F200.00
G01 X60.1646 Y-24.0699 F200.00
G01 X60.0791 Y-24.1003 F200.00
G01 X60.0674 Y-24.1040 F200.00
G01 X60.0437 Y-24.1106 F200.00
G01 X59.9661 Y-24.1300 F200.00
G01 X60.0556 Y-24.1526 F200.00
G01 X60.0674 Y-24.1560 F200.00
G01 X60.0907 Y-24.1637 F200.00
G01 X60.1646 Y-24.1901 F200.00
G01 X60.1875 Y-24.1990 F200.00
G01 X60.2099 Y-24.2089 F200.00
G01 X60.2809 Y-24.2425 F200.00
G01 X60.3028 Y-24.2535 F200.00
G01 X60.3242 Y-24.2656 F200.00
G01 X60.3915 Y-24.3060 F200.00
G01 X60.4122 Y-24.3191 F200.00
G01 X60.4323 Y-24.3332 F200.00
G01 X60.4954 Y-24.3800 F200.00
G01 X60.5051 Y-24.3874 F200.00
G01 X60.5203 Y-24.3997 F200.00
G01 X60.8000 Y-24.3997 F200.00
G01 X60.8000 Y-23.5349 F200.00
G00 Z4.0000
G00 X61.1350 Y-22.8803
G01 F80.00
G01 Z-0.0800
G01 F200.00
G01 X61.1186 Y-22.8703 F200.00
G01 X61.1040 Y-22.8606 F200.00
G01 X60.9844 Y-22.9802 F200.00
G01 X60.9824 Y-22.9996 F200.00
G01 X60.9798 Y-23.0179 F200.00
G01 X61.0027 Y-22.9924 F200.00
G01 X61.0197 Y-22.9747 F200.00
G01 X61.0285 Y-22.9661 F200.00
G01 X61.0556 Y-22.9413 F200.00
G01 X61.0648 Y-22.9331 F200.00
G01 X61.0838 Y-22.9176 F200.00
G01 X61.1133 Y-22.8955 F200.00
G01 X61.1350 Y-22.8803 F200.00
G00 Z4.0000
G00 X60.9857 Y-20.4190
G01 F80.00
G01 Z-0.0800
G01 F200.00
G01 X61.0113 Y-20.3936 F200.00
G01 X61.0284 Y-20.3781 F200.00
G01 X61.0639 Y-20.3486 F200.00
G01 X61.0823 Y-20.3346 F200.00
G01 X61.1204 Y-20.3085 F200.00
G01 X61.1401 Y-20.2964 F200.00
G01 X61.1804 Y-20.2739 F200.00
G01 X61.2011 Y-20.2636 F200.00
G01 X61.2327 Y-20.2495 F200.00
G01 X61.2541 Y-20.2406 F200.00
G01 X61.2649 Y-20.2366 F200.00
G01 X61.2977 Y-20.2255 F200.00
G01 X61.3198 Y-20.2186 F200.00
G01 X61.3309 Y-20.2156 F200.00
G01 X61.3646 Y-20.2075 F200.00
G01 X61.3872 Y-20.2028 F200.00
G01 X61.4100 Y-20.1991 F200.00
G01 X61.4443 Y-20.1944 F200.00
G01 X61.4558 Y-20.1932 F200.00
G01 X61.4673 Y-20.1923 F200.00
G01 X61.5019 Y-20.1905 F200.00
G01 X61.5250 Y-20.1900 F200.00
G01 X62.3500 Y-20.1900 F200.00
G01 X62.3745 Y-20.1906 F200.00
G01 X62.4113 Y-20.1926 F200.00
G01 X62.4357 Y-20.1950 F200.00
G01 X62.4843 Y-20.2022 F200.00
G01 X62.5083 Y-20.2070 F200.00
G01 X62.5559 Y-20.2189 F200.00
G01 X62.5794 Y-20.2260 F200.00
G01 X62.6256 Y-20.2425 F200.00
G01 X62.6483 Y-20.2519 F200.00
G01 X62.6927 Y-20.2729 F200.00
G01 X62.7143 Y-20.2845 F200.00
G01 X62.7459 Y-20.3033 F200.00
G01 X62.7667 Y-20.3164 F200.00
G01 X62.7867 Y-20.3305 F200.00
G01 X62.8162 Y-20.3526 F200.00
G01 X62.8352 Y-20.3681 F200.00
G01 X62.8626 Y-20.3927 F200.00
G01 X62.8803 Y-20.4097 F200.00
G01 X62.8973 Y-20.4274 F200.00
G01 X62.9219 Y-20.4548 F200.00
G01 X62.9374 Y-20.4738 F200.00
G01 X62.9595 Y-20.5033 F200.00
G01 X62.9736 Y-20.5233 F200.00
G01 X62.9803 Y-20.5336 F200.00
G01 X62.9993 Y-20.5651 F200.00
G01 X63.0114 Y-20.5865 F200.00
G01 X63.0225 Y-20.6084 F200.00
G01 X63.0381 Y-20.6417 F200.00
G01 X63.0475 Y-20.6644 F200.00
G01 X63.0600 Y-20.6990 F200.00
G01 X63.0677 Y-20.7223 F200.00
G01 X63.0711 Y-20.7341 F200.00
G01 X63.0802 Y-20.7697 F200.00
G01 X63.0856 Y-20.7937 F200.00
G01 X63.0898 Y-20.8179 F200.00
G01 X63.0950 Y-20.8543 F200.00
G01 X63.0964 Y-20.8665 F200.00
G01 X63.0982 Y-20.8910 F200.00
G01 X63.0998 Y-20.9277 F200.00
G01 X63.1000 Y-20.9400 F200.00
G01 X63.1000 Y-21.0454 F200.00
G01 X63.9000 Y-21.8454 F200.00
G01 X63.9000 Y-20.9400 F200.00
G01 X63.9005 Y-20.9169 F200.00
G01 X63.9023 Y-20.8823 F200.00
G01 X63.9032 Y-20.8708 F200.00
G01 X63.9059 Y-20.8479 F200.00
G01 X63.9108 Y-20.8136 F200.00
G01 X63.9150 Y-20.7909 F200.00
G01 X63.9256 Y-20.7459 F200.00
G01 X63.9319 Y-20.7237 F200.00
G01 X63.9428 Y-20.6908 F200.00
G01 X63.9506 Y-20.6691 F200.00
G01 X63.9549 Y-20.6583 F200.00
G01 X63.9688 Y-20.6266 F200.00
G01 X63.9786 Y-20.6057 F200.00
G01 X63.9894 Y-20.5853 F200.00
G01 X64.0064 Y-20.5551 F200.00
G01 X64.0185 Y-20.5354 F200.00
G01 X64.0446 Y-20.4973 F200.00
G01 X64.0586 Y-20.4789 F200.00
G01 X64.0806 Y-20.4522 F200.00
G01 X64.0957 Y-20.4347 F200.00
G01 X64.1036 Y-20.4263 F200.00
G01 X64.1280 Y-20.4017 F200.00
G01 X64.1447 Y-20.3857 F200.00
G01 X64.1534 Y-20.3781 F200.00
G01 X64.1799 Y-20.3558 F200.00
G01 X64.1889 Y-20.3486 F200.00
G01 X64.2073 Y-20.3346 F200.00
G01 X64.2454 Y-20.3085 F200.00
G01 X64.2552 Y-20.3023 F200.00
G01 X64.2751 Y-20.2906 F200.00
G01 X64.3054 Y-20.2739 F200.00
G01 X64.3157 Y-20.2686 F200.00
G01 X64.3261 Y-20.2636 F200.00
G01 X64.3577 Y-20.2495 F200.00
G01 X64.3791 Y-20.2406 F200.00
G01 X64.3899 Y-20.2366 F200.00
G01 X64.4337 Y-20.2219 F200.00
G01 X64.4448 Y-20.2186 F200.00
G01 X64.4671 Y-20.2128 F200.00
G01 X64.5009 Y-20.2050 F200.00
G01 X64.5122 Y-20.2028 F200.00
G01 X64.5350 Y-20.1991 F200.00
G01 X64.5693 Y-20.1944 F200.00
G01 X64.5808 Y-20.1932 F200.00
G01 X64.6038 Y-20.1916 F200.00
G01 X64.6385 Y-20.1901 F200.00
G01 X64.7554 Y-20.1900 F200.00
G01 X65.3327 Y-19.6127 F200.00
G01 X65.3505 Y-19.5958 F200.00
G01 X65.3869 Y-19.5628 F200.00
G01 X65.4054 Y-19.5468 F200.00
G01 X65.4248 Y-19.5317 F200.00
G01 X65.4742 Y-19.4953 F200.00
G01 X65.4946 Y-19.4816 F200.00
G01 X65.5471 Y-19.4500 F200.00
G01 X65.5685 Y-19.4379 F200.00
G01 X65.5904 Y-19.4268 F200.00
G01 X65.6348 Y-19.4058 F200.00
G01 X65.6572 Y-19.3959 F200.00
G01 X65.6801 Y-19.3871 F200.00
G01 X65.7379 Y-19.3665 F200.00
G01 X65.7614 Y-19.3594 F200.00
G01 X65.8209 Y-19.3443 F200.00
G01 X65.8449 Y-19.3390 F200.00
G01 X65.8690 Y-19.3348 F200.00
G01 X65.9176 Y-19.3276 F200.00
G01 X65.9420 Y-19.3246 F200.00
G01 X65.9664 Y-19.3228 F200.00
G01 X66.0155 Y-19.3204 F200.00
G01 X66.0400 Y-19.3197 F200.00
G01 X66.4797 Y-19.3197 F200.00
G01 X66.4949 Y-19.3074 F200.00
G01 X66.5046 Y-19.3000 F200.00
G01 X66.5677 Y-19.2532 F200.00
G01 X66.5878 Y-19.2391 F200.00
G01 X66.6085 Y-19.2260 F200.00
G01 X66.6758 Y-19.1856 F200.00
G01 X66.6972 Y-19.1735 F200.00
G01 X66.7191 Y-19.1625 F200.00
G01 X66.7901 Y-19.1289 F200.00
G01 X66.8125 Y-19.1190 F200.00
G01 X66.8354 Y-19.1101 F200.00
G01 X66.9093 Y-19.0837 F200.00
G01 X66.9209 Y-19.0797 F200.00
G01 X66.9444 Y-19.0726 F200.00
G01 X67.0339 Y-19.0500 F200.00
G01 X66.9563 Y-19.0306 F200.00
G01 X66.9326 Y-19.0240 F200.00
G01 X66.9093 Y-19.0163 F200.00
G01 X66.8354 Y-18.9899 F200.00
G01 X66.8125 Y-18.9810 F200.00
G01 X66.7901 Y-18.9711 F200.00
G01 X66.7191 Y-18.9375 F200.00
G01 X66.6972 Y-18.9265 F200.00
G01 X66.6758 Y-18.9144 F200.00
G01 X66.6085 Y-18.8740 F200.00
G01 X66.5878 Y-18.8609 F200.00
G01 X66.5677 Y-18.8468 F200.00
G01 X66.5046 Y-18.8000 F200.00
G01 X66.4949 Y-18.7926 F200.00
G01 X66.4759 Y-18.7770 F200.00
G01 X66.4085 Y-18.7162 F200.00
G01 X66.3908 Y-18.6992 F200.00
G01 X66.3738 Y-18.6815 F200.00
G01 X66.3130 Y-18.6141 F200.00
G01 X66.3051 Y-18.6047 F200.00
G01 X66.2900 Y-18.5854 F200.00
G01 X66.2432 Y-18.5223 F200.00
G01 X66.2291 Y-18.5022 F200.00
G01 X66.2160 Y-18.4815 F200.00
G01 X66.1756 Y-18.4142 F200.00
G01 X66.1635 Y-18.3928 F200.00
G01 X66.1525 Y-18.3709 F200.00
G01 X66.1189 Y-18.2999 F200.00
G01 X66.1090 Y-18.2775 F200.00
G01 X66.1001 Y-18.2546 F200.00
G01 X66.0737 Y-18.1807 F200.00
G01 X66.0660 Y-18.1574 F200.00
G01 X66.0594 Y-18.1337 F200.00
G01 X66.0404 Y-18.0576 F200.00
G01 X66.0375 Y-18.0456 F200.00
G01 X66.0327 Y-18.0216 F200.00
G01 X66.0193 Y-17.9318 F200.00
G01 X66.0163 Y-17.9074 F200.00
G01 X66.0145 Y-17.8829 F200.00
G01 X66.0106 Y-17.8045 F200.00
G01 X66.0100 Y-17.7800 F200.00
G01 X66.0106 Y-17.7555 F200.00
G01 X66.0145 Y-17.6771 F200.00
G01 X66.0163 Y-17.6526 F200.00
G01 X66.0193 Y-17.6282 F200.00
G01 X66.0308 Y-17.5506 F200.00
G01 X66.0350 Y-17.5264 F200.00
G01 X66.0404 Y-17.5024 F200.00
G01 X66.0594 Y-17.4263 F200.00
G01 X66.0660 Y-17.4026 F200.00
G01 X66.0737 Y-17.3793 F200.00
G01 X66.1001 Y-17.3054 F200.00
G01 X66.1090 Y-17.2825 F200.00
G01 X66.1189 Y-17.2601 F200.00
G01 X66.1525 Y-17.1891 F200.00
G01 X66.1635 Y-17.1672 F200.00
G01 X66.1756 Y-17.1458 F200.00
G01 X66.2160 Y-17.0785 F200.00
G01 X66.2291 Y-17.0578 F200.00
G01 X66.2432 Y-17.0377 F200.00
G01 X66.2900 Y-16.9746 F200.00
G01 X66.3051 Y-16.9553 F200.00
G01 X66.3130 Y-16.9459 F200.00
G01 X66.3738 Y-16.8785 F200.00
G01 X66.3908 Y-16.8608 F200.00
G01 X66.4085 Y-16.8438 F200.00
G01 X66.4667 Y-16.7911 F200.00
G01 X66.4759 Y-16.7830 F200.00
G01 X66.4949 Y-16.7674 F200.00
G01 X66.5677 Y-16.7132 F200.00
G01 X66.5776 Y-16.7060 F200.00
G01 X66.5980 Y-16.6924 F200.00
G01 X66.6758 Y-16.6456 F200.00
G01 X66.6972 Y-16.6335 F200.00
G01 X66.7191 Y-16.6225 F200.00
G01 X66.7901 Y-16.5889 F200.00
G01 X66.8125 Y-16.5790 F200.00
G01 X66.8354 Y-16.5701 F200.00
G01 X66.9093 Y-16.5437 F200.00
G01 X66.9326 Y-16.5360 F200.00
G01 X66.9563 Y-16.5294 F200.00
G01 X67.0339 Y-16.5100 F200.00
G01 X66.9563 Y-16.4906 F200.00
G01 X66.9326 Y-16.4840 F200.00
G01 X66.9093 Y-16.4763 F200.00
G01 X66.8354 Y-16.4499 F200.00
G01 X66.8125 Y-16.4410 F200.00
G01 X66.7901 Y-16.4311 F200.00
G01 X66.7191 Y-16.3975 F200.00
G01 X66.6972 Y-16.3865 F200.00
G01 X66.6758 Y-16.3744 F200.00
G01 X66.6085 Y-16.3340 F200.00
G01 X66.5878 Y-16.3209 F200.00
G01 X66.5677 Y-16.3068 F200.00
G01 X66.5046 Y-16.2600 F200.00
G01 X66.4853 Y-16.2449 F200.00
G01 X66.4759 Y-16.2370 F200.00
G01 X66.4085 Y-16.1762 F200.00
G01 X66.3908 Y-16.1592 F200.00
G01 X66.3738 Y-16.1415 F200.00
G01 X66.3130 Y-16.0741 F200.00
G01 X66.2974 Y-16.0551 F200.00
G01 X66.2900 Y-16.0454 F200.00
G01 X66.2432 Y-15.9823 F200.00
G01 X66.2291 Y-15.9622 F200.00
G01 X66.2160 Y-15.9415 F200.00
G01 X66.1756 Y-15.8742 F200.00
G01 X66.1635 Y-15.8528 F200.00
G01 X66.1525 Y-15.8309 F200.00
G01 X66.1189 Y-15.7599 F200.00
G01 X66.1090 Y-15.7375 F200.00
G01 X66.1001 Y-15.7146 F200.00
G01 X66.0737 Y-15.6407 F200.00
G01 X66.0660 Y-15.6174 F200.00
G01 X66.0594 Y-15.5937 F200.00
G01 X66.0404 Y-15.5176 F200.00
G01 X66.0350 Y-15.4936 F200.00
G01 X66.0308 Y-15.4694 F200.00
G01 X66.0193 Y-15.3918 F200.00
G01 X66.0176 Y-15.3796 F200.00
G01 X66.0152 Y-15.3552 F200.00
G01 X66.0106 Y-15.2645 F200.00
G01 X66.0100 Y-15.2400 F200.00
G01 X66.0106 Y-15.2155 F200.00
G01 X66.0145 Y-15.1371 F200.00
G01 X66.0163 Y-15.1126 F200.00
G01 X66.0193 Y-15.0882 F200.00
G01 X66.0308 Y-15.0106 F200.00
G01 X66.0350 Y-14.9864 F200.00
G01 X66.0404 Y-14.9624 F200.00
G01 X66.0626 Y-14.8744 F200.00
G01 X66.0697 Y-14.8509 F200.00
G01 X66.0737 Y-14.8393 F200.00
G01 X66.1044 Y-14.7539 F200.00
G01 X66.1090 Y-14.7425 F200.00
G01 X66.1189 Y-14.7201 F200.00
G01 X66.1525 Y-14.6491 F200.00
G01 X66.1635 Y-14.6272 F200.00
G01 X66.1694 Y-14.6164 F200.00
G01 X66.2160 Y-14.5385 F200.00
G01 X66.2291 Y-14.5178 F200.00
G01 X66.2432 Y-14.4977 F200.00
G01 X66.2900 Y-14.4346 F200.00
G01 X66.3051 Y-14.4153 F200.00
G01 X66.3211 Y-14.3967 F200.00
G01 X66.3738 Y-14.3385 F200.00
G01 X66.3908 Y-14.3208 F200.00
G01 X66.4085 Y-14.3038 F200.00
G01 X66.4667 Y-14.2511 F200.00
G01 X66.4853 Y-14.2351 F200.00
G01 X66.5046 Y-14.2200 F200.00
G01 X66.5677 Y-14.1732 F200.00
G01 X66.5878 Y-14.1591 F200.00
G01 X66.6085 Y-14.1460 F200.00
G01 X66.6758 Y-14.1056 F200.00
G01 X66.6972 Y-14.0935 F200.00
G01 X66.7191 Y-14.0825 F200.00
G01 X66.7901 Y-14.0489 F200.00
G01 X66.8125 Y-14.0390 F200.00
G01 X66.8354 Y-14.0301 F200.00
G01 X66.9093 Y-14.0037 F200.00
G01 X66.9326 Y-13.9960 F200.00
G01 X66.9563 Y-13.9894 F200.00
G01 X67.0339 Y-13.9700 F200.00
G01 X66.9563 Y-13.9506 F200.00
G01 X66.9326 Y-13.9440 F200.00
G01 X66.9093 Y-13.9363 F200.00
G01 X66.8239 Y-13.9056 F200.00
G01 X66.8125 Y-13.9010 F200.00
G01 X66.7901 Y-13.8911 F200.00
G01 X66.7191 Y-13.8575 F200.00
G01 X66.6972 Y-13.8465 F200.00
G01 X66.6758 Y-13.8344 F200.00
G01 X66.6085 Y-13.7940 F200.00
G01 X66.5878 Y-13.7809 F200.00
G01 X66.5677 Y-13.7668 F200.00
G01 X66.5046 Y-13.7200 F200.00
G01 X66.4853 Y-13.7049 F200.00
G01 X66.4667 Y-13.6889 F200.00
G01 X66.4085 Y-13.6362 F200.00
G01 X66.3908 Y-13.6192 F200.00
G01 X66.3738 Y-13.6015 F200.00
G01 X66.3211 Y-13.5433 F200.00
G01 X66.3130 Y-13.5341 F200.00
G01 X66.2974 Y-13.5151 F200.00
G01 X66.2432 Y-13.4423 F200.00
G01 X66.2291 Y-13.4222 F200.00
G01 X66.2160 Y-13.4015 F200.00
G01 X66.1756 Y-13.3342 F200.00
G01 X66.1635 Y-13.3128 F200.00
G01 X66.1525 Y-13.2909 F200.00
G01 X66.1189 Y-13.2199 F200.00
G01 X66.1090 Y-13.1975 F200.00
G01 X66.1001 Y-13.1746 F200.00
G01 X66.0737 Y-13.1007 F200.00
G01 X66.0660 Y-13.0774 F200.00
G01 X66.0594 Y-13.0537 F200.00
G01 X66.0404 Y-12.9776 F200.00
G01 X66.0350 Y-12.9536 F200.00
G01 X66.0308 Y-12.9294 F200.00
G01 X66.0193 Y-12.8518 F200.00
G01 X66.0163 Y-12.8274 F200.00
G01 X66.0145 Y-12.8029 F200.00
G01 X66.0106 Y-12.7245 F200.00
G01 X66.0100 Y-12.7000 F200.00
G01 X66.0106 Y-12.6755 F200.00
G01 X66.0145 Y-12.5971 F200.00
G01 X66.0163 Y-12.5726 F200.00
G01 X66.0193 Y-12.5482 F200.00
G01 X66.0308 Y-12.4706 F200.00
G01 X66.0350 Y-12.4464 F200.00
G01 X66.0404 Y-12.4224 F200.00
G01 X66.0594 Y-12.3463 F200.00
G01 X66.0660 Y-12.3226 F200.00
G01 X66.0737 Y-12.2993 F200.00
G01 X66.1044 Y-12.2139 F200.00
G01 X66.1090 Y-12.2025 F200.00
G01 X66.1189 Y-12.1801 F200.00
G01 X66.1525 Y-12.1091 F200.00
G01 X66.1635 Y-12.0872 F200.00
G01 X66.1694 Y-12.0764 F200.00
G01 X66.2224 Y-11.9880 F200.00
G01 X66.2360 Y-11.9676 F200.00
G01 X66.2432 Y-11.9577 F200.00
G01 X66.2900 Y-11.8946 F200.00
G01 X66.3051 Y-11.8753 F200.00
G01 X66.3211 Y-11.8567 F200.00
G01 X66.3738 Y-11.7985 F200.00
G01 X66.3908 Y-11.7808 F200.00
G01 X66.4085 Y-11.7638 F200.00
G01 X66.4667 Y-11.7111 F200.00
G01 X66.4853 Y-11.6951 F200.00
G01 X66.5046 Y-11.6800 F200.00
G01 X66.5677 Y-11.6332 F200.00
G01 X66.5878 Y-11.6191 F200.00
G01 X66.6085 Y-11.6060 F200.00
G01 X66.6758 Y-11.5656 F200.00
G01 X66.6972 Y-11.5535 F200.00
G01 X66.7191 Y-11.5425 F200.00
G01 X66.7901 Y-11.5089 F200.00
G01 X66.8125 Y-11.4990 F200.00
G01 X66.8354 Y-11.4901 F200.00
G01 X66.9093 Y-11.4637 F200.00
G01 X66.9326 Y-11.4560 F200.00
G01 X66.9563 Y-11.4494 F200.00
G01 X67.0339 Y-11.4300 F200.00
G01 X66.9563 Y-11.4106 F200.00
G01 X66.9326 Y-11.4040 F200.00
G01 X66.9093 Y-11.3963 F200.00
G01 X66.8239 Y-11.3656 F200.00
G01 X66.8125 Y-11.3610 F200.00
G01 X66.7901 Y-11.3511 F200.00
G01 X66.7191 Y-11.3175 F200.00
G01 X66.7081 Y-11.3121 F200.00
G01 X66.6864 Y-11.3006 F200.00
G01 X66.6085 Y-11.2540 F200.00
G01 X66.5878 Y-11.2409 F200.00
G01 X66.5677 Y-11.2268 F200.00
G01 X66.4949 Y-11.1726 F200.00
G01 X66.4853 Y-11.1649 F200.00
G01 X66.4667 Y-11.1489 F200.00
G01 X66.4085 Y-11.0962 F200.00
G01 X66.3908 Y-11.0792 F200.00
G01 X66.3738 Y-11.0615 F200.00
G01 X66.3211 Y-11.0033 F200.00
G01 X66.3051 Y-10.9847 F200.00
G01 X66.2900 Y-10.9654 F200.00
G01 X66.2432 Y-10.9023 F200.00
G01 X66.2291 Y-10.8822 F200.00
G01 X66.2160 Y-10.8615 F200.00
G01 X66.1756 Y-10.7942 F200.00
G01 X66.1635 Y-10.7728 F200.00
G01 X66.1525 Y-10.7509 F200.00
G01 X66.1189 Y-10.6799 F200.00
G01 X66.1090 Y-10.6575 F200.00
G01 X66.1001 Y-10.6346 F200.00
G01 X66.0737 Y-10.5607 F200.00
G01 X66.0660 Y-10.5374 F200.00
G01 X66.0626 Y-10.5256 F200.00
G01 X66.0404 Y-10.4376 F200.00
G01 X66.0350 Y-10.4136 F200.00
G01 X66.0308 Y-10.3894 F200.00
G01 X66.0193 Y-10.3118 F200.00
G01 X66.0176 Y-10.2996 F200.00
G01 X66.0152 Y-10.2752 F200.00
G01 X66.0106 Y-10.1845 F200.00
G01 X66.0100 Y-10.1600 F200.00
G01 X66.0106 Y-10.1355 F200.00
G01 X66.0145 Y-10.0571 F200.00
G01 X66.0163 Y-10.0326 F200.00
G01 X66.0176 Y-10.0204 F200.00
G01 X66.0327 Y-9.9184 F200.00
G01 X66.0375 Y-9.8944 F200.00
G01 X66.0404 Y-9.8824 F200.00
G01 X66.0594 Y-9.8063 F200.00
G01 X66.0660 Y-9.7826 F200.00
G01 X66.0697 Y-9.7709 F200.00
G01 X66.1001 Y-9.6854 F200.00
G01 X66.1090 Y-9.6625 F200.00
G01 X66.1138 Y-9.6512 F200.00
G01 X66.1525 Y-9.5691 F200.00
G01 X66.1635 Y-9.5472 F200.00
G01 X66.1756 Y-9.5258 F200.00
G01 X66.2160 Y-9.4585 F200.00
G01 X66.2291 Y-9.4378 F200.00
G01 X66.2360 Y-9.4276 F200.00
G01 X66.2900 Y-9.3546 F200.00
G01 X66.3051 Y-9.3353 F200.00
G01 X66.3211 Y-9.3167 F200.00
G01 X66.3738 Y-9.2585 F200.00
G01 X66.3908 Y-9.2408 F200.00
G01 X66.4085 Y-9.2238 F200.00
G01 X66.4667 Y-9.1711 F200.00
G01 X66.4853 Y-9.1551 F200.00
G01 X66.5046 Y-9.1400 F200.00
G01 X66.5677 Y-9.0932 F200.00
G01 X66.5878 Y-9.0791 F200.00
G01 X66.6085 Y-9.0660 F200.00
G01 X66.6758 Y-9.0256 F200.00
G01 X66.6972 Y-9.0135 F200.00
G01 X66.7191 Y-9.0025 F200.00
G01 X66.7901 Y-8.9689 F200.00
G01 X66.8125 Y-8.9590 F200.00
G01 X66.8354 Y-8.9501 F200.00
G01 X66.9093 Y-8.9237 F200.00
G01 X66.9326 Y-8.9160 F200.00
G01 X66.9563 Y-8.9094 F200.00
G01 X67.0339 Y-8.8900 F200.00
G01 X66.9563 Y-8.8706 F200.00
G01 X66.9326 Y-8.8640 F200.00
G01 X66.9093 Y-8.8563 F200.00
G01 X66.8354 Y-8.8299 F200.00
G01 X66.8125 Y-8.8210 F200.00
G01 X66.7901 Y-8.8111 F200.00
G01 X66.7191 Y-8.7775 F200.00
G01 X66.6972 Y-8.7665 F200.00
G01 X66.6758 Y-8.7544 F200.00
G01 X66.6085 Y-8.7140 F200.00
G01 X66.5878 Y-8.7009 F200.00
G01 X66.5677 Y-8.6868 F200.00
G01 X66.5046 Y-8.6400 F200.00
G01 X66.4853 Y-8.6249 F200.00
G01 X66.4667 Y-8.6089 F200.00
G01 X66.4085 Y-8.5562 F200.00
G01 X66.3908 Y-8.5392 F200.00
G01 X66.3738 Y-8.5215 F200.00
G01 X66.3211 Y-8.4633 F200.00
G01 X66.3051 Y-8.4447 F200.00
G01 X66.2900 Y-8.4254 F200.00
G01 X66.2432 Y-8.3623 F200.00
G01 X66.2291 Y-8.3422 F200.00
G01 X66.2160 Y-8.3215 F200.00
G01 X66.1756 Y-8.2542 F200.00
G01 X66.1635 Y-8.2328 F200.00
G01 X66.1525 Y-8.2109 F200.00
G01 X66.1189 Y-8.1399 F200.00
G01 X66.1090 Y-8.1175 F200.00
G01 X66.1001 Y-8.0946 F200.00
G01 X66.0737 Y-8.0207 F200.00
G01 X66.0660 Y-7.9974 F200.00
G01 X66.0594 Y-7.9737 F200.00
G01 X66.0404 Y-7.8976 F200.00
G01 X66.0350 Y-7.8736 F200.00
G01 X66.0308 Y-7.8494 F200.00
G01 X66.0193 Y-7.7718 F200.00
G01 X66.0163 Y-7.7474 F200.00
G01 X66.0145 Y-7.7229 F200.00
G01 X66.0106 Y-7.6445 F200.00
G01 X66.0100 Y-7.6200 F200.00
G01 X66.0106 Y-7.5955 F200.00
G01 X66.0145 Y-7.5171 F200.00
G01 X66.0163 Y-7.4926 F200.00
G01 X66.0193 Y-7.4682 F200.00
G01 X66.0308 Y-7.3906 F200.00
G01 X66.0350 Y-7.3664 F200.00
G01 X66.0404 Y-7.3424 F200.00
G01 X66.0594 Y-7.2663 F200.00
G01 X66.0660 Y-7.2426 F200.00
G01 X66.0737 Y-7.2193 F200.00
G01 X66.1001 Y-7.1454 F200.00
G01 X66.1090 Y-7.1225 F200.00
G01 X66.1189 Y-7.1001 F200.00
G01 X66.1525 Y-7.0291 F200.00
G01 X66.1635 Y-7.0072 F200.00
G01 X66.1756 Y-6.9858 F200.00
G01 X66.2160 Y-6.9185 F200.00
G01 X66.2291 Y-6.8978 F200.00
G01 X66.2432 Y-6.8777 F200.00
G01 X66.2900 Y-6.8146 F200.00
G01 X66.3051 Y-6.7953 F200.00
G01 X66.3211 Y-6.7767 F200.00
G01 X66.3816 Y-6.7102 F200.00
G01 X62.0143 Y-6.7102 F200.00
G01 X60.9844 Y-7.7402 F200.00
G01 X60.9824 Y-7.7596 F200.00
G01 X60.9807 Y-7.7718 F200.00
G01 X60.9692 Y-7.8494 F200.00
G01 X60.9650 Y-7.8736 F200.00
G01 X60.9596 Y-7.8976 F200.00
G01 X60.9406 Y-7.9737 F200.00
G01 X60.9340 Y-7.9974 F200.00
G01 X60.9263 Y-8.0207 F200.00
G01 X60.8956 Y-8.1061 F200.00
G01 X60.8910 Y-8.1175 F200.00
G01 X60.8811 Y-8.1399 F200.00
G01 X60.8475 Y-8.2109 F200.00
G01 X60.8365 Y-8.2328 F200.00
G01 X60.8244 Y-8.2542 F200.00
G01 X60.7840 Y-8.3215 F200.00
G01 X60.7709 Y-8.3422 F200.00
G01 X60.7568 Y-8.3623 F200.00
G01 X60.7100 Y-8.4254 F200.00
G01 X60.6949 Y-8.4447 F200.00
G01 X60.6789 Y-8.4633 F200.00
G01 X60.6178 Y-8.5305 F200.00
G01 X60.6005 Y-8.5478 F200.00
G01 X60.5915 Y-8.5562 F200.00
G01 X60.5333 Y-8.6089 F200.00
G01 X60.5147 Y-8.6249 F200.00
G01 X60.4954 Y-8.6400 F200.00
G01 X60.4323 Y-8.6868 F200.00
G01 X60.4122 Y-8.7009 F200.00
G01 X60.3915 Y-8.7140 F200.00
G01 X60.3136 Y-8.7606 F200.00
G01 X60.3028 Y-8.7665 F200.00
G01 X60.2809 Y-8.7775 F200.00
G01 X60.2099 Y-8.8111 F200.00
G01 X60.1988 Y-8.8162 F200.00
G01 X60.1761 Y-8.8256 F200.00
G01 X60.0907 Y-8.8563 F200.00
G01 X60.0674 Y-8.8640 F200.00
G01 X60.0437 Y-8.8706 F200.00
G01 X59.9661 Y-8.8900 F200.00
G01 X60.0437 Y-8.9094 F200.00
G01 X60.0674 Y-8.9160 F200.00
G01 X60.0907 Y-8.9237 F200.00
G01 X60.1761 Y-8.9544 F200.00
G01 X60.1988 Y-8.9638 F200.00
G01 X60.2099 Y-8.9689 F200.00
G01 X60.2809 Y-9.0025 F200.00
G01 X60.3028 Y-9.0135 F200.00
G01 X60.3242 Y-9.0256 F200.00
G01 X60.3915 Y-9.0660 F200.00
G01 X60.4122 Y-9.0791 F200.00
G01 X60.4323 Y-9.0932 F200.00
G01 X60.4954 Y-9.1400 F200.00
G01 X60.5147 Y-9.1551 F200.00
G01 X60.5333 Y-9.1711 F200.00
G01 X60.5915 Y-9.2238 F200.00
G01 X60.6092 Y-9.2408 F200.00
G01 X60.6262 Y-9.2585 F200.00
G01 X60.6789 Y-9.3167 F200.00
G01 X60.6870 Y-9.3259 F200.00
G01 X60.7026 Y-9.3449 F200.00
G01 X60.7568 Y-9.4177 F200.00
G01 X60.7709 Y-9.4378 F200.00
G01 X60.7840 Y-9.4585 F200.00
G01 X60.8244 Y-9.5258 F200.00
G01 X60.8365 Y-9.5472 F200.00
G01 X60.8475 Y-9.5691 F200.00
G01 X60.8811 Y-9.6401 F200.00
G01 X60.8910 Y-9.6625 F200.00
G01 X60.8999 Y-9.6854 F200.00
G01 X60.9263 Y-9.7593 F200.00
G01 X60.9340 Y-9.7826 F200.00
G01 X60.9406 Y-9.8063 F200.00
G01 X60.9596 Y-9.8824 F200.00
G01 X60.9650 Y-9.9064 F200.00
G01 X60.9692 Y-9.9306 F200.00
G01 X60.9807 Y-10.0082 F200.00
G01 X60.9837 Y-10.0326 F200.00
G01 X60.9855 Y-10.0571 F200.00
G01 X60.9894 Y-10.1355 F200.00
G01 X60.9900 Y-10.1600 F200.00
G01 X60.9894 Y-10.1845 F200.00
G01 X60.9855 Y-10.2629 F200.00
G01 X60.9837 Y-10.2874 F200.00
G01 X60.9807 Y-10.3118 F200.00
G01 X60.9692 Y-10.3894 F200.00
G01 X60.9650 Y-10.4136 F200.00
G01 X60.9596 Y-10.4376 F200.00
G01 X60.9406 Y-10.5137 F200.00
G01 X60.9340 Y-10.5374 F200.00
G01 X60.9263 Y-10.5607 F200.00
G01 X60.8956 Y-10.6461 F200.00
G01 X60.8862 Y-10.6688 F200.00
G01 X60.8811 Y-10.6799 F200.00
G01 X60.8475 Y-10.7509 F200.00
G01 X60.8365 Y-10.7728 F200.00
G01 X60.8306 Y-10.7836 F200.00
G01 X60.7776 Y-10.8720 F200.00
G01 X60.7709 Y-10.8822 F200.00
G01 X60.7568 Y-10.9023 F200.00
G01 X60.7100 Y-10.9654 F200.00
G01 X60.6949 Y-10.9847 F200.00
G01 X60.6789 Y-11.0033 F200.00
G01 X60.6262 Y-11.0615 F200.00
G01 X60.6092 Y-11.0792 F200.00
G01 X60.5915 Y-11.0962 F200.00
G01 X60.5333 Y-11.1489 F200.00
G01 X60.5147 Y-11.1649 F200.00
G01 X60.4954 Y-11.1800 F200.00
G01 X60.4323 Y-11.2268 F200.00
G01 X60.4122 Y-11.2409 F200.00
G01 X60.3915 Y-11.2540 F200.00
G01 X60.3242 Y-11.2944 F200.00
G01 X60.3028 Y-11.3065 F200.00
G01 X60.2809 Y-11.3175 F200.00
G01 X60.2099 Y-11.3511 F200.00
G01 X60.1875 Y-11.3610 F200.00
G01 X60.1646 Y-11.3699 F200.00
G01 X60.0907 Y-11.3963 F200.00
G01 X60.0674 Y-11.4040 F200.00
G01 X60.0437 Y-11.4106 F200.00
G01 X59.9661 Y-11.4300 F200.00
G01 X60.0437 Y-11.4494 F200.00
G01 X60.0674 Y-11.4560 F200.00
G01 X60.0907 Y-11.4637 F200.00
G01 X60.1761 Y-11.4944 F200.00
G01 X60.1988 Y-11.5038 F200.00
G01 X60.2099 Y-11.5089 F200.00
G01 X60.2809 Y-11.5425 F200.00
G01 X60.3028 Y-11.5535 F200.00
G01 X60.3136 Y-11.5594 F200.00
G01 X60.3915 Y-11.6060 F200.00
G01 X60.4122 Y-11.6191 F200.00
G01 X60.4323 Y-11.6332 F200.00
G01 X60.4954 Y-11.6800 F200.00
G01 X60.5147 Y-11.6951 F200.00
G01 X60.5333 Y-11.7111 F200.00
G01 X60.5915 Y-11.7638 F200.00
G01 X60.6092 Y-11.7808 F200.00
G01 X60.6178 Y-11.7895 F200.00
G01 X60.6789 Y-11.8567 F200.00
G01 X60.6949 Y-11.8753 F200.00
G01 X60.7100 Y-11.8946 F200.00
G01 X60.7568 Y-11.9577 F200.00
G01 X60.7709 Y-11.9778 F200.00
G01 X60.7840 Y-11.9985 F200.00
G01 X60.8244 Y-12.0658 F200.00
G01 X60.8365 Y-12.0872 F200.00
G01 X60.8421 Y-12.0981 F200.00
G01 X60.8811 Y-12.1801 F200.00
G01 X60.8910 Y-12.2025 F200.00
G01 X60.8999 Y-12.2254 F200.00
G01 X60.9303 Y-12.3109 F200.00
G01 X60.9340 Y-12.3226 F200.00
G01 X60.9406 Y-12.3463 F200.00
G01 X60.9596 Y-12.4224 F200.00
G01 X60.9650 Y-12.4464 F200.00
G01 X60.9692 Y-12.4706 F200.00
G01 X60.9807 Y-12.5482 F200.00
G01 X60.9837 Y-12.5726 F200.00
G01 X60.9855 Y-12.5971 F200.00
G01 X60.9894 Y-12.6755 F200.00
G01 X60.9900 Y-12.7000 F200.00
G01 X60.9894 Y-12.7245 F200.00
G01 X60.9855 Y-12.8029 F200.00
G01 X60.9837 Y-12.8274 F200.00
G01 X60.9807 Y-12.8518 F200.00
G01 X60.9692 Y-12.9294 F200.00
G01 X60.9650 Y-12.9536 F200.00
G01 X60.9596 Y-12.9776 F200.00
G01 X60.9406 Y-13.0537 F200.00
G01 X60.9340 Y-13.0774 F200.00
G01 X60.9263 Y-13.1007 F200.00
G01 X60.8999 Y-13.1746 F200.00
G01 X60.8910 Y-13.1975 F200.00
G01 X60.8811 Y-13.2199 F200.00
G01 X60.8475 Y-13.2909 F200.00
G01 X60.8365 Y-13.3128 F200.00
G01 X60.8244 Y-13.3342 F200.00
G01 X60.7840 Y-13.4015 F200.00
G01 X60.7709 Y-13.4222 F200.00
G01 X60.7568 Y-13.4423 F200.00
G01 X60.7100 Y-13.5054 F200.00
G01 X60.6949 Y-13.5247 F200.00
G01 X60.6789 Y-13.5433 F200.00
G01 X60.6262 Y-13.6015 F200.00
G01 X60.6092 Y-13.6192 F200.00
G01 X60.5915 Y-13.6362 F200.00
G01 X60.5333 Y-13.6889 F200.00
G01 X60.5147 Y-13.7049 F200.00
G01 X60.4954 Y-13.7200 F200.00
G01 X60.4323 Y-13.7668 F200.00
G01 X60.4122 Y-13.7809 F200.00
G01 X60.3915 Y-13.7940 F200.00
G01 X60.3242 Y-13.8344 F200.00
G01 X60.3028 Y-13.8465 F200.00
G01 X60.2809 Y-13.8575 F200.00
G01 X60.2099 Y-13.8911 F200.00
G01 X60.1875 Y-13.9010 F200.00
G01 X60.1646 Y-13.9099 F200.00
G01 X60.0907 Y-13.9363 F200.00
G01 X60.0674 Y-13.9440 F200.00
G01 X60.0437 Y-13.9506 F200.00
G01 X59.9661 Y-13.9700 F200.00
G01 X60.0437 Y-13.9894 F200.00
G01 X60.0674 Y-13.9960 F200.00
G01 X60.0791 Y-13.9997 F200.00
G01 X60.1646 Y-14.0301 F200.00
G01 X60.1875 Y-14.0390 F200.00
G01 X60.1988 Y-14.0438 F200.00
G01 X60.2809 Y-14.0825 F200.00
G01 X60.3028 Y-14.0935 F200.00
G01 X60.3242 Y-14.1056 F200.00
G01 X60.3915 Y-14.1460 F200.00
G01 X60.4122 Y-14.1591 F200.00
G01 X60.4224 Y-14.1660 F200.00
G01 X60.4954 Y-14.2200 F200.00
G01 X60.5147 Y-14.2351 F200.00
G01 X60.5333 Y-14.2511 F200.00
G01 X60.5915 Y-14.3038 F200.00
G01 X60.6092 Y-14.3208 F200.00
G01 X60.6262 Y-14.3385 F200.00
G01 X60.6789 Y-14.3967 F200.00
G01 X60.6949 Y-14.4153 F200.00
G01 X60.7100 Y-14.4346 F200.00
G01 X60.7568 Y-14.4977 F200.00
G01 X60.7640 Y-14.5076 F200.00
G01 X60.7776 Y-14.5280 F200.00
G01 X60.8244 Y-14.6058 F200.00
G01 X60.8365 Y-14.6272 F200.00
G01 X60.8475 Y-14.6491 F200.00
G01 X60.8811 Y-14.7201 F200.00
G01 X60.8910 Y-14.7425 F200.00
G01 X60.8999 Y-14.7654 F200.00
G01 X60.9263 Y-14.8393 F200.00
G01 X60.9340 Y-14.8626 F200.00
G01 X60.9406 Y-14.8863 F200.00
G01 X60.9596 Y-14.9624 F200.00
G01 X60.9650 Y-14.9864 F200.00
G01 X60.9673 Y-14.9984 F200.00
G01 X60.9807 Y-15.0882 F200.00
G01 X60.9837 Y-15.1126 F200.00
G01 X60.9855 Y-15.1371 F200.00
G01 X60.9894 Y-15.2155 F200.00
G01 X60.9900 Y-15.2400 F200.00
G01 X60.9898 Y-15.2523 F200.00
G01 X60.9855 Y-15.3429 F200.00
G01 X60.9837 Y-15.3674 F200.00
G01 X60.9824 Y-15.3796 F200.00
G01 X60.9673 Y-15.4816 F200.00
G01 X60.9650 Y-15.4936 F200.00
G01 X60.9596 Y-15.5176 F200.00
G01 X60.9406 Y-15.5937 F200.00
G01 X60.9340 Y-15.6174 F200.00
G01 X60.9263 Y-15.6407 F200.00
G01 X60.8999 Y-15.7146 F200.00
G01 X60.8910 Y-15.7375 F200.00
G01 X60.8811 Y-15.7599 F200.00
G01 X60.8475 Y-15.8309 F200.00
G01 X60.8365 Y-15.8528 F200.00
G01 X60.8244 Y-15.8742 F200.00
G01 X60.7840 Y-15.9415 F200.00
G01 X60.7709 Y-15.9622 F200.00
G01 X60.7568 Y-15.9823 F200.00
G01 X60.7100 Y-16.0454 F200.00
G01 X60.6949 Y-16.0647 F200.00
G01 X60.6789 Y-16.0833 F200.00
G01 X60.6262 Y-16.1415 F200.00
G01 X60.6092 Y-16.1592 F200.00
G01 X60.5915 Y-16.1762 F200.00
G01 X60.5333 Y-16.2289 F200.00
G01 X60.5147 Y-16.2449 F200.00
G01 X60.4954 Y-16.2600 F200.00
G01 X60.4323 Y-16.3068 F200.00
G01 X60.4122 Y-16.3209 F200.00
G01 X60.3915 Y-16.3340 F200.00
G01 X60.3242 Y-16.3744 F200.00
G01 X60.3028 Y-16.3865 F200.00
G01 X60.2809 Y-16.3975 F200.00
G01 X60.2099 Y-16.4311 F200.00
G01 X60.1875 Y-16.4410 F200.00
G01 X60.1646 Y-16.4499 F200.00
G01 X60.0907 Y-16.4763 F200.00
G01 X60.0674 Y-16.4840 F200.00
G01 X60.0437 Y-16.4906 F200.00
G01 X59.9661 Y-16.5100 F200.00
G01 X60.0437 Y-16.5294 F200.00
G01 X60.0674 Y-16.5360 F200.00
G01 X60.0907 Y-16.5437 F200.00
G01 X60.1646 Y-16.5701 F200.00
G01 X60.1875 Y-16.5790 F200.00
G01 X60.2099 Y-16.5889 F200.00
G01 X60.2809 Y-16.6225 F200.00
G01 X60.3028 Y-16.6335 F200.00
G01 X60.3242 Y-16.6456 F200.00
G01 X60.3915 Y-16.6860 F200.00
G01 X60.4122 Y-16.6991 F200.00
G01 X60.4323 Y-16.7132 F200.00
G01 X60.4954 Y-16.7600 F200.00
G01 X60.5147 Y-16.7751 F200.00
G01 X60.5333 Y-16.7911 F200.00
G01 X60.5915 Y-16.8438 F200.00
G01 X60.6092 Y-16.8608 F200.00
G01 X60.6262 Y-16.8785 F200.00
G01 X60.6789 Y-16.9367 F200.00
G01 X60.6949 Y-16.9553 F200.00
G01 X60.7100 Y-16.9746 F200.00
G01 X60.7640 Y-17.0476 F200.00
G01 X60.7709 Y-17.0578 F200.00
G01 X60.7840 Y-17.0785 F200.00
G01 X60.8306 Y-17.1564 F200.00
G01 X60.8421 Y-17.1781 F200.00
G01 X60.8475 Y-17.1891 F200.00
G01 X60.8811 Y-17.2601 F200.00
G01 X60.8862 Y-17.2712 F200.00
G01 X60.8956 Y-17.2939 F200.00
G01 X60.9263 Y-17.3793 F200.00
G01 X60.9340 Y-17.4026 F200.00
G01 X60.9406 Y-17.4263 F200.00
G01 X60.9596 Y-17.5024 F200.00
G01 X60.9650 Y-17.5264 F200.00
G01 X60.9673 Y-17.5384 F200.00
G01 X60.9807 Y-17.6282 F200.00
G01 X60.9837 Y-17.6526 F200.00
G01 X60.9848 Y-17.6648 F200.00
G01 X60.9894 Y-17.7555 F200.00
G01 X60.9900 Y-17.7800 F200.00
G01 X60.9894 Y-17.8045 F200.00
G01 X60.9855 Y-17.8829 F200.00
G01 X60.9837 Y-17.9074 F200.00
G01 X60.9824 Y-17.9196 F200.00
G01 X60.9692 Y-18.0094 F200.00
G01 X60.9650 Y-18.0336 F200.00
G01 X60.9596 Y-18.0576 F200.00
G01 X60.9406 Y-18.1337 F200.00
G01 X60.9340 Y-18.1574 F200.00
G01 X60.9263 Y-18.1807 F200.00
G01 X60.8999 Y-18.2546 F200.00
G01 X60.8956 Y-18.2661 F200.00
G01 X60.8862 Y-18.2888 F200.00
G01 X60.8475 Y-18.3709 F200.00
G01 X60.8365 Y-18.3928 F200.00
G01 X60.8244 Y-18.4142 F200.00
G01 X60.7776 Y-18.4920 F200.00
G01 X60.7640 Y-18.5124 F200.00
G01 X60.7568 Y-18.5223 F200.00
G01 X60.7100 Y-18.5854 F200.00
G01 X60.6949 Y-18.6047 F200.00
G01 X60.6789 Y-18.6233 F200.00
G01 X60.6262 Y-18.6815 F200.00
G01 X60.6092 Y-18.6992 F200.00
G01 X60.5915 Y-18.7162 F200.00
G01 X60.5333 Y-18.7689 F200.00
G01 X60.5147 Y-18.7849 F200.00
G01 X60.4954 Y-18.8000 F200.00
G01 X60.4323 Y-18.8468 F200.00
G01 X60.4122 Y-18.8609 F200.00
G01 X60.3915 Y-18.8740 F200.00
G01 X60.3242 Y-18.9144 F200.00
G01 X60.3028 Y-18.9265 F200.00
G01 X60.2809 Y-18.9375 F200.00
G01 X60.2099 Y-18.9711 F200.00
G01 X60.1875 Y-18.9810 F200.00
G01 X60.1761 Y-18.9856 F200.00
G01 X60.0907 Y-19.0163 F200.00
G01 X60.0674 Y-19.0240 F200.00
G01 X60.0437 Y-19.0306 F200.00
G01 X59.9661 Y-19.0500 F200.00
G01 X60.0437 Y-19.0694 F200.00
G01 X60.0674 Y-19.0760 F200.00
G01 X60.0907 Y-19.0837 F200.00
G01 X60.1646 Y-19.1101 F200.00
G01 X60.1875 Y-19.1190 F200.00
G01 X60.2099 Y-19.1289 F200.00
G01 X60.2809 Y-19.1625 F200.00
G01 X60.3028 Y-19.1735 F200.00
G01 X60.3242 Y-19.1856 F200.00
G01 X60.4020 Y-19.2324 F200.00
G01 X60.4122 Y-19.2391 F200.00
G01 X60.4323 Y-19.2532 F200.00
G01 X60.5051 Y-19.3074 F200.00
G01 X60.5147 Y-19.3151 F200.00
G01 X60.5333 Y-19.3311 F200.00
G01 X60.5915 Y-19.3838 F200.00
G01 X60.6092 Y-19.4008 F200.00
G01 X60.6262 Y-19.4185 F200.00
G01 X60.6870 Y-19.4859 F200.00
G01 X60.7026 Y-19.5049 F200.00
G01 X60.7100 Y-19.5146 F200.00
G01 X60.7568 Y-19.5777 F200.00
G01 X60.7709 Y-19.5978 F200.00
G01 X60.7840 Y-19.6185 F200.00
G01 X60.8244 Y-19.6858 F200.00
G01 X60.8365 Y-19.7072 F200.00
G01 X60.8475 Y-19.7291 F200.00
G01 X60.8811 Y-19.8001 F200.00
G01 X60.8910 Y-19.8225 F200.00
G01 X60.8999 Y-19.8454 F200.00
G01 X60.9263 Y-19.9193 F200.00
G01 X60.9340 Y-19.9426 F200.00
G01 X60.9406 Y-19.9663 F200.00
G01 X60.9596 Y-20.0424 F200.00
G01 X60.9650 Y-20.0664 F200.00
G01 X60.9692 Y-20.0906 F200.00
G01 X60.9807 Y-20.1682 F200.00
G01 X60.9837 Y-20.1926 F200.00
G01 X60.9855 Y-20.2171 F200.00
G01 X60.9894 Y-20.2955 F200.00
G01 X60.9900 Y-20.3200 F200.00
G01 X60.9894 Y-20.3445 F200.00
G01 X60.9857 Y-20.4190 F200.00
G00 Z4.0000
G00 X61.5721 Y-19.3900
G01 F80.00
G01 Z-0.0800
G01 F200.00
G01 X62.3500 Y-19.3900 F200.00
G01 X62.3819 Y-19.3904 F200.00
G01 X62.4138 Y-19.3916 F200.00
G01 X62.4701 Y-19.3947 F200.00
G01 X62.5019 Y-19.3975 F200.00
G01 X62.5336 Y-19.4010 F200.00
G01 X62.5895 Y-19.4089 F200.00
G01 X62.6210 Y-19.4139 F200.00
G01 X62.6524 Y-19.4198 F200.00
G01 X62.6836 Y-19.4264 F200.00
G01 X62.7146 Y-19.4338 F200.00
G01 X62.7693 Y-19.4479 F200.00
G01 X62.7999 Y-19.4567 F200.00
G01 X62.8304 Y-19.4664 F200.00
G01 X62.8605 Y-19.4768 F200.00
G01 X62.9135 Y-19.4961 F200.00
G01 X62.9432 Y-19.5080 F200.00
G01 X62.9725 Y-19.5206 F200.00
G01 X63.0237 Y-19.5443 F200.00
G01 X63.0523 Y-19.5583 F200.00
G01 X63.0807 Y-19.5730 F200.00
G01 X63.1086 Y-19.5884 F200.00
G01 X63.1362 Y-19.6045 F200.00
G01 X63.1844 Y-19.6338 F200.00
G01 X63.2111 Y-19.6512 F200.00
G01 X63.2374 Y-19.6693 F200.00
G01 X63.2633 Y-19.6880 F200.00
G01 X63.3084 Y-19.7219 F200.00
G01 X63.3333 Y-19.7418 F200.00
G01 X63.3577 Y-19.7624 F200.00
G01 X63.3816 Y-19.7835 F200.00
G01 X63.4232 Y-19.8217 F200.00
G01 X63.4460 Y-19.8440 F200.00
G01 X63.4683 Y-19.8668 F200.00
G01 X63.4998 Y-19.9010 F200.00
G01 X63.5250 Y-19.8738 F200.00
G01 X63.5623 Y-19.8360 F200.00
G01 X63.5838 Y-19.8150 F200.00
G01 X63.6058 Y-19.7945 F200.00
G01 X63.6282 Y-19.7746 F200.00
G01 X63.6688 Y-19.7404 F200.00
G01 X63.6922 Y-19.7214 F200.00
G01 X63.7159 Y-19.7031 F200.00
G01 X63.7401 Y-19.6853 F200.00
G01 X63.7837 Y-19.6549 F200.00
G01 X63.8087 Y-19.6383 F200.00
G01 X63.8340 Y-19.6222 F200.00
G01 X63.8597 Y-19.6067 F200.00
G01 X63.9060 Y-19.5805 F200.00
G01 X63.9324 Y-19.5662 F200.00
G01 X63.9591 Y-19.5525 F200.00
G01 X63.9861 Y-19.5394 F200.00
G01 X64.0135 Y-19.5270 F200.00
G01 X64.0622 Y-19.5058 F200.00
G01 X64.0901 Y-19.4947 F200.00
G01 X64.1182 Y-19.4841 F200.00
G01 X64.1466 Y-19.4743 F200.00
G01 X64.1970 Y-19.4577 F200.00
G01 X64.2258 Y-19.4492 F200.00
G01 X64.2548 Y-19.4413 F200.00
G01 X64.3064 Y-19.4288 F200.00
G01 X64.3357 Y-19.4223 F200.00
G01 X64.3652 Y-19.4164 F200.00
G01 X64.4043 Y-19.4098 F200.00
G01 X64.7670 Y-19.0470 F200.00
G01 X64.7899 Y-19.0247 F200.00
G01 X64.8132 Y-19.0030 F200.00
G01 X64.8735 Y-18.9489 F200.00
G01 X64.8979 Y-18.9284 F200.00
G01 X64.9228 Y-18.9085 F200.00
G01 X64.9877 Y-18.8599 F200.00
G01 X65.0135 Y-18.8412 F200.00
G01 X65.0398 Y-18.8231 F200.00
G01 X65.0666 Y-18.8057 F200.00
G01 X65.0937 Y-18.7890 F200.00
G01 X65.1634 Y-18.7477 F200.00
G01 X65.1914 Y-18.7323 F200.00
G01 X65.2197 Y-18.7176 F200.00
G01 X65.2927 Y-18.6826 F200.00
G01 X65.3217 Y-18.6694 F200.00
G01 X65.3511 Y-18.6568 F200.00
G01 X65.3947 Y-18.6397 F200.00
G01 X65.3824 Y-18.6130 F200.00
G01 X65.3699 Y-18.5836 F200.00
G01 X65.3580 Y-18.5540 F200.00
G01 X65.3469 Y-18.5241 F200.00
G01 X65.3204 Y-18.4502 F200.00
G01 X65.3101 Y-18.4200 F200.00
G01 X65.3004 Y-18.3896 F200.00
G01 X65.2915 Y-18.3590 F200.00
G01 X65.2834 Y-18.3281 F200.00
G01 X65.2643 Y-18.2519 F200.00
G01 X65.2570 Y-18.2209 F200.00
G01 X65.2504 Y-18.1897 F200.00
G01 X65.2445 Y-18.1583 F200.00
G01 X65.2394 Y-18.1268 F200.00
G01 X65.2279 Y-18.0492 F200.00
G01 X65.2236 Y-18.0175 F200.00
G01 X65.2201 Y-17.9858 F200.00
G01 X65.2174 Y-17.9540 F200.00
G01 X65.2154 Y-17.9222 F200.00
G01 X65.2116 Y-17.8438 F200.00
G01 X65.2104 Y-17.8119 F200.00
G01 X65.2100 Y-17.7800 F200.00
G01 X65.2104 Y-17.7481 F200.00
G01 X65.2116 Y-17.7162 F200.00
G01 X65.2154 Y-17.6378 F200.00
G01 X65.2174 Y-17.6060 F200.00
G01 X65.2201 Y-17.5742 F200.00
G01 X65.2236 Y-17.5425 F200.00
G01 X65.2279 Y-17.5108 F200.00
G01 X65.2394 Y-17.4332 F200.00
G01 X65.2445 Y-17.4017 F200.00
G01 X65.2504 Y-17.3703 F200.00
G01 X65.2570 Y-17.3391 F200.00
G01 X65.2643 Y-17.3081 F200.00
G01 X65.2834 Y-17.2319 F200.00
G01 X65.2915 Y-17.2010 F200.00
G01 X65.3004 Y-17.1704 F200.00
G01 X65.3101 Y-17.1400 F200.00
G01 X65.3204 Y-17.1098 F200.00
G01 X65.3469 Y-17.0359 F200.00
G01 X65.3580 Y-17.0060 F200.00
G01 X65.3699 Y-16.9764 F200.00
G01 X65.3824 Y-16.9470 F200.00
G01 X65.3957 Y-16.9180 F200.00
G01 X65.4293 Y-16.8471 F200.00
G01 X65.4433 Y-16.8184 F200.00
G01 X65.4580 Y-16.7901 F200.00
G01 X65.4734 Y-16.7621 F200.00
G01 X65.4894 Y-16.7345 F200.00
G01 X65.5298 Y-16.6672 F200.00
G01 X65.5465 Y-16.6400 F200.00
G01 X65.5639 Y-16.6133 F200.00
G01 X65.5820 Y-16.5870 F200.00
G01 X65.6007 Y-16.5611 F200.00
G01 X65.6386 Y-16.5100 F200.00
G01 X65.6007 Y-16.4589 F200.00
G01 X65.5820 Y-16.4330 F200.00
G01 X65.5639 Y-16.4067 F200.00
G01 X65.5465 Y-16.3800 F200.00
G01 X65.5298 Y-16.3528 F200.00
G01 X65.4894 Y-16.2855 F200.00
G01 X65.4734 Y-16.2579 F200.00
G01 X65.4580 Y-16.2299 F200.00
G01 X65.4433 Y-16.2016 F200.00
G01 X65.4293 Y-16.1729 F200.00
G01 X65.3957 Y-16.1020 F200.00
G01 X65.3824 Y-16.0730 F200.00
G01 X65.3699 Y-16.0436 F200.00
G01 X65.3580 Y-16.0140 F200.00
G01 X65.3469 Y-15.9841 F200.00
G01 X65.3204 Y-15.9102 F200.00
G01 X65.3101 Y-15.8800 F200.00
G01 X65.3004 Y-15.8496 F200.00
G01 X65.2915 Y-15.8190 F200.00
G01 X65.2834 Y-15.7881 F200.00
G01 X65.2643 Y-15.7119 F200.00
G01 X65.2570 Y-15.6809 F200.00
G01 X65.2504 Y-15.6497 F200.00
G01 X65.2445 Y-15.6183 F200.00
G01 X65.2394 Y-15.5868 F200.00
G01 X65.2279 Y-15.5092 F200.00
G01 X65.2236 Y-15.4775 F200.00
G01 X65.2201 Y-15.4458 F200.00
G01 X65.2174 Y-15.4140 F200.00
G01 X65.2154 Y-15.3822 F200.00
G01 X65.2116 Y-15.3038 F200.00
G01 X65.2104 Y-15.2719 F200.00
G01 X65.2100 Y-15.2400 F200.00
G01 X65.2104 Y-15.2081 F200.00
G01 X65.2116 Y-15.1762 F200.00
G01 X65.2154 Y-15.0978 F200.00
G01 X65.2174 Y-15.0660 F200.00
G01 X65.2201 Y-15.0342 F200.00
G01 X65.2236 Y-15.0025 F200.00
G01 X65.2279 Y-14.9708 F200.00
G01 X65.2394 Y-14.8932 F200.00
G01 X65.2445 Y-14.8617 F200.00
G01 X65.2504 Y-14.8303 F200.00
G01 X65.2570 Y-14.7991 F200.00
G01 X65.2643 Y-14.7681 F200.00
G01 X65.2834 Y-14.6919 F200.00
G01 X65.2915 Y-14.6610 F200.00
G01 X65.3004 Y-14.6304 F200.00
G01 X65.3101 Y-14.6000 F200.00
G01 X65.3204 Y-14.5698 F200.00
G01 X65.3469 Y-14.4959 F200.00
G01 X65.3580 Y-14.4660 F200.00
G01 X65.3699 Y-14.4364 F200.00
G01 X65.3824 Y-14.4070 F200.00
G01 X65.3957 Y-14.3780 F200.00
G01 X65.4293 Y-14.3071 F200.00
G01 X65.4433 Y-14.2784 F200.00
G01 X65.4580 Y-14.2501 F200.00
G01 X65.4734 Y-14.2221 F200.00
G01 X65.4894 Y-14.1945 F200.00
G01 X65.5298 Y-14.1272 F200.00
G01 X65.5465 Y-14.1000 F200.00
G01 X65.5639 Y-14.0733 F200.00
G01 X65.5820 Y-14.0470 F200.00
G01 X65.6007 Y-14.0211 F200.00
G01 X65.6386 Y-13.9700 F200.00
G01 X65.6007 Y-13.9189 F200.00
G01 X65.5820 Y-13.8930 F200.00
G01 X65.5639 Y-13.8667 F200.00
G01 X65.5465 Y-13.8400 F200.00
G01 X65.5298 Y-13.8128 F200.00
G01 X65.4894 Y-13.7455 F200.00
G01 X65.4734 Y-13.7179 F200.00
G01 X65.4580 Y-13.6899 F200.00
G01 X65.4433 Y-13.6616 F200.00
G01 X65.4293 Y-13.6329 F200.00
G01 X65.3957 Y-13.5620 F200.00
G01 X65.3824 Y-13.5330 F200.00
G01 X65.3699 Y-13.5036 F200.00
G01 X65.3580 Y-13.4740 F200.00
G01 X65.3469 Y-13.4441 F200.00
G01 X65.3204 Y-13.3702 F200.00
G01 X65.3101 Y-13.3400 F200.00
G01 X65.3004 Y-13.3096 F200.00
G01 X65.2915 Y-13.2790 F200.00
G01 X65.2834 Y-13.2481 F200.00
G01 X65.2643 Y-13.1719 F200.00
G01 X65.2570 Y-13.1409 F200.00
G01 X65.2504 Y-13.1097 F200.00
G01 X65.2445 Y-13.0783 F200.00
G01 X65.2394 Y-13.0468 F200.00
G01 X65.2279 Y-12.9692 F200.00
G01 X65.2236 Y-12.9375 F200.00
G01 X65.2201 Y-12.9058 F200.00
G01 X65.2174 Y-12.8740 F200.00
G01 X65.2154 Y-12.8422 F200.00
G01 X65.2116 Y-12.7638 F200.00
G01 X65.2104 Y-12.7319 F200.00
G01 X65.2100 Y-12.7000 F200.00
G01 X65.2104 Y-12.6681 F200.00
G01 X65.2116 Y-12.6362 F200.00
G01 X65.2154 Y-12.5578 F200.00
G01 X65.2174 Y-12.5260 F200.00
G01 X65.2201 Y-12.4942 F200.00
G01 X65.2236 Y-12.4625 F200.00
G01 X65.2279 Y-12.4308 F200.00
G01 X65.2394 Y-12.3532 F200.00
G01 X65.2445 Y-12.3217 F200.00
G01 X65.2504 Y-12.2903 F200.00
G01 X65.2570 Y-12.2591 F200.00
G01 X65.2643 Y-12.2281 F200.00
G01 X65.2834 Y-12.1519 F200.00
G01 X65.2915 Y-12.1210 F200.00
G01 X65.3004 Y-12.0904 F200.00
G01 X65.3101 Y-12.0600 F200.00
G01 X65.3204 Y-12.0298 F200.00
G01 X65.3469 Y-11.9559 F200.00
G01 X65.3580 Y-11.9260 F200.00
G01 X65.3699 Y-11.8964 F200.00
G01 X65.3824 Y-11.8670 F200.00
G01 X65.3957 Y-11.8380 F200.00
G01 X65.4293 Y-11.7671 F200.00
G01 X65.4433 Y-11.7384 F200.00
G01 X65.4580 Y-11.7101 F200.00
G01 X65.4734 Y-11.6821 F200.00
G01 X65.4894 Y-11.6545 F200.00
G01 X65.5298 Y-11.5872 F200.00
G01 X65.5465 Y-11.5600 F200.00
G01 X65.5639 Y-11.5333 F200.00
G01 X65.5820 Y-11.5070 F200.00
G01 X65.6007 Y-11.4811 F200.00
G01 X65.6386 Y-11.4300 F200.00
G01 X65.6007 Y-11.3789 F200.00
G01 X65.5820 Y-11.3530 F200.00
G01 X65.5639 Y-11.3267 F200.00
G01 X65.5465 Y-11.3000 F200.00
G01 X65.5298 Y-11.2728 F200.00
G01 X65.4894 Y-11.2055 F200.00
G01 X65.4734 Y-11.1779 F200.00
G01 X65.4580 Y-11.1499 F200.00
G01 X65.4433 Y-11.1216 F200.00
G01 X65.4293 Y-11.0929 F200.00
G01 X65.3957 Y-11.0220 F200.00
G01 X65.3824 Y-10.9930 F200.00
G01 X65.3699 Y-10.9636 F200.00
G01 X65.3580 Y-10.9340 F200.00
G01 X65.3469 Y-10.9041 F200.00
G01 X65.3204 Y-10.8302 F200.00
G01 X65.3101 Y-10.8000 F200.00
G01 X65.3004 Y-10.7696 F200.00
G01 X65.2915 Y-10.7390 F200.00
G01 X65.2834 Y-10.7081 F200.00
G01 X65.2643 Y-10.6319 F200.00
G01 X65.2570 Y-10.6009 F200.00
G01 X65.2504 Y-10.5697 F200.00
G01 X65.2445 Y-10.5383 F200.00
G01 X65.2394 Y-10.5068 F200.00
G01 X65.2279 Y-10.4292 F200.00
G01 X65.2236 Y-10.3975 F200.00
G01 X65.2201 Y-10.3658 F200.00
G01 X65.2174 Y-10.3340 F200.00
G01 X65.2154 Y-10.3022 F200.00
G01 X65.2116 Y-10.2238 F200.00
G01 X65.2104 Y-10.1919 F200.00
G01 X65.2100 Y-10.1600 F200.00
G01 X65.2104 Y-10.1281 F200.00
G01 X65.2116 Y-10.0962 F200.00
G01 X65.2154 Y-10.0178 F200.00
G01 X65.2174 Y-9.9860 F200.00
G01 X65.2201 Y-9.9542 F200.00
G01 X65.2236 Y-9.9225 F200.00
G01 X65.2279 Y-9.8908 F200.00
G01 X65.2394 Y-9.8132 F200.00
G01 X65.2445 Y-9.7817 F200.00
G01 X65.2504 Y-9.7503 F200.00
G01 X65.2570 Y-9.7191 F200.00
G01 X65.2643 Y-9.6881 F200.00
G01 X65.2834 Y-9.6119 F200.00
G01 X65.2915 Y-9.5810 F200.00
G01 X65.3004 Y-9.5504 F200.00
G01 X65.3101 Y-9.5200 F200.00
G01 X65.3204 Y-9.4898 F200.00
G01 X65.3469 Y-9.4159 F200.00
G01 X65.3580 Y-9.3860 F200.00
G01 X65.3699 Y-9.3564 F200.00
G01 X65.3824 Y-9.3270 F200.00
G01 X65.3957 Y-9.2980 F200.00
G01 X65.4293 Y-9.2271 F200.00
G01 X65.4433 Y-9.1984 F200.00
G01 X65.4580 Y-9.1701 F200.00
G01 X65.4734 Y-9.1421 F200.00
G01 X65.4894 Y-9.1145 F200.00
G01 X65.5298 Y-9.0472 F200.00
G01 X65.5465 Y-9.0200 F200.00
G01 X65.5639 Y-8.9933 F200.00
G01 X65.5820 Y-8.9670 F200.00
G01 X65.6007 Y-8.9411 F200.00
G01 X65.6386 Y-8.8900 F200.00
G01 X65.6007 Y-8.8389 F200.00
G01 X65.5820 Y-8.8130 F200.00
G01 X65.5639 Y-8.7867 F200.00
G01 X65.5465 Y-8.7600 F200.00
G01 X65.5298 Y-8.7328 F200.00
G01 X65.4894 Y-8.6655 F200.00
G01 X65.4734 Y-8.6379 F200.00
G01 X65.4580 Y-8.6099 F200.00
G01 X65.4433 Y-8.5816 F200.00
G01 X65.4293 Y-8.5529 F200.00
G01 X65.3957 Y-8.4820 F200.00
G01 X65.3824 Y-8.4530 F200.00
G01 X65.3699 Y-8.4236 F200.00
G01 X65.3580 Y-8.3940 F200.00
G01 X65.3469 Y-8.3641 F200.00
G01 X65.3204 Y-8.2902 F200.00
G01 X65.3101 Y-8.2600 F200.00
G01 X65.3004 Y-8.2296 F200.00
G01 X65.2915 Y-8.1990 F200.00
G01 X65.2834 Y-8.1681 F200.00
G01 X65.2643 Y-8.0919 F200.00
G01 X65.2570 Y-8.0609 F200.00
G01 X65.2504 Y-8.0297 F200.00
G01 X65.2445 Y-7.9983 F200.00
G01 X65.2394 Y-7.9668 F200.00
G01 X65.2279 Y-7.8892 F200.00
G01 X65.2236 Y-7.8575 F200.00
G01 X65.2201 Y-7.8258 F200.00
G01 X65.2174 Y-7.7940 F200.00
G01 X65.2154 Y-7.7622 F200.00
G01 X65.2116 Y-7.6838 F200.00
G01 X65.2104 Y-7.6519 F200.00
G01 X65.2100 Y-7.6200 F200.00
G01 X65.2104 Y-7.5881 F200.00
G01 X65.2138 Y-7.5102 F200.00
G01 X62.3487 Y-7.5102 F200.00
G01 X61.7236 Y-8.1402 F200.00
G01 X61.7085 Y-8.1990 F200.00
G01 X61.6996 Y-8.2296 F200.00
G01 X61.6899 Y-8.2600 F200.00
G01 X61.6796 Y-8.2902 F200.00
G01 X61.6531 Y-8.3641 F200.00
G01 X61.6420 Y-8.3940 F200.00
G01 X61.6301 Y-8.4236 F200.00
G01 X61.6176 Y-8.4530 F200.00
G01 X61.6043 Y-8.4820 F200.00
G01 X61.5707 Y-8.5529 F200.00
G01 X61.5567 Y-8.5816 F200.00
G01 X61.5420 Y-8.6099 F200.00
G01 X61.5266 Y-8.6379 F200.00
G01 X61.5106 Y-8.6655 F200.00
G01 X61.4702 Y-8.7328 F200.00
G01 X61.4535 Y-8.7600 F200.00
G01 X61.4361 Y-8.7867 F200.00
G01 X61.4180 Y-8.8130 F200.00
G01 X61.3993 Y-8.8389 F200.00
G01 X61.3614 Y-8.8900 F200.00
G01 X61.3993 Y-8.9411 F200.00
G01 X61.4180 Y-8.9670 F200.00
G01 X61.4361 Y-8.9933 F200.00
G01 X61.4535 Y-9.0200 F200.00
G01 X61.4702 Y-9.0472 F200.00
G01 X61.5106 Y-9.1145 F200.00
G01 X61.5266 Y-9.1421 F200.00
G01 X61.5420 Y-9.1701 F200.00
G01 X61.5567 Y-9.1984 F200.00
G01 X61.5707 Y-9.2271 F200.00
G01 X61.6043 Y-9.2980 F200.00
G01 X61.6176 Y-9.3270 F200.00
G01 X61.6301 Y-9.3564 F200.00
G01 X61.6420 Y-9.3860 F200.00
G01 X61.6531 Y-9.4159 F200.00
G01 X61.6796 Y-9.4898 F200.00
G01 X61.6899 Y-9.5200 F200.00
G01 X61.6996 Y-9.5504 F200.00
G01 X61.7085 Y-9.5810 F200.00
G01 X61.7166 Y-9.6119 F200.00
G01 X61.7357 Y-9.6881 F200.00
G01 X61.7430 Y-9.7191 F200.00
G01 X61.7496 Y-9.7503 F200.00
G01 X61.7555 Y-9.7817 F200.00
G01 X61.7606 Y-9.8132 F200.00
G01 X61.7721 Y-9.8908 F200.00
G01 X61.7764 Y-9.9225 F200.00
G01 X61.7799 Y-9.9542 F200.00
G01 X61.7826 Y-9.9860 F200.00
G01 X61.7846 Y-10.0178 F200.00
G01 X61.7884 Y-10.0962 F200.00
G01 X61.7896 Y-10.1281 F200.00
G01 X61.7900 Y-10.1600 F200.00
G01 X61.7896 Y-10.1919 F200.00
G01 X61.7884 Y-10.2238 F200.00
G01 X61.7846 Y-10.3022 F200.00
G01 X61.7826 Y-10.3340 F200.00
G01 X61.7799 Y-10.3658 F200.00
G01 X61.7764 Y-10.3975 F200.00
G01 X61.7721 Y-10.4292 F200.00
G01 X61.7606 Y-10.5068 F200.00
G01 X61.7555 Y-10.5383 F200.00
G01 X61.7496 Y-10.5697 F200.00
G01 X61.7430 Y-10.6009 F200.00
G01 X61.7357 Y-10.6319 F200.00
G01 X61.7166 Y-10.7081 F200.00
G01 X61.7085 Y-10.7390 F200.00
G01 X61.6996 Y-10.7696 F200.00
G01 X61.6899 Y-10.8000 F200.00
G01 X61.6796 Y-10.8302 F200.00
G01 X61.6531 Y-10.9041 F200.00
G01 X61.6420 Y-10.9340 F200.00
G01 X61.6301 Y-10.9636 F200.00
G01 X61.6176 Y-10.9930 F200.00
G01 X61.6043 Y-11.0220 F200.00
G01 X61.5707 Y-11.0929 F200.00
G01 X61.5567 Y-11.1216 F200.00
G01 X61.5420 Y-11.1499 F200.00
G01 X61.5266 Y-11.1779 F200.00
G01 X61.5106 Y-11.2055 F200.00
G01 X61.4702 Y-11.2728 F200.00
G01 X61.4535 Y-11.3000 F200.00
G01 X61.4361 Y-11.3267 F200.00
G01 X61.4180 Y-11.3530 F200.00
G01 X61.3993 Y-11.3789 F200.00
G01 X61.3614 Y-11.4300 F200.00
G01 X61.3993 Y-11.4811 F200.00
G01 X61.4180 Y-11.5070 F200.00
G01 X61.4361 Y-11.5333 F200.00
G01 X61.4535 Y-11.5600 F200.00
G01 X61.4702 Y-11.5872 F200.00
G01 X61.5106 Y-11.6545 F200.00
G01 X61.5266 Y-11.6821 F200.00
G01 X61.5420 Y-11.7101 F200.00
G01 X61.5567 Y-11.7384 F200.00
G01 X61.5707 Y-11.7671 F200.00
G01 X61.6043 Y-11.8380 F200.00
G01 X61.6176 Y-11.8670 F200.00
G01 X61.6301 Y-11.8964 F200.00
G01 X61.6420 Y-11.9260 F200.00
G01 X61.6531 Y-11.9559 F200.00
G01 X61.6796 Y-12.0298 F200.00
G01 X61.6899 Y-12.0600 F200.00
G01 X61.6996 Y-12.0904 F200.00
G01 X61.7085 Y-12.1210 F200.00
G01 X61.7166 Y-12.1519 F200.00
G01 X61.7357 Y-12.2281 F200.00
G01 X61.7430 Y-12.2591 F200.00
G01 X61.7496 Y-12.2903 F200.00
G01 X61.7555 Y-12.3217 F200.00
G01 X61.7606 Y-12.3532 F200.00
G01 X61.7721 Y-12.4308 F200.00
G01 X61.7764 Y-12.4625 F200.00
G01 X61.7799 Y-12.4942 F200.00
G01 X61.7826 Y-12.5260 F200.00
G01 X61.7846 Y-12.5578 F200.00
G01 X61.7884 Y-12.6362 F200.00
G01 X61.7896 Y-12.6681 F200.00
G01 X61.7900 Y-12.7000 F200.00
G01 X61.7896 Y-12.7319 F200.00
G01 X61.7884 Y-12.7638 F200.00
G01 X61.7846 Y-12.8422 F200.00
G01 X61.7826 Y-12.8740 F200.00
G01 X61.7799 Y-12.9058 F200.00
G01 X61.7764 Y-12.9375 F200.00
G01 X61.7721 Y-12.9692 F200.00
G01 X61.7606 Y-13.0468 F200.00
G01 X61.7555 Y-13.0783 F200.00
G01 X61.7496 Y-13.1097 F200.00
G01 X61.7430 Y-13.1409 F200.00
G01 X61.7357 Y-13.1719 F200.00
G01 X61.7166 Y-13.2481 F200.00
G01 X61.7085 Y-13.2790 F200.00
G01 X61.6996 Y-13.3096 F200.00
G01 X61.6899 Y-13.3400 F200.00
G01 X61.6796 Y-13.3702 F200.00
G01 X61.6531 Y-13.4441 F200.00
G01 X61.6420 Y-13.4740 F200.00
G01 X61.6301 Y-13.5036 F200.00
G01 X61.6176 Y-13.5330 F200.00
G01 X61.6043 Y-13.5620 F200.00
G01 X61.5707 Y-13.6329 F200.00
G01 X61.5567 Y-13.6616 F200.00
G01 X61.5420 Y-13.6899 F200.00
G01 X61.5266 Y-13.7179 F200.00
G01 X61.5106 Y-13.7455 F200.00
G01 X61.4702 Y-13.8128 F200.00
G01 X61.4535 Y-13.8400 F200.00
G01 X61.4361 Y-13.8667 F200.00
G01 X61.4180 Y-13.8930 F200.00
G01 X61.3993 Y-13.9189 F200.00
G01 X61.3614 Y-13.9700 F200.00
G01 X61.3993 Y-14.0211 F200.00
G01 X61.4180 Y-14.0470 F200.00
G01 X61.4361 Y-14.0733 F200.00
G01 X61.4535 Y-14.1000 F200.00
G01 X61.4702 Y-14.1272 F200.00
G01 X61.5106 Y-14.1945 F200.00
G01 X61.5266 Y-14.2221 F200.00
G01 X61.5420 Y-14.2501 F200.00
G01 X61.5567 Y-14.2784 F200.00
G01 X61.5707 Y-14.3071 F200.00
G01 X61.6043 Y-14.3780 F200.00
G01 X61.6176 Y-14.4070 F200.00
G01 X61.6301 Y-14.4364 F200.00
G01 X61.6420 Y-14.4660 F200.00
G01 X61.6531 Y-14.4959 F200.00
G01 X61.6796 Y-14.5698 F200.00
G01 X61.6899 Y-14.6000 F200.00
G01 X61.6996 Y-14.6304 F200.00
G01 X61.7085 Y-14.6610 F200.00
G01 X61.7166 Y-14.6919 F200.00
G01 X61.7357 Y-14.7681 F200.00
G01 X61.7430 Y-14.7991 F200.00
G01 X61.7496 Y-14.8303 F200.00
G01 X61.7555 Y-14.8617 F200.00
G01 X61.7606 Y-14.8932 F200.00
G01 X61.7721 Y-14.9708 F200.00
G01 X61.7764 Y-15.0025 F200.00
G01 X61.7799 Y-15.0342 F200.00
G01 X61.7826 Y-15.0660 F200.00
G01 X61.7846 Y-15.0978 F200.00
G01 X61.7884 Y-15.1762 F200.00
G01 X61.7896 Y-15.2081 F200.00
G01 X61.7900 Y-15.2400 F200.00
G01 X61.7896 Y-15.2719 F200.00
G01 X61.7884 Y-15.3038 F200.00
G01 X61.7846 Y-15.3822 F200.00
G01 X61.7826 Y-15.4140 F200.00
G01 X61.7799 Y-15.4458 F200.00
G01 X61.7764 Y-15.4775 F200.00
G01 X61.7721 Y-15.5092 F200.00
G01 X61.7606 Y-15.5868 F200.00
G01 X61.7555 Y-15.6183 F200.00
G01 X61.7496 Y-15.6497 F200.00
G01 X61.7430 Y-15.6809 F200.00
G01 X61.7357 Y-15.7119 F200.00
G01 X61.7166 Y-15.7881 F200.00
G01 X61.7085 Y-15.8190 F200.00
G01 X61.6996 Y-15.8496 F200.00
G01 X61.6899 Y-15.8800 F200.00
G01 X61.6796 Y-15.9102 F200.00
G01 X61.6531 Y-15.9841 F200.00
G01 X61.6420 Y-16.0140 F200.00
G01 X61.6301 Y-16.0436 F200.00
G01 X61.6176 Y-16.0730 F200.00
G01 X61.6043 Y-16.1020 F200.00
G01 X61.5707 Y-16.1729 F200.00
G01 X61.5567 Y-16.2016 F200.00
G01 X61.5420 Y-16.2299 F200.00
G01 X61.5266 Y-16.2579 F200.00
G01 X61.5106 Y-16.2855 F200.00
G01 X61.4702 Y-16.3528 F200.00
G01 X61.4535 Y-16.3800 F200.00
G01 X61.4361 Y-16.4067 F200.00
G01 X61.4180 Y-16.4330 F200.00
G01 X61.3993 Y-16.4589 F200.00
G01 X61.3614 Y-16.5100 F200.00
G01 X61.3993 Y-16.5611 F200.00
G01 X61.4180 Y-16.5870 F200.00
G01 X61.4361 Y-16.6133 F200.00
G01 X61.4535 Y-16.6400 F200.00
G01 X61.4702 Y-16.6672 F200.00
G01 X61.5106 Y-16.7345 F200.00
G01 X61.5266 Y-16.7621 F200.00
G01 X61.5420 Y-16.7901 F200.00
G01 X61.5567 Y-16.8184 F200.00
G01 X61.5707 Y-16.8471 F200.00
G01 X61.6043 Y-16.9180 F200.00
G01 X61.6176 Y-16.9470 F200.00
G01 X61.6301 Y-16.9764 F200.00
G01 X61.6420 Y-17.0060 F200.00
G01 X61.6531 Y-17.0359 F200.00
G01 X61.6796 Y-17.1098 F200.00
G01 X61.6899 Y-17.1400 F200.00
G01 X61.6996 Y-17.1704 F200.00
G01 X61.7085 Y-17.2010 F200.00
G01 X61.7166 Y-17.2319 F200.00
G01 X61.7357 Y-17.3081 F200.00
G01 X61.7430 Y-17.3391 F200.00
G01 X61.7496 Y-17.3703 F200.00
G01 X61.7555 Y-17.4017 F200.00
G01 X61.7606 Y-17.4332 F200.00
G01 X61.7721 Y-17.5108 F200.00
G01 X61.7764 Y-17.5425 F200.00
G01 X61.7799 Y-17.5742 F200.00
G01 X61.7826 Y-17.6060 F200.00
G01 X61.7846 Y-17.6378 F200.00
G01 X61.7884 Y-17.7162 F200.00
G01 X61.7896 Y-17.7481 F200.00
G01 X61.7900 Y-17.7800 F200.00
G01 X61.7896 Y-17.8119 F200.00
G01 X61.7884 Y-17.8438 F200.00
G01 X61.7846 Y-17.9222 F200.00
G01 X61.7826 Y-17.9540 F200.00
G01 X61.7799 Y-17.9858 F200.00
G01 X61.7764 Y-18.0175 F200.00
G01 X61.7721 Y-18.0492 F200.00
G01 X61.7606 Y-18.1268 F200.00
G01 X61.7555 Y-18.1583 F200.00
G01 X61.7496 Y-18.1897 F200.00
G01 X61.7430 Y-18.2209 F200.00
G01 X61.7357 Y-18.2519 F200.00
G01 X61.7166 Y-18.3281 F200.00
G01 X61.7085 Y-18.3590 F200.00
G01 X61.6996 Y-18.3896 F200.00
G01 X61.6899 Y-18.4200 F200.00
G01 X61.6796 Y-18.4502 F200.00
G01 X61.6531 Y-18.5241 F200.00
G01 X61.6420 Y-18.5540 F200.00
G01 X61.6301 Y-18.5836 F200.00
G01 X61.6176 Y-18.6130 F200.00
G01 X61.6043 Y-18.6420 F200.00
G01 X61.5707 Y-18.7129 F200.00
G01 X61.5567 Y-18.7416 F200.00
G01 X61.5420 Y-18.7699 F200.00
G01 X61.5266 Y-18.7979 F200.00
G01 X61.5106 Y-18.8255 F200.00
G01 X61.4702 Y-18.8928 F200.00
G01 X61.4535 Y-18.9200 F200.00
G01 X61.4361 Y-18.9467 F200.00
G01 X61.4180 Y-18.9730 F200.00
G01 X61.3993 Y-18.9989 F200.00
G01 X61.3614 Y-19.0500 F200.00
G01 X61.3993 Y-19.1011 F200.00
G01 X61.4180 Y-19.1270 F200.00
G01 X61.4361 Y-19.1533 F200.00
G01 X61.4535 Y-19.1800 F200.00
G01 X61.4702 Y-19.2072 F200.00
G01 X61.5106 Y-19.2745 F200.00
G01 X61.5266 Y-19.3021 F200.00
G01 X61.5420 Y-19.3301 F200.00
G01 X61.5567 Y-19.3584 F200.00
G01 X61.5721 Y-19.3900 F200.00
G00 Z4.0000
G00 X66.2250 Y-22.1440
G01 F80.00
G01 Z-0.0800
G01 F200.00
G01 X66.2360 Y-22.1276 F200.00
G01 X66.2432 Y-22.1177 F200.00
G01 X66.2900 Y-22.0546 F200.00
G01 X66.3051 Y-22.0353 F200.00
G01 X66.3211 Y-22.0167 F200.00
G01 X66.3738 Y-21.9585 F200.00
G01 X66.3908 Y-21.9408 F200.00
G01 X66.4085 Y-21.9238 F200.00
G01 X66.4667 Y-21.8711 F200.00
G01 X66.4853 Y-21.8551 F200.00
G01 X66.5046 Y-21.8400 F200.00
G01 X66.5677 Y-21.7932 F200.00
G01 X66.5878 Y-21.7791 F200.00
G01 X66.6085 Y-21.7660 F200.00
G01 X66.6758 Y-21.7256 F200.00
G01 X66.6972 Y-21.7135 F200.00
G01 X66.7191 Y-21.7025 F200.00
G01 X66.7901 Y-21.6689 F200.00
G01 X66.8125 Y-21.6590 F200.00
G01 X66.8354 Y-21.6501 F200.00
G01 X66.9093 Y-21.6237 F200.00
G01 X66.9326 Y-21.6160 F200.00
G01 X66.9563 Y-21.6094 F200.00
G01 X67.0339 Y-21.5900 F200.00
G01 X66.9563 Y-21.5706 F200.00
G01 X66.9326 Y-21.5640 F200.00
G01 X66.9209 Y-21.5603 F200.00
G01 X66.8239 Y-21.5256 F200.00
G01 X66.8125 Y-21.5210 F200.00
G01 X66.7901 Y-21.5111 F200.00
G01 X66.7191 Y-21.4775 F200.00
G01 X66.6972 Y-21.4665 F200.00
G01 X66.6758 Y-21.4544 F200.00
G01 X66.6085 Y-21.4140 F200.00
G01 X66.5878 Y-21.4009 F200.00
G01 X66.5677 Y-21.3868 F200.00
G01 X66.5046 Y-21.3400 F200.00
G01 X66.4949 Y-21.3326 F200.00
G01 X66.4797 Y-21.3203 F200.00
G01 X66.4543 Y-21.3203 F200.00
G01 X66.2250 Y-21.5496 F200.00
G01 X66.2250 Y-22.1440 F200.00
G00 Z4.0000
G00 X67.5861 Y-21.5900
G01 F80.00
G01 Z-0.0800
G01 F200.00
G01 X67.6756 Y-21.6126 F200.00
G01 X67.6991 Y-21.6197 F200.00
G01 X67.7107 Y-21.6237 F200.00
G01 X67.7846 Y-21.6501 F200.00
G01 X67.8075 Y-21.6590 F200.00
G01 X67.8299 Y-21.6689 F200.00
G01 X67.9009 Y-21.7025 F200.00
G01 X67.9228 Y-21.7135 F200.00
G01 X67.9442 Y-21.7256 F200.00
G01 X68.0115 Y-21.7660 F200.00
G01 X68.0322 Y-21.7791 F200.00
G01 X68.0523 Y-21.7932 F200.00
G01 X68.1154 Y-21.8400 F200.00
G01 X68.1251 Y-21.8474 F200.00
G01 X68.1403 Y-21.8597 F200.00
G01 X68.4500 Y-21.8597 F200.00
G01 X68.4506 Y-21.8380 F200.00
G01 X68.4518 Y-21.8135 F200.00
G01 X68.4536 Y-21.7890 F200.00
G01 X68.4550 Y-21.7768 F200.00
G01 X68.4602 Y-21.7404 F200.00
G01 X68.4644 Y-21.7162 F200.00
G01 X68.4698 Y-21.6922 F200.00
G01 X68.4789 Y-21.6566 F200.00
G01 X68.4823 Y-21.6448 F200.00
G01 X68.4860 Y-21.6331 F200.00
G01 X68.4983 Y-21.5984 F200.00
G01 X68.5025 Y-21.5869 F200.00
G01 X68.5119 Y-21.5642 F200.00
G01 X68.5329 Y-21.5198 F200.00
G01 X68.5445 Y-21.4982 F200.00
G01 X68.5697 Y-21.4561 F200.00
G01 X68.5833 Y-21.4357 F200.00
G01 X68.6126 Y-21.3963 F200.00
G01 X68.6281 Y-21.3773 F200.00
G01 X68.6611 Y-21.3410 F200.00
G01 X68.6821 Y-21.3203 F200.00
G01 X68.1403 Y-21.3203 F200.00
G01 X68.1251 Y-21.3326 F200.00
G01 X68.1154 Y-21.3400 F200.00
G01 X68.0523 Y-21.3868 F200.00
G01 X68.0322 Y-21.4009 F200.00
G01 X68.0115 Y-21.4140 F200.00
G01 X67.9442 Y-21.4544 F200.00
G01 X67.9228 Y-21.4665 F200.00
G01 X67.9009 Y-21.4775 F200.00
G01 X67.8299 Y-21.5111 F200.00
G01 X67.8075 Y-21.5210 F200.00
G01 X67.7846 Y-21.5299 F200.00
G01 X67.7107 Y-21.5563 F200.00
G01 X67.6991 Y-21.5603 F200.00
G01 X67.6756 Y-21.5674 F200.00
G01 X67.5861 Y-21.5900 F200.00
G00 Z4.0000
G00 X67.5861 Y-24.1300
G01 F80.00
G01 Z-0.0800
G01 F200.00
G01 X67.6756 Y-24.1526 F200.00
G01 X67.6991 Y-24.1597 F200.00
G01 X67.7107 Y-24.1637 F200.00
G01 X67.7846 Y-24.1901 F200.00
G01 X67.8075 Y-24.1990 F200.00
G01 X67.8299 Y-24.2089 F200.00
G01 X67.9009 Y-24.2425 F200.00
G01 X67.9228 Y-24.2535 F200.00
G01 X67.9442 Y-24.2656 F200.00
G01 X68.0115 Y-24.3060 F200.00
G01 X68.0322 Y-24.3191 F200.00
G01 X68.0523 Y-24.3332 F200.00
G01 X68.1154 Y-24.3800 F200.00
G01 X68.1396 Y-24.3992 F200.00
G01 X68.7368 Y-24.3978 F200.00
G01 X68.7573 Y-24.3821 F200.00
G01 X68.7858 Y-24.3624 F200.00
G01 X68.8052 Y-24.3498 F200.00
G01 X68.8251 Y-24.3381 F200.00
G01 X68.8554 Y-24.3214 F200.00
G01 X68.8761 Y-24.3111 F200.00
G01 X68.9077 Y-24.2970 F200.00
G01 X68.9291 Y-24.2881 F200.00
G01 X68.9508 Y-24.2803 F200.00
G01 X68.9837 Y-24.2694 F200.00
G01 X69.0059 Y-24.2631 F200.00
G01 X69.0396 Y-24.2550 F200.00
G01 X69.0622 Y-24.2503 F200.00
G01 X69.0850 Y-24.2466 F200.00
G01 X69.1193 Y-24.2419 F200.00
G01 X69.1423 Y-24.2398 F200.00
G01 X69.1769 Y-24.2380 F200.00
G01 X69.2000 Y-24.2375 F200.00
G01 X70.5000 Y-24.2375 F200.00
G01 X70.5245 Y-24.2381 F200.00
G01 X70.5613 Y-24.2401 F200.00
G01 X70.5735 Y-24.2411 F200.00
G01 X70.5979 Y-24.2441 F200.00
G01 X70.6343 Y-24.2497 F200.00
G01 X70.6583 Y-24.2545 F200.00
G01 X70.6941 Y-24.2632 F200.00
G01 X70.7177 Y-24.2698 F200.00
G01 X70.7410 Y-24.2775 F200.00
G01 X70.7756 Y-24.2900 F200.00
G01 X70.7983 Y-24.2994 F200.00
G01 X70.8316 Y-24.3150 F200.00
G01 X70.8535 Y-24.3261 F200.00
G01 X70.8643 Y-24.3320 F200.00
G01 X70.8959 Y-24.3508 F200.00
G01 X70.9167 Y-24.3639 F200.00
G01 X70.9367 Y-24.3780 F200.00
G01 X70.9658 Y-24.3997 F200.00
G01 X72.5999 Y-24.3997 F200.00
G01 X72.5644 Y-24.3828 F200.00
G01 X72.5427 Y-24.3712 F200.00
G01 X72.4900 Y-24.3398 F200.00
G01 X72.4796 Y-24.3334 F200.00
G01 X72.4592 Y-24.3197 F200.00
G01 X72.4098 Y-24.2833 F200.00
G01 X72.3904 Y-24.2682 F200.00
G01 X72.3719 Y-24.2522 F200.00
G01 X72.3265 Y-24.2109 F200.00
G01 X71.2941 Y-23.1785 F200.00
G01 X71.2528 Y-23.1331 F200.00
G01 X71.2368 Y-23.1146 F200.00
G01 X71.2291 Y-23.1050 F200.00
G01 X71.1853 Y-23.0458 F200.00
G01 X71.1705 Y-23.0236 F200.00
G01 X71.1494 Y-23.0624 F200.00
G01 X71.1377 Y-23.0823 F200.00
G01 X71.1251 Y-23.1017 F200.00
G01 X71.1054 Y-23.1302 F200.00
G01 X71.0914 Y-23.1486 F200.00
G01 X71.0619 Y-23.1841 F200.00
G01 X71.0464 Y-23.2012 F200.00
G01 X71.0220 Y-23.2258 F200.00
G01 X71.0053 Y-23.2418 F200.00
G01 X70.9878 Y-23.2569 F200.00
G01 X70.9611 Y-23.2789 F200.00
G01 X70.9427 Y-23.2929 F200.00
G01 X70.9142 Y-23.3126 F200.00
G01 X70.8948 Y-23.3252 F200.00
G01 X70.8849 Y-23.3311 F200.00
G01 X70.8547 Y-23.3481 F200.00
G01 X70.8343 Y-23.3589 F200.00
G01 X70.8134 Y-23.3687 F200.00
G01 X70.7817 Y-23.3826 F200.00
G01 X70.7709 Y-23.3869 F200.00
G01 X70.7601 Y-23.3909 F200.00
G01 X70.7273 Y-23.4020 F200.00
G01 X70.7052 Y-23.4089 F200.00
G01 X70.6941 Y-23.4119 F200.00
G01 X70.6604 Y-23.4200 F200.00
G01 X70.6378 Y-23.4247 F200.00
G01 X70.6150 Y-23.4284 F200.00
G01 X70.5807 Y-23.4331 F200.00
G01 X70.5577 Y-23.4352 F200.00
G01 X70.5462 Y-23.4359 F200.00
G01 X70.5115 Y-23.4374 F200.00
G01 X70.5000 Y-23.4375 F200.00
G01 X70.1021 Y-23.4375 F200.00
G01 X69.9723 Y-23.5673 F200.00
G01 X69.9545 Y-23.5842 F200.00
G01 X69.9181 Y-23.6172 F200.00
G01 X69.8996 Y-23.6332 F200.00
G01 X69.8802 Y-23.6483 F200.00
G01 X69.8308 Y-23.6847 F200.00
G01 X69.8104 Y-23.6984 F200.00
G01 X69.7579 Y-23.7300 F200.00
G01 X69.7365 Y-23.7421 F200.00
G01 X69.7146 Y-23.7532 F200.00
G01 X69.6702 Y-23.7742 F200.00
G01 X69.6478 Y-23.7841 F200.00
G01 X69.6249 Y-23.7929 F200.00
G01 X69.5787 Y-23.8095 F200.00
G01 X69.5554 Y-23.8172 F200.00
G01 X69.5317 Y-23.8237 F200.00
G01 X69.4721 Y-23.8385 F200.00
G01 X69.4481 Y-23.8433 F200.00
G01 X69.4360 Y-23.8452 F200.00
G01 X69.3874 Y-23.8524 F200.00
G01 X69.3630 Y-23.8554 F200.00
G01 X69.3386 Y-23.8572 F200.00
G01 X69.2773 Y-23.8601 F200.00
G01 X68.1403 Y-23.8603 F200.00
G01 X68.1251 Y-23.8726 F200.00
G01 X68.1154 Y-23.8800 F200.00
G01 X68.0523 Y-23.9268 F200.00
G01 X68.0322 Y-23.9409 F200.00
G01 X68.0115 Y-23.9540 F200.00
G01 X67.9442 Y-23.9944 F200.00
G01 X67.9228 Y-24.0065 F200.00
G01 X67.9009 Y-24.0175 F200.00
G01 X67.8299 Y-24.0511 F200.00
G01 X67.8075 Y-24.0610 F200.00
G01 X67.7846 Y-24.0699 F200.00
G01 X67.7107 Y-24.0963 F200.00
G01 X67.6991 Y-24.1003 F200.00
G01 X67.6756 Y-24.1074 F200.00
G01 X67.5861 Y-24.1300 F200.00
G00 Z4.0000
G00 X66.2000 Y-24.7251
G01 F80.00
G01 Z-0.0800
G01 F200.00
G01 X66.2224 Y-24.6880 F200.00
G01 X66.2360 Y-24.6676 F200.00
G01 X66.2974 Y-24.5849 F200.00
G01 X66.3051 Y-24.5753 F200.00
G01 X66.3211 Y-24.5567 F200.00
G01 X66.3822 Y-24.4895 F200.00
G01 X66.3908 Y-24.4808 F200.00
G01 X66.4085 Y-24.4638 F200.00
