(G-CODE GENERATED BY FLATCAM v8.994 - www.flatcam.org - Version Date: 2020/11/7)

(Name: zvire-vetrnik-power-B_Cu.gbr_iso_combined_cnc)
(Type: G-code from Geometry)
(Units: MM)

(Created on Sobota, 03 září 2022 at 17:44)

(This preprocessor is used with a motion controller loaded with GRBL firmware.)
(It is configured to be compatible with almost any version of GRBL firmware.)

(TOOL DIAMETER: 0.3993 mm)
(Feedrate_XY: 200.0 mm/min)
(Feedrate_Z: 80.0 mm/min)
(Feedrate rapids 1500.0 mm/min)

(Z_Cut: -0.1107 mm)
(Z_Move: 1.5 mm)
(Z Start: None mm)
(Z End: 5.0 mm)
(X,Y End: None mm)
(Steps per circle: 64)
(Steps per circle: 64)
(Preprocessor Geometry: GRBL_11_no_M6)

(X range:    7.9893 ...  124.1295  mm)
(Y range:  -98.7295 ...   -1.9705  mm)

(Spindle Speed: 10000.0 RPM)
G21
G90
G17
G94


G01 F200.00

M5             
G00 Z15.0000
G00 X0.0000 Y0.0000                
T3
(MSG, Change to Tool Dia = 0.3993)
M0
G00 Z15.0000
        
M03 S10000.0
G4 P1.0
G01 F200.00
G00 X33.1701 Y-8.8002
G01 F80.00
G01 Z-0.1107
G01 F200.00
G01 X33.1698 Y-16.5100 F200.00
G01 X33.1756 Y-16.6276 F200.00
G01 X33.1912 Y-16.7345 F200.00
G01 X33.1951 Y-16.7537 F200.00
G01 X33.2215 Y-16.8584 F200.00
G01 X33.2612 Y-16.9693 F200.00
G01 X33.3116 Y-17.0757 F200.00
G01 X33.3721 Y-17.1768 F200.00
G01 X33.4423 Y-17.2714 F200.00
G01 X33.5214 Y-17.3586 F200.00
G01 X33.6086 Y-17.4377 F200.00
G01 X33.7032 Y-17.5079 F200.00
G01 X33.8043 Y-17.5684 F200.00
G01 X33.9107 Y-17.6188 F200.00
G01 X34.0216 Y-17.6585 F200.00
G01 X34.1359 Y-17.6871 F200.00
G01 X34.2524 Y-17.7044 F200.00
G01 X34.3700 Y-17.7102 F200.00
G01 X34.4876 Y-17.7044 F200.00
G01 X34.5945 Y-17.6888 F200.00
G01 X34.6137 Y-17.6849 F200.00
G01 X34.7089 Y-17.6611 F200.00
G01 X34.7277 Y-17.6554 F200.00
G01 X34.8293 Y-17.6188 F200.00
G01 X34.9357 Y-17.5684 F200.00
G01 X35.0368 Y-17.5079 F200.00
G01 X35.1236 Y-17.4438 F200.00
G01 X35.1388 Y-17.4313 F200.00
G01 X35.2115 Y-17.3654 F200.00
G01 X35.2254 Y-17.3515 F200.00
G01 X35.2977 Y-17.2714 F200.00
G01 X35.3679 Y-17.1768 F200.00
G01 X35.4284 Y-17.0757 F200.00
G01 X35.4748 Y-16.9782 F200.00
G01 X35.4823 Y-16.9601 F200.00
G01 X35.5154 Y-16.8677 F200.00
G01 X35.5211 Y-16.8489 F200.00
G01 X35.5471 Y-16.7441 F200.00
G01 X35.5638 Y-16.6325 F200.00
G01 X35.5651 Y-16.6179 F200.00
G01 X35.5702 Y-16.5100 F200.00
G01 X35.5702 Y-9.3071 F200.00
G01 X36.1252 Y-8.7521 F200.00
G01 X36.1502 Y-8.7371 F200.00
G01 X36.1583 Y-8.7316 F200.00
G01 X36.2309 Y-8.6779 F200.00
G01 X36.2423 Y-8.6687 F200.00
G01 X36.3164 Y-8.6014 F200.00
G01 X36.3804 Y-8.5310 F200.00
G01 X36.3929 Y-8.5159 F200.00
G01 X36.4466 Y-8.4433 F200.00
G01 X36.4546 Y-8.4310 F200.00
G01 X36.4772 Y-8.3934 F200.00
G01 X36.4877 Y-8.3814 F200.00
G01 X36.4938 Y-8.3736 F200.00
G01 X36.5522 Y-8.2948 F200.00
G01 X36.5606 Y-8.2827 F200.00
G01 X36.6184 Y-8.1857 F200.00
G01 X36.6688 Y-8.0793 F200.00
G01 X36.7085 Y-7.9684 F200.00
G01 X36.7371 Y-7.8541 F200.00
G01 X36.7544 Y-7.7376 F200.00
G01 X36.7601 Y-7.6249 F200.00
G01 X36.7602 Y-5.5771 F200.00
G01 X37.3271 Y-5.0102 F200.00
G01 X45.2229 Y-5.0102 F200.00
G01 X46.8403 Y-6.6276 F200.00
G01 X46.7158 Y-6.6276 F200.00
G01 X46.6880 Y-6.5970 F200.00
G01 X46.6627 Y-6.5738 F200.00
G01 X46.6514 Y-6.5644 F200.00
G01 X46.6278 Y-6.5468 F200.00
G01 X46.6157 Y-6.5385 F200.00
G01 X46.5863 Y-6.5208 F200.00
G01 X46.5732 Y-6.5140 F200.00
G01 X46.5466 Y-6.5015 F200.00
G01 X46.5375 Y-6.4978 F200.00
G01 X46.5052 Y-6.4862 F200.00
G01 X46.4911 Y-6.4821 F200.00
G01 X46.4625 Y-6.4750 F200.00
G01 X46.4481 Y-6.4723 F200.00
G01 X46.4141 Y-6.4675 F200.00
G01 X46.3798 Y-6.4656 F200.00
G01 X45.0700 Y-6.4654 F200.00
G01 X45.0357 Y-6.4668 F200.00
G01 X45.0211 Y-6.4681 F200.00
G01 X44.9823 Y-6.4740 F200.00
G01 X44.9442 Y-6.4833 F200.00
G01 X44.9302 Y-6.4878 F200.00
G01 X44.8979 Y-6.4996 F200.00
G01 X44.8624 Y-6.5162 F200.00
G01 X44.8537 Y-6.5208 F200.00
G01 X44.8285 Y-6.5359 F200.00
G01 X44.8161 Y-6.5439 F200.00
G01 X44.7886 Y-6.5644 F200.00
G01 X44.7773 Y-6.5738 F200.00
G01 X44.7520 Y-6.5970 F200.00
G01 X44.7288 Y-6.6223 F200.00
G01 X44.7194 Y-6.6336 F200.00
G01 X44.6961 Y-6.6652 F200.00
G01 X44.6734 Y-6.7030 F200.00
G01 X44.6546 Y-6.7429 F200.00
G01 X44.6412 Y-6.7798 F200.00
G01 X44.6371 Y-6.7939 F200.00
G01 X44.6290 Y-6.8273 F200.00
G01 X44.6237 Y-6.8612 F200.00
G01 X44.6221 Y-6.8758 F200.00
G01 X44.6204 Y-6.9101 F200.00
G01 X44.6204 Y-7.7400 F200.00
G01 X44.6221 Y-7.7792 F200.00
G01 X44.6237 Y-7.7938 F200.00
G01 X44.6290 Y-7.8277 F200.00
G01 X44.6397 Y-7.8705 F200.00
G01 X44.6546 Y-7.9121 F200.00
G01 X44.6734 Y-7.9520 F200.00
G01 X44.6961 Y-7.9898 F200.00
G01 X44.7224 Y-8.0253 F200.00
G01 X44.7520 Y-8.0580 F200.00
G01 X44.7810 Y-8.0844 F200.00
G01 X44.7886 Y-8.0906 F200.00
G01 X44.8122 Y-8.1082 F200.00
G01 X44.8285 Y-8.1191 F200.00
G01 X44.8580 Y-8.1366 F200.00
G01 X44.8979 Y-8.1554 F200.00
G01 X44.9395 Y-8.1703 F200.00
G01 X44.9727 Y-8.1789 F200.00
G01 X44.9919 Y-8.1827 F200.00
G01 X45.0211 Y-8.1869 F200.00
G01 X45.0308 Y-8.1879 F200.00
G01 X45.0700 Y-8.1896 F200.00
G01 X46.3749 Y-8.1896 F200.00
G01 X46.4043 Y-8.1882 F200.00
G01 X46.4189 Y-8.1869 F200.00
G01 X46.4529 Y-8.1819 F200.00
G01 X46.4673 Y-8.1789 F200.00
G01 X46.4958 Y-8.1717 F200.00
G01 X46.5098 Y-8.1672 F200.00
G01 X46.5421 Y-8.1554 F200.00
G01 X46.5732 Y-8.1410 F200.00
G01 X46.5863 Y-8.1342 F200.00
G01 X46.6157 Y-8.1165 F200.00
G01 X46.6278 Y-8.1082 F200.00
G01 X46.6514 Y-8.0906 F200.00
G01 X46.6627 Y-8.0812 F200.00
G01 X46.6880 Y-8.0580 F200.00
G01 X46.7158 Y-8.0274 F200.00
G01 X46.9354 Y-8.0274 F200.00
G01 X46.9354 Y-8.4950 F200.00
G01 X46.9363 Y-8.5146 F200.00
G01 X46.9383 Y-8.5291 F200.00
G01 X46.9402 Y-8.5387 F200.00
G01 X46.9439 Y-8.5530 F200.00
G01 X46.9487 Y-8.5669 F200.00
G01 X46.9525 Y-8.5759 F200.00
G01 X46.9589 Y-8.5891 F200.00
G01 X46.9663 Y-8.6018 F200.00
G01 X46.9746 Y-8.6139 F200.00
G01 X46.9807 Y-8.6217 F200.00
G01 X46.9904 Y-8.6327 F200.00
G01 X47.0009 Y-8.6429 F200.00
G01 X47.0083 Y-8.6493 F200.00
G01 X47.0200 Y-8.6582 F200.00
G01 X47.0324 Y-8.6662 F200.00
G01 X47.0409 Y-8.6711 F200.00
G01 X47.0541 Y-8.6775 F200.00
G01 X47.0677 Y-8.6830 F200.00
G01 X47.0818 Y-8.6874 F200.00
G01 X47.0913 Y-8.6898 F200.00
G01 X47.1057 Y-8.6925 F200.00
G01 X47.1203 Y-8.6941 F200.00
G01 X47.1350 Y-8.6946 F200.00
G01 X49.3850 Y-8.6946 F200.00
G01 X49.3997 Y-8.6941 F200.00
G01 X49.4094 Y-8.6931 F200.00
G01 X49.4287 Y-8.6898 F200.00
G01 X49.4430 Y-8.6861 F200.00
G01 X49.4569 Y-8.6813 F200.00
G01 X49.4748 Y-8.6733 F200.00
G01 X49.4876 Y-8.6662 F200.00
G01 X49.5039 Y-8.6554 F200.00
G01 X49.5154 Y-8.6462 F200.00
G01 X49.5296 Y-8.6327 F200.00
G01 X49.5393 Y-8.6217 F200.00
G01 X49.5510 Y-8.6059 F200.00
G01 X49.5587 Y-8.5934 F200.00
G01 X49.5675 Y-8.5759 F200.00
G01 X49.5730 Y-8.5623 F200.00
G01 X49.5774 Y-8.5482 F200.00
G01 X49.5817 Y-8.5291 F200.00
G01 X49.5837 Y-8.5146 F200.00
G01 X49.5846 Y-8.4950 F200.00
G01 X49.5846 Y-6.7450 F200.00
G01 X49.5841 Y-6.7303 F200.00
G01 X49.5831 Y-6.7206 F200.00
G01 X49.5808 Y-6.7061 F200.00
G01 X49.5774 Y-6.6918 F200.00
G01 X49.5730 Y-6.6777 F200.00
G01 X49.5675 Y-6.6641 F200.00
G01 X49.5611 Y-6.6509 F200.00
G01 X49.5537 Y-6.6382 F200.00
G01 X49.5454 Y-6.6261 F200.00
G01 X49.5362 Y-6.6146 F200.00
G01 X49.5262 Y-6.6038 F200.00
G01 X49.5154 Y-6.5938 F200.00
G01 X49.5039 Y-6.5846 F200.00
G01 X49.4918 Y-6.5763 F200.00
G01 X49.4791 Y-6.5689 F200.00
G01 X49.4659 Y-6.5625 F200.00
G01 X49.4523 Y-6.5570 F200.00
G01 X49.4419 Y-6.5536 F200.00
G01 X49.4544 Y-6.4676 F200.00
G01 X49.4601 Y-6.3549 F200.00
G01 X49.4599 Y-6.3402 F200.00
G01 X49.4551 Y-6.2421 F200.00
G01 X49.4538 Y-6.2275 F200.00
G01 X49.4371 Y-6.1159 F200.00
G01 X49.4111 Y-6.0111 F200.00
G01 X49.4054 Y-5.9923 F200.00
G01 X49.3723 Y-5.8999 F200.00
G01 X49.3669 Y-5.8862 F200.00
G01 X49.3228 Y-5.7930 F200.00
G01 X49.3136 Y-5.7757 F200.00
G01 X49.2579 Y-5.6832 F200.00
G01 X49.1908 Y-5.5925 F200.00
G01 X49.1813 Y-5.5812 F200.00
G01 X49.1121 Y-5.5049 F200.00
G01 X48.9599 Y-5.3526 F200.00
G01 X48.9599 Y-4.4505 F200.00
G01 X48.9877 Y-4.4199 F200.00
G01 X48.9972 Y-4.4086 F200.00
G01 X49.0468 Y-4.3416 F200.00
G01 X49.0548 Y-4.3293 F200.00
G01 X49.0927 Y-4.2662 F200.00
G01 X49.0998 Y-4.2533 F200.00
G01 X49.1374 Y-4.1734 F200.00
G01 X49.1657 Y-4.0950 F200.00
G01 X49.1714 Y-4.0762 F200.00
G01 X49.1904 Y-4.0001 F200.00
G01 X49.1931 Y-3.9856 F200.00
G01 X49.2051 Y-3.9031 F200.00
G01 X49.2094 Y-3.8198 F200.00
G01 X49.2094 Y-3.8002 F200.00
G01 X49.2051 Y-3.7169 F200.00
G01 X49.1931 Y-3.6344 F200.00
G01 X49.1893 Y-3.6152 F200.00
G01 X49.1714 Y-3.5438 F200.00
G01 X49.1673 Y-3.5297 F200.00
G01 X49.1409 Y-3.4557 F200.00
G01 X49.1334 Y-3.4376 F200.00
G01 X49.0975 Y-3.3623 F200.00
G01 X49.0548 Y-3.2907 F200.00
G01 X49.0440 Y-3.2744 F200.00
G01 X48.9941 Y-3.2075 F200.00
G01 X48.9315 Y-3.1385 F200.00
G01 X48.8699 Y-3.0823 F200.00
G01 X48.8547 Y-3.0699 F200.00
G01 X48.7876 Y-3.0204 F200.00
G01 X48.7162 Y-2.9773 F200.00
G01 X48.6989 Y-2.9681 F200.00
G01 X48.6234 Y-2.9326 F200.00
G01 X48.5450 Y-2.9043 F200.00
G01 X48.5310 Y-2.8999 F200.00
G01 X48.4548 Y-2.8807 F200.00
G01 X48.4356 Y-2.8769 F200.00
G01 X48.3531 Y-2.8649 F200.00
G01 X48.2698 Y-2.8606 F200.00
G01 X48.2502 Y-2.8606 F200.00
G01 X48.1669 Y-2.8649 F200.00
G01 X48.0844 Y-2.8769 F200.00
G01 X48.0699 Y-2.8796 F200.00
G01 X47.9938 Y-2.8986 F200.00
G01 X47.9750 Y-2.9043 F200.00
G01 X47.8966 Y-2.9326 F200.00
G01 X47.8167 Y-2.9702 F200.00
G01 X47.8038 Y-2.9773 F200.00
G01 X47.7407 Y-3.0152 F200.00
G01 X47.7284 Y-3.0232 F200.00
G01 X47.6614 Y-3.0728 F200.00
G01 X47.6501 Y-3.0823 F200.00
G01 X47.6195 Y-3.1101 F200.00
G01 X46.7174 Y-3.1101 F200.00
G01 X46.5651 Y-2.9579 F200.00
G01 X46.4814 Y-2.8823 F200.00
G01 X46.3868 Y-2.8121 F200.00
G01 X46.2900 Y-2.7539 F200.00
G01 X46.2770 Y-2.7472 F200.00
G01 X46.1793 Y-2.7012 F200.00
G01 X46.0684 Y-2.6615 F200.00
G01 X45.9541 Y-2.6329 F200.00
G01 X45.8474 Y-2.6168 F200.00
G01 X45.8328 Y-2.6152 F200.00
G01 X45.7200 Y-2.6098 F200.00
G01 X36.8300 Y-2.6098 F200.00
G01 X36.7124 Y-2.6156 F200.00
G01 X36.6055 Y-2.6312 F200.00
G01 X36.5863 Y-2.6351 F200.00
G01 X36.4911 Y-2.6589 F200.00
G01 X36.4769 Y-2.6630 F200.00
G01 X36.3707 Y-2.7012 F200.00
G01 X36.2730 Y-2.7472 F200.00
G01 X36.2557 Y-2.7564 F200.00
G01 X36.1632 Y-2.8121 F200.00
G01 X36.0764 Y-2.8762 F200.00
G01 X36.0612 Y-2.8887 F200.00
G01 X35.9849 Y-2.9579 F200.00
G01 X34.7079 Y-4.2349 F200.00
G01 X34.6323 Y-4.3186 F200.00
G01 X34.5678 Y-4.4052 F200.00
G01 X34.5569 Y-4.4215 F200.00
G01 X34.5016 Y-4.5143 F200.00
G01 X34.4512 Y-4.6207 F200.00
G01 X34.4115 Y-4.7316 F200.00
G01 X34.3829 Y-4.8459 F200.00
G01 X34.3668 Y-4.9526 F200.00
G01 X34.3649 Y-4.9721 F200.00
G01 X34.3598 Y-5.0800 F200.00
G01 X34.3598 Y-7.1229 F200.00
G01 X33.5179 Y-7.9649 F200.00
G01 X33.4423 Y-8.0486 F200.00
G01 X33.3749 Y-8.1392 F200.00
G01 X33.3669 Y-8.1515 F200.00
G01 X33.3164 Y-8.2357 F200.00
G01 X33.3072 Y-8.2530 F200.00
G01 X33.2612 Y-8.3507 F200.00
G01 X33.2215 Y-8.4616 F200.00
G01 X33.1951 Y-8.5663 F200.00
G01 X33.1912 Y-8.5855 F200.00
G01 X33.1756 Y-8.6924 F200.00
G01 X33.1701 Y-8.8002 F200.00
G00 Z1.5000
G00 X36.9997 Y-6.2807
G01 F80.00
G01 Z-0.1107
G01 F200.00
G01 X37.0264 Y-6.2563 F200.00
G01 X37.0428 Y-6.2422 F200.00
G01 X37.0598 Y-6.2290 F200.00
G01 X37.0795 Y-6.2143 F200.00
G01 X37.0971 Y-6.2019 F200.00
G01 X37.1153 Y-6.1904 F200.00
G01 X37.1363 Y-6.1778 F200.00
G01 X37.1551 Y-6.1672 F200.00
G01 X37.1744 Y-6.1575 F200.00
G01 X37.1965 Y-6.1470 F200.00
G01 X37.2162 Y-6.1382 F200.00
G01 X37.2364 Y-6.1305 F200.00
G01 X37.2595 Y-6.1222 F200.00
G01 X37.2799 Y-6.1154 F200.00
G01 X37.3007 Y-6.1097 F200.00
G01 X37.3245 Y-6.1037 F200.00
G01 X37.3455 Y-6.0990 F200.00
G01 X37.3668 Y-6.0953 F200.00
G01 X37.3910 Y-6.0917 F200.00
G01 X37.4124 Y-6.0891 F200.00
G01 X37.4339 Y-6.0875 F200.00
G01 X37.4692 Y-6.0859 F200.00
G01 X38.7200 Y-6.0858 F200.00
G01 X38.7416 Y-6.0863 F200.00
G01 X38.7661 Y-6.0875 F200.00
G01 X38.7876 Y-6.0891 F200.00
G01 X38.8090 Y-6.0917 F200.00
G01 X38.8439 Y-6.0970 F200.00
G01 X38.8650 Y-6.1012 F200.00
G01 X38.8755 Y-6.1037 F200.00
G01 X38.9097 Y-6.1124 F200.00
G01 X38.9304 Y-6.1187 F200.00
G01 X38.9636 Y-6.1305 F200.00
G01 X38.9838 Y-6.1382 F200.00
G01 X39.0035 Y-6.1470 F200.00
G01 X39.0353 Y-6.1622 F200.00
G01 X39.0543 Y-6.1724 F200.00
G01 X39.0847 Y-6.1904 F200.00
G01 X39.1029 Y-6.2019 F200.00
G01 X39.1205 Y-6.2143 F200.00
G01 X39.1488 Y-6.2355 F200.00
G01 X39.1655 Y-6.2492 F200.00
G01 X39.1917 Y-6.2728 F200.00
G01 X39.2074 Y-6.2876 F200.00
G01 X39.2222 Y-6.3033 F200.00
G01 X39.2387 Y-6.3214 F200.00
G01 X39.2458 Y-6.3295 F200.00
G01 X39.2595 Y-6.3462 F200.00
G01 X39.2870 Y-6.3832 F200.00
G01 X39.2931 Y-6.3921 F200.00
G01 X39.3046 Y-6.4103 F200.00
G01 X39.3172 Y-6.4313 F200.00
G01 X39.3278 Y-6.4501 F200.00
G01 X39.3375 Y-6.4694 F200.00
G01 X39.3480 Y-6.4915 F200.00
G01 X39.3525 Y-6.5013 F200.00
G01 X39.3608 Y-6.5213 F200.00
G01 X39.3763 Y-6.5646 F200.00
G01 X39.3826 Y-6.5853 F200.00
G01 X39.3853 Y-6.5957 F200.00
G01 X39.3913 Y-6.6195 F200.00
G01 X39.3960 Y-6.6405 F200.00
G01 X39.3997 Y-6.6618 F200.00
G01 X39.4047 Y-6.6967 F200.00
G01 X39.4068 Y-6.7182 F200.00
G01 X39.4091 Y-6.7642 F200.00
G01 X39.4092 Y-6.8931 F200.00
G01 X40.3956 Y-7.8797 F200.00
G01 X40.4688 Y-7.9603 F200.00
G01 X40.4829 Y-7.9766 F200.00
G01 X40.4962 Y-7.9936 F200.00
G01 X40.5547 Y-8.0725 F200.00
G01 X40.5671 Y-8.0901 F200.00
G01 X40.5786 Y-8.1083 F200.00
G01 X40.6291 Y-8.1926 F200.00
G01 X40.6397 Y-8.2113 F200.00
G01 X40.6447 Y-8.2209 F200.00
G01 X40.6914 Y-8.3193 F200.00
G01 X40.7001 Y-8.3390 F200.00
G01 X40.7079 Y-8.3592 F200.00
G01 X40.7410 Y-8.4516 F200.00
G01 X40.7477 Y-8.4721 F200.00
G01 X40.7535 Y-8.4928 F200.00
G01 X40.7773 Y-8.5881 F200.00
G01 X40.7821 Y-8.6091 F200.00
G01 X40.7858 Y-8.6304 F200.00
G01 X40.8016 Y-8.7382 F200.00
G01 X40.8037 Y-8.7596 F200.00
G01 X40.8044 Y-8.7704 F200.00
G01 X40.8092 Y-8.8684 F200.00
G01 X40.8097 Y-8.8900 F200.00
G01 X40.8097 Y-9.5130 F200.00
G01 X44.6259 Y-9.5130 F200.00
G01 X44.6412 Y-9.5005 F200.00
G01 X44.6782 Y-9.4730 F200.00
G01 X44.6961 Y-9.4610 F200.00
G01 X44.7263 Y-9.4428 F200.00
G01 X44.7451 Y-9.4322 F200.00
G01 X44.7644 Y-9.4225 F200.00
G01 X44.7963 Y-9.4075 F200.00
G01 X44.8062 Y-9.4032 F200.00
G01 X44.8264 Y-9.3955 F200.00
G01 X44.8596 Y-9.3837 F200.00
G01 X44.8803 Y-9.3774 F200.00
G01 X44.9250 Y-9.3662 F200.00
G01 X44.9461 Y-9.3620 F200.00
G01 X44.9810 Y-9.3567 F200.00
G01 X45.0024 Y-9.3541 F200.00
G01 X45.0239 Y-9.3525 F200.00
G01 X45.0484 Y-9.3513 F200.00
G01 X45.0700 Y-9.3508 F200.00
G01 X46.3700 Y-9.3508 F200.00
G01 X46.3916 Y-9.3513 F200.00
G01 X46.4161 Y-9.3525 F200.00
G01 X46.4376 Y-9.3541 F200.00
G01 X46.4590 Y-9.3567 F200.00
G01 X46.4832 Y-9.3603 F200.00
G01 X46.5045 Y-9.3640 F200.00
G01 X46.5150 Y-9.3662 F200.00
G01 X46.5493 Y-9.3747 F200.00
G01 X46.5701 Y-9.3804 F200.00
G01 X46.5905 Y-9.3872 F200.00
G01 X46.6136 Y-9.3955 F200.00
G01 X46.6338 Y-9.4032 F200.00
G01 X46.6437 Y-9.4075 F200.00
G01 X46.6756 Y-9.4225 F200.00
G01 X46.6949 Y-9.4322 F200.00
G01 X46.7137 Y-9.4428 F200.00
G01 X46.7439 Y-9.4610 F200.00
G01 X46.7618 Y-9.4730 F200.00
G01 X46.7988 Y-9.5005 F200.00
G01 X46.8141 Y-9.5130 F200.00
G01 X46.8668 Y-9.5130 F200.00
G01 X46.9057 Y-9.4481 F200.00
G01 X46.9173 Y-9.4299 F200.00
G01 X46.9297 Y-9.4122 F200.00
G01 X46.9808 Y-9.3433 F200.00
G01 X46.9941 Y-9.3263 F200.00
G01 X47.0082 Y-9.3099 F200.00
G01 X47.0658 Y-9.2463 F200.00
G01 X47.0807 Y-9.2307 F200.00
G01 X47.0963 Y-9.2158 F200.00
G01 X47.1680 Y-9.1510 F200.00
G01 X47.1847 Y-9.1374 F200.00
G01 X47.1933 Y-9.1308 F200.00
G01 X47.2622 Y-9.0797 F200.00
G01 X47.2799 Y-9.0673 F200.00
G01 X47.2981 Y-9.0557 F200.00
G01 X47.3717 Y-9.0116 F200.00
G01 X47.3905 Y-9.0010 F200.00
G01 X47.4000 Y-8.9960 F200.00
G01 X47.4874 Y-8.9545 F200.00
G01 X47.5071 Y-8.9458 F200.00
G01 X47.5379 Y-8.9342 F200.00
G01 X47.1350 Y-8.9342 F200.00
G01 X47.1134 Y-8.9337 F200.00
G01 X47.0919 Y-8.9321 F200.00
G01 X47.0812 Y-8.9309 F200.00
G01 X47.0599 Y-8.9278 F200.00
G01 X47.0388 Y-8.9236 F200.00
G01 X47.0283 Y-8.9211 F200.00
G01 X47.0075 Y-8.9153 F200.00
G01 X46.9870 Y-8.9086 F200.00
G01 X46.9769 Y-8.9048 F200.00
G01 X46.9570 Y-8.8965 F200.00
G01 X46.9375 Y-8.8873 F200.00
G01 X46.9279 Y-8.8824 F200.00
G01 X46.9092 Y-8.8717 F200.00
G01 X46.9000 Y-8.8661 F200.00
G01 X46.8821 Y-8.8541 F200.00
G01 X46.8648 Y-8.8413 F200.00
G01 X46.8481 Y-8.8276 F200.00
G01 X46.8321 Y-8.8131 F200.00
G01 X46.8244 Y-8.8056 F200.00
G01 X46.8169 Y-8.7979 F200.00
G01 X46.8024 Y-8.7819 F200.00
G01 X46.7955 Y-8.7736 F200.00
G01 X46.7822 Y-8.7566 F200.00
G01 X46.7759 Y-8.7479 F200.00
G01 X46.7639 Y-8.7300 F200.00
G01 X46.7583 Y-8.7208 F200.00
G01 X46.7476 Y-8.7021 F200.00
G01 X46.7379 Y-8.6828 F200.00
G01 X46.7335 Y-8.6730 F200.00
G01 X46.7292 Y-8.6631 F200.00
G01 X46.7214 Y-8.6430 F200.00
G01 X46.7147 Y-8.6225 F200.00
G01 X46.7089 Y-8.6017 F200.00
G01 X46.7064 Y-8.5912 F200.00
G01 X46.7042 Y-8.5807 F200.00
G01 X46.7005 Y-8.5594 F200.00
G01 X46.6979 Y-8.5381 F200.00
G01 X46.6963 Y-8.5166 F200.00
G01 X46.6958 Y-8.4950 F200.00
G01 X46.6958 Y-8.3474 F200.00
G01 X46.6756 Y-8.3575 F200.00
G01 X46.6535 Y-8.3680 F200.00
G01 X46.6338 Y-8.3768 F200.00
G01 X46.6136 Y-8.3845 F200.00
G01 X46.5905 Y-8.3928 F200.00
G01 X46.5804 Y-8.3963 F200.00
G01 X46.5597 Y-8.4026 F200.00
G01 X46.5150 Y-8.4138 F200.00
G01 X46.4939 Y-8.4180 F200.00
G01 X46.4832 Y-8.4197 F200.00
G01 X46.4590 Y-8.4233 F200.00
G01 X46.4376 Y-8.4259 F200.00
G01 X46.4161 Y-8.4275 F200.00
G01 X46.3916 Y-8.4287 F200.00
G01 X46.3700 Y-8.4292 F200.00
G01 X45.0700 Y-8.4292 F200.00
G01 X45.0484 Y-8.4287 F200.00
G01 X45.0239 Y-8.4275 F200.00
G01 X45.0024 Y-8.4259 F200.00
G01 X44.9810 Y-8.4233 F200.00
G01 X44.9568 Y-8.4197 F200.00
G01 X44.9355 Y-8.4160 F200.00
G01 X44.9145 Y-8.4113 F200.00
G01 X44.8907 Y-8.4053 F200.00
G01 X44.8699 Y-8.3996 F200.00
G01 X44.8596 Y-8.3963 F200.00
G01 X44.8163 Y-8.3808 F200.00
G01 X44.8062 Y-8.3768 F200.00
G01 X44.7865 Y-8.3680 F200.00
G01 X44.7644 Y-8.3575 F200.00
G01 X44.7451 Y-8.3478 F200.00
G01 X44.7263 Y-8.3372 F200.00
G01 X44.7053 Y-8.3246 F200.00
G01 X44.6871 Y-8.3131 F200.00
G01 X44.6782 Y-8.3070 F200.00
G01 X44.6412 Y-8.2795 F200.00
G01 X44.6245 Y-8.2658 F200.00
G01 X44.5904 Y-8.2349 F200.00
G01 X44.5751 Y-8.2196 F200.00
G01 X44.5678 Y-8.2117 F200.00
G01 X44.5513 Y-8.1936 F200.00
G01 X44.5372 Y-8.1772 F200.00
G01 X44.5240 Y-8.1602 F200.00
G01 X44.5093 Y-8.1405 F200.00
G01 X44.4969 Y-8.1229 F200.00
G01 X44.4854 Y-8.1047 F200.00
G01 X44.4728 Y-8.0837 F200.00
G01 X44.4674 Y-8.0743 F200.00
G01 X44.4572 Y-8.0553 F200.00
G01 X44.4420 Y-8.0235 F200.00
G01 X44.4332 Y-8.0038 F200.00
G01 X44.4255 Y-7.9836 F200.00
G01 X44.4172 Y-7.9605 F200.00
G01 X44.4104 Y-7.9401 F200.00
G01 X44.4074 Y-7.9297 F200.00
G01 X44.3962 Y-7.8850 F200.00
G01 X44.3940 Y-7.8745 F200.00
G01 X44.3903 Y-7.8532 F200.00
G01 X44.3867 Y-7.8290 F200.00
G01 X44.3841 Y-7.8076 F200.00
G01 X44.3825 Y-7.7861 F200.00
G01 X44.3813 Y-7.7616 F200.00
G01 X44.3808 Y-7.7400 F200.00
G01 X44.3809 Y-6.9042 F200.00
G01 X44.3825 Y-6.8689 F200.00
G01 X44.3841 Y-6.8474 F200.00
G01 X44.3867 Y-6.8260 F200.00
G01 X44.3903 Y-6.8018 F200.00
G01 X44.3940 Y-6.7805 F200.00
G01 X44.3987 Y-6.7595 F200.00
G01 X44.4047 Y-6.7357 F200.00
G01 X44.4104 Y-6.7149 F200.00
G01 X44.4172 Y-6.6945 F200.00
G01 X44.4292 Y-6.6613 F200.00
G01 X44.4375 Y-6.6413 F200.00
G01 X44.4572 Y-6.5997 F200.00
G01 X44.4674 Y-6.5807 F200.00
G01 X44.4854 Y-6.5503 F200.00
G01 X44.4969 Y-6.5321 F200.00
G01 X44.5093 Y-6.5145 F200.00
G01 X44.5305 Y-6.4862 F200.00
G01 X44.5442 Y-6.4695 F200.00
G01 X44.5678 Y-6.4433 F200.00
G01 X44.5826 Y-6.4276 F200.00
G01 X44.5983 Y-6.4128 F200.00
G01 X44.6164 Y-6.3963 F200.00
G01 X44.6328 Y-6.3822 F200.00
G01 X44.6498 Y-6.3690 F200.00
G01 X44.6695 Y-6.3543 F200.00
G01 X44.6871 Y-6.3419 F200.00
G01 X44.7053 Y-6.3304 F200.00
G01 X44.7357 Y-6.3124 F200.00
G01 X44.7547 Y-6.3022 F200.00
G01 X44.7963 Y-6.2825 F200.00
G01 X44.8163 Y-6.2742 F200.00
G01 X44.8495 Y-6.2622 F200.00
G01 X44.8699 Y-6.2554 F200.00
G01 X44.8907 Y-6.2497 F200.00
G01 X44.9250 Y-6.2412 F200.00
G01 X44.9355 Y-6.2390 F200.00
G01 X44.9568 Y-6.2353 F200.00
G01 X44.9917 Y-6.2303 F200.00
G01 X45.0132 Y-6.2282 F200.00
G01 X45.0484 Y-6.2263 F200.00
G01 X45.0700 Y-6.2258 F200.00
G01 X46.0997 Y-6.2258 F200.00
G01 X45.1236 Y-5.2497 F200.00
G01 X37.4264 Y-5.2497 F200.00
G01 X36.9997 Y-5.6764 F200.00
G01 X36.9997 Y-6.2807 F200.00
G00 Z1.5000
G00 X40.8097 Y-15.5819
G01 F80.00
G01 Z-0.1107
G01 F200.00
G01 X40.8771 Y-15.5076 F200.00
G01 X40.8920 Y-15.4920 F200.00
G01 X44.7020 Y-11.6820 F200.00
G01 X44.7176 Y-11.6671 F200.00
G01 X44.7903 Y-11.6012 F200.00
G01 X44.8066 Y-11.5871 F200.00
G01 X44.8236 Y-11.5738 F200.00
G01 X44.8845 Y-11.5287 F200.00
G01 X44.8596 Y-11.5213 F200.00
G01 X44.8264 Y-11.5095 F200.00
G01 X44.8062 Y-11.5018 F200.00
G01 X44.7865 Y-11.4930 F200.00
G01 X44.7644 Y-11.4825 F200.00
G01 X44.7451 Y-11.4728 F200.00
G01 X44.7263 Y-11.4622 F200.00
G01 X44.7053 Y-11.4496 F200.00
G01 X44.6871 Y-11.4381 F200.00
G01 X44.6695 Y-11.4257 F200.00
G01 X44.6498 Y-11.4110 F200.00
G01 X44.6259 Y-11.3920 F200.00
G01 X40.8097 Y-11.3920 F200.00
G01 X40.8097 Y-15.5819 F200.00
G00 Z1.5000
G00 X46.9417 Y-15.1249
G01 F80.00
G01 Z-0.1107
G01 F200.00
G01 X46.9398 Y-15.1444 F200.00
G01 X46.9356 Y-15.2302 F200.00
G01 X46.9356 Y-15.2498 F200.00
G01 X46.9405 Y-15.3453 F200.00
G01 X46.9560 Y-15.4497 F200.00
G01 X46.9816 Y-15.5520 F200.00
G01 X47.0136 Y-15.6421 F200.00
G01 X47.0211 Y-15.6602 F200.00
G01 X47.0578 Y-15.7378 F200.00
G01 X47.0646 Y-15.7509 F200.00
G01 X47.1165 Y-15.8370 F200.00
G01 X47.1733 Y-15.9140 F200.00
G01 X47.1857 Y-15.9292 F200.00
G01 X47.2434 Y-15.9928 F200.00
G01 X47.2536 Y-16.0033 F200.00
G01 X47.3282 Y-16.0707 F200.00
G01 X47.4089 Y-16.1308 F200.00
G01 X47.4212 Y-16.1388 F200.00
G01 X47.4991 Y-16.1854 F200.00
G01 X47.5122 Y-16.1922 F200.00
G01 X47.5601 Y-16.2148 F200.00
G01 X47.5601 Y-19.2704 F200.00
G01 X47.4100 Y-19.2704 F200.00
G01 X47.3953 Y-19.2709 F200.00
G01 X47.3759 Y-19.2733 F200.00
G01 X47.3615 Y-19.2763 F200.00
G01 X47.3427 Y-19.2820 F200.00
G01 X47.3246 Y-19.2895 F200.00
G01 X47.3159 Y-19.2939 F200.00
G01 X47.3032 Y-19.3013 F200.00
G01 X47.2911 Y-19.3096 F200.00
G01 X47.2833 Y-19.3157 F200.00
G01 X47.2759 Y-19.3221 F200.00
G01 X47.2654 Y-19.3323 F200.00
G01 X47.2588 Y-19.3396 F200.00
G01 X47.2496 Y-19.3511 F200.00
G01 X47.2413 Y-19.3632 F200.00
G01 X47.2363 Y-19.3716 F200.00
G01 X47.2275 Y-19.3891 F200.00
G01 X47.2237 Y-19.3981 F200.00
G01 X47.2189 Y-19.4120 F200.00
G01 X47.2163 Y-19.4215 F200.00
G01 X47.2133 Y-19.4359 F200.00
G01 X47.2109 Y-19.4553 F200.00
G01 X47.2104 Y-19.4700 F200.00
G01 X47.2104 Y-21.1700 F200.00
G01 X47.2109 Y-21.1847 F200.00
G01 X47.2133 Y-21.2041 F200.00
G01 X47.2176 Y-21.2232 F200.00
G01 X47.2220 Y-21.2373 F200.00
G01 X47.2275 Y-21.2509 F200.00
G01 X47.2339 Y-21.2641 F200.00
G01 X47.2413 Y-21.2768 F200.00
G01 X47.2496 Y-21.2889 F200.00
G01 X47.2588 Y-21.3004 F200.00
G01 X47.2688 Y-21.3112 F200.00
G01 X47.2796 Y-21.3212 F200.00
G01 X47.2911 Y-21.3304 F200.00
G01 X47.3032 Y-21.3387 F200.00
G01 X47.3116 Y-21.3437 F200.00
G01 X47.3246 Y-21.3505 F200.00
G01 X47.3381 Y-21.3563 F200.00
G01 X47.3520 Y-21.3611 F200.00
G01 X47.3663 Y-21.3648 F200.00
G01 X47.3807 Y-21.3675 F200.00
G01 X47.3953 Y-21.3691 F200.00
G01 X47.4100 Y-21.3696 F200.00
G01 X49.1100 Y-21.3696 F200.00
G01 X49.1296 Y-21.3687 F200.00
G01 X49.1441 Y-21.3667 F200.00
G01 X49.1585 Y-21.3637 F200.00
G01 X49.1773 Y-21.3580 F200.00
G01 X49.1909 Y-21.3525 F200.00
G01 X49.2041 Y-21.3461 F200.00
G01 X49.2168 Y-21.3387 F200.00
G01 X49.2289 Y-21.3304 F200.00
G01 X49.2404 Y-21.3212 F200.00
G01 X49.2512 Y-21.3112 F200.00
G01 X49.2612 Y-21.3004 F200.00
G01 X49.2704 Y-21.2889 F200.00
G01 X49.2787 Y-21.2768 F200.00
G01 X49.2861 Y-21.2641 F200.00
G01 X49.2925 Y-21.2509 F200.00
G01 X49.2980 Y-21.2373 F200.00
G01 X49.3024 Y-21.2232 F200.00
G01 X49.3058 Y-21.2089 F200.00
G01 X49.3075 Y-21.1993 F200.00
G01 X49.3091 Y-21.1847 F200.00
G01 X49.3096 Y-21.1700 F200.00
G01 X49.3094 Y-19.4602 F200.00
G01 X49.3081 Y-19.4456 F200.00
G01 X49.3067 Y-19.4359 F200.00
G01 X49.3037 Y-19.4215 F200.00
G01 X49.2996 Y-19.4074 F200.00
G01 X49.2945 Y-19.3936 F200.00
G01 X49.2905 Y-19.3846 F200.00
G01 X49.2837 Y-19.3716 F200.00
G01 X49.2787 Y-19.3632 F200.00
G01 X49.2704 Y-19.3511 F200.00
G01 X49.2643 Y-19.3433 F200.00
G01 X49.2579 Y-19.3359 F200.00
G01 X49.2477 Y-19.3254 F200.00
G01 X49.2404 Y-19.3188 F200.00
G01 X49.2289 Y-19.3096 F200.00
G01 X49.2168 Y-19.3013 F200.00
G01 X49.2041 Y-19.2939 F200.00
G01 X49.1864 Y-19.2855 F200.00
G01 X49.1680 Y-19.2789 F200.00
G01 X49.1489 Y-19.2742 F200.00
G01 X49.1296 Y-19.2713 F200.00
G01 X49.1100 Y-19.2704 F200.00
G01 X48.9599 Y-19.2704 F200.00
G01 X48.9599 Y-16.2148 F200.00
G01 X49.0078 Y-16.1922 F200.00
G01 X49.0209 Y-16.1854 F200.00
G01 X49.0988 Y-16.1388 F200.00
G01 X49.1111 Y-16.1308 F200.00
G01 X49.1918 Y-16.0707 F200.00
G01 X49.2628 Y-16.0066 F200.00
G01 X49.2733 Y-15.9964 F200.00
G01 X49.3407 Y-15.9218 F200.00
G01 X49.4035 Y-15.8370 F200.00
G01 X49.4578 Y-15.7466 F200.00
G01 X49.4989 Y-15.6602 F200.00
G01 X49.5047 Y-15.6467 F200.00
G01 X49.5384 Y-15.5520 F200.00
G01 X49.5640 Y-15.4497 F200.00
G01 X49.5795 Y-15.3453 F200.00
G01 X49.5846 Y-15.2400 F200.00
G01 X49.5795 Y-15.1347 F200.00
G01 X49.5640 Y-15.0303 F200.00
G01 X49.5384 Y-14.9280 F200.00
G01 X49.5064 Y-14.8379 F200.00
G01 X49.4989 Y-14.8198 F200.00
G01 X49.4578 Y-14.7334 F200.00
G01 X49.4035 Y-14.6430 F200.00
G01 X49.3407 Y-14.5582 F200.00
G01 X49.2699 Y-14.4801 F200.00
G01 X49.1918 Y-14.4093 F200.00
G01 X49.1070 Y-14.3465 F200.00
G01 X49.0166 Y-14.2922 F200.00
G01 X48.9213 Y-14.2472 F200.00
G01 X48.8220 Y-14.2116 F200.00
G01 X48.7292 Y-14.1881 F200.00
G01 X48.7100 Y-14.1843 F200.00
G01 X48.6251 Y-14.1717 F200.00
G01 X48.6105 Y-14.1701 F200.00
G01 X48.5100 Y-14.1654 F200.00
G01 X48.0100 Y-14.1654 F200.00
G01 X47.9144 Y-14.1698 F200.00
G01 X47.8998 Y-14.1711 F200.00
G01 X47.8003 Y-14.1860 F200.00
G01 X47.6980 Y-14.2116 F200.00
G01 X47.5987 Y-14.2472 F200.00
G01 X47.5122 Y-14.2878 F200.00
G01 X47.4949 Y-14.2971 F200.00
G01 X47.4212 Y-14.3412 F200.00
G01 X47.4049 Y-14.3521 F200.00
G01 X47.3282 Y-14.4093 F200.00
G01 X47.2501 Y-14.4801 F200.00
G01 X47.1793 Y-14.5582 F200.00
G01 X47.1221 Y-14.6349 F200.00
G01 X47.1112 Y-14.6512 F200.00
G01 X47.0671 Y-14.7249 F200.00
G01 X47.0578 Y-14.7422 F200.00
G01 X47.0172 Y-14.8287 F200.00
G01 X46.9816 Y-14.9280 F200.00
G01 X46.9560 Y-15.0303 F200.00
G01 X46.9417 Y-15.1249 F200.00
G00 Z1.5000
G00 X47.2916 Y-14.1397
G01 F80.00
G01 Z-0.1107
G01 F200.00
G01 X46.3164 Y-14.1397 F200.00
G01 X43.3497 Y-17.1064 F200.00
G01 X43.3496 Y-18.9138 F200.00
G01 X43.3444 Y-19.0226 F200.00
G01 X43.3428 Y-19.0441 F200.00
G01 X43.3402 Y-19.0655 F200.00
G01 X43.3240 Y-19.1733 F200.00
G01 X43.3198 Y-19.1944 F200.00
G01 X43.3173 Y-19.2049 F200.00
G01 X43.2907 Y-19.3106 F200.00
G01 X43.2845 Y-19.3312 F200.00
G01 X43.2670 Y-19.3805 F200.00
G01 X44.8383 Y-19.3805 F200.00
G01 X44.8858 Y-19.3375 F200.00
G01 X44.9021 Y-19.3234 F200.00
G01 X44.9191 Y-19.3101 F200.00
G01 X44.9861 Y-19.2605 F200.00
G01 X44.9949 Y-19.2541 F200.00
G01 X45.0128 Y-19.2422 F200.00
G01 X45.1028 Y-19.1882 F200.00
G01 X45.1218 Y-19.1780 F200.00
G01 X45.1315 Y-19.1733 F200.00
G01 X45.2069 Y-19.1376 F200.00
G01 X45.2266 Y-19.1289 F200.00
G01 X45.2467 Y-19.1211 F200.00
G01 X45.3253 Y-19.0930 F200.00
G01 X45.3458 Y-19.0863 F200.00
G01 X45.3665 Y-19.0805 F200.00
G01 X45.4474 Y-19.0603 F200.00
G01 X45.4685 Y-19.0555 F200.00
G01 X45.4897 Y-19.0519 F200.00
G01 X45.5722 Y-19.0396 F200.00
G01 X45.5936 Y-19.0370 F200.00
G01 X45.6151 Y-19.0354 F200.00
G01 X45.6984 Y-19.0313 F200.00
G01 X45.7200 Y-19.0308 F200.00
G01 X45.7416 Y-19.0313 F200.00
G01 X45.8249 Y-19.0354 F200.00
G01 X45.8464 Y-19.0370 F200.00
G01 X45.8571 Y-19.0382 F200.00
G01 X45.9609 Y-19.0536 F200.00
G01 X45.9821 Y-19.0578 F200.00
G01 X45.9926 Y-19.0603 F200.00
G01 X46.0735 Y-19.0805 F200.00
G01 X46.0942 Y-19.0863 F200.00
G01 X46.1147 Y-19.0930 F200.00
G01 X46.1933 Y-19.1211 F200.00
G01 X46.2134 Y-19.1289 F200.00
G01 X46.2331 Y-19.1376 F200.00
G01 X46.3085 Y-19.1733 F200.00
G01 X46.3277 Y-19.1830 F200.00
G01 X46.3465 Y-19.1936 F200.00
G01 X46.4180 Y-19.2365 F200.00
G01 X46.4363 Y-19.2480 F200.00
G01 X46.4539 Y-19.2605 F200.00
G01 X46.5209 Y-19.3101 F200.00
G01 X46.5379 Y-19.3234 F200.00
G01 X46.5542 Y-19.3375 F200.00
G01 X46.6239 Y-19.4008 F200.00
G01 X46.6316 Y-19.4084 F200.00
G01 X46.6465 Y-19.4240 F200.00
G01 X46.7025 Y-19.4858 F200.00
G01 X46.7166 Y-19.5021 F200.00
G01 X46.7299 Y-19.5191 F200.00
G01 X46.7795 Y-19.5861 F200.00
G01 X46.7920 Y-19.6037 F200.00
G01 X46.8035 Y-19.6220 F200.00
G01 X46.8518 Y-19.7028 F200.00
G01 X46.8620 Y-19.7218 F200.00
G01 X46.8667 Y-19.7315 F200.00
G01 X46.9024 Y-19.8069 F200.00
G01 X46.9068 Y-19.8167 F200.00
G01 X46.9151 Y-19.8366 F200.00
G01 X46.9505 Y-19.9355 F200.00
G01 X46.9567 Y-19.9561 F200.00
G01 X46.9708 Y-20.0117 F200.00
G01 X46.9708 Y-19.4700 F200.00
G01 X46.9713 Y-19.4484 F200.00
G01 X46.9729 Y-19.4269 F200.00
G01 X46.9741 Y-19.4162 F200.00
G01 X46.9755 Y-19.4056 F200.00
G01 X46.9792 Y-19.3843 F200.00
G01 X46.9814 Y-19.3738 F200.00
G01 X46.9867 Y-19.3529 F200.00
G01 X46.9897 Y-19.3425 F200.00
G01 X46.9964 Y-19.3220 F200.00
G01 X47.0002 Y-19.3119 F200.00
G01 X47.0085 Y-19.2920 F200.00
G01 X47.0129 Y-19.2822 F200.00
G01 X47.0226 Y-19.2629 F200.00
G01 X47.0278 Y-19.2535 F200.00
G01 X47.0389 Y-19.2350 F200.00
G01 X47.0509 Y-19.2171 F200.00
G01 X47.0637 Y-19.1998 F200.00
G01 X47.0774 Y-19.1831 F200.00
G01 X47.0846 Y-19.1750 F200.00
G01 X47.0994 Y-19.1594 F200.00
G01 X47.1071 Y-19.1519 F200.00
G01 X47.1231 Y-19.1374 F200.00
G01 X47.1314 Y-19.1305 F200.00
G01 X47.1484 Y-19.1172 F200.00
G01 X47.1660 Y-19.1048 F200.00
G01 X47.1842 Y-19.0933 F200.00
G01 X47.1935 Y-19.0878 F200.00
G01 X47.2125 Y-19.0777 F200.00
G01 X47.2320 Y-19.0685 F200.00
G01 X47.2519 Y-19.0602 F200.00
G01 X47.2620 Y-19.0564 F200.00
G01 X47.2722 Y-19.0529 F200.00
G01 X47.2929 Y-19.0467 F200.00
G01 X47.3200 Y-19.0401 F200.00
G01 X47.3171 Y-16.3557 F200.00
G01 X47.2889 Y-16.3386 F200.00
G01 X47.2710 Y-16.3266 F200.00
G01 X47.1847 Y-16.2626 F200.00
G01 X47.1763 Y-16.2559 F200.00
G01 X47.1599 Y-16.2418 F200.00
G01 X47.0963 Y-16.1842 F200.00
G01 X47.0807 Y-16.1693 F200.00
G01 X47.0732 Y-16.1616 F200.00
G01 X47.0082 Y-16.0901 F200.00
G01 X46.9941 Y-16.0737 F200.00
G01 X46.9808 Y-16.0567 F200.00
G01 X46.9297 Y-15.9878 F200.00
G01 X46.9173 Y-15.9701 F200.00
G01 X46.9057 Y-15.9519 F200.00
G01 X46.8616 Y-15.8783 F200.00
G01 X46.8562 Y-15.8690 F200.00
G01 X46.8460 Y-15.8500 F200.00
G01 X46.8045 Y-15.7626 F200.00
G01 X46.7958 Y-15.7429 F200.00
G01 X46.7881 Y-15.7228 F200.00
G01 X46.7591 Y-15.6420 F200.00
G01 X46.7524 Y-15.6215 F200.00
G01 X46.7466 Y-15.6007 F200.00
G01 X46.7257 Y-15.5174 F200.00
G01 X46.7210 Y-15.4964 F200.00
G01 X46.7173 Y-15.4752 F200.00
G01 X46.7047 Y-15.3902 F200.00
G01 X46.7021 Y-15.3688 F200.00
G01 X46.7005 Y-15.3473 F200.00
G01 X46.6963 Y-15.2616 F200.00
G01 X46.6958 Y-15.2400 F200.00
G01 X46.6963 Y-15.2184 F200.00
G01 X46.7005 Y-15.1327 F200.00
G01 X46.7021 Y-15.1112 F200.00
G01 X46.7047 Y-15.0898 F200.00
G01 X46.7173 Y-15.0048 F200.00
G01 X46.7210 Y-14.9836 F200.00
G01 X46.7257 Y-14.9626 F200.00
G01 X46.7466 Y-14.8793 F200.00
G01 X46.7524 Y-14.8585 F200.00
G01 X46.7591 Y-14.8380 F200.00
G01 X46.7881 Y-14.7572 F200.00
G01 X46.7958 Y-14.7371 F200.00
G01 X46.8045 Y-14.7174 F200.00
G01 X46.8413 Y-14.6397 F200.00
G01 X46.8510 Y-14.6205 F200.00
G01 X46.8616 Y-14.6017 F200.00
G01 X46.9057 Y-14.5281 F200.00
G01 X46.9173 Y-14.5099 F200.00
G01 X46.9297 Y-14.4922 F200.00
G01 X46.9808 Y-14.4233 F200.00
G01 X46.9941 Y-14.4063 F200.00
G01 X47.0010 Y-14.3980 F200.00
G01 X47.0732 Y-14.3184 F200.00
G01 X47.0884 Y-14.3032 F200.00
G01 X47.0963 Y-14.2958 F200.00
G01 X47.1599 Y-14.2382 F200.00
G01 X47.1763 Y-14.2241 F200.00
G01 X47.1933 Y-14.2108 F200.00
G01 X47.2622 Y-14.1597 F200.00
G01 X47.2799 Y-14.1473 F200.00
G01 X47.2916 Y-14.1397 F200.00
G00 Z1.5000
G00 X51.6087 Y-14.4812
G01 F80.00
G01 Z-0.1107
G01 F200.00
G01 X51.6071 Y-14.4958 F200.00
G01 X51.6054 Y-14.5350 F200.00
G01 X51.6054 Y-15.3600 F200.00
G01 X51.6068 Y-15.3943 F200.00
G01 X51.6081 Y-15.4089 F200.00
G01 X51.6140 Y-15.4477 F200.00
G01 X51.6247 Y-15.4905 F200.00
G01 X51.6396 Y-15.5321 F200.00
G01 X51.6584 Y-15.5720 F200.00
G01 X51.6811 Y-15.6098 F200.00
G01 X51.7074 Y-15.6453 F200.00
G01 X51.7370 Y-15.6780 F200.00
G01 X51.7660 Y-15.7044 F200.00
G01 X51.7736 Y-15.7106 F200.00
G01 X51.7972 Y-15.7282 F200.00
G01 X51.8135 Y-15.7391 F200.00
G01 X51.8387 Y-15.7542 F200.00
G01 X51.8474 Y-15.7588 F200.00
G01 X51.8740 Y-15.7715 F200.00
G01 X51.8875 Y-15.7772 F200.00
G01 X51.9245 Y-15.7903 F200.00
G01 X51.9673 Y-15.8010 F200.00
G01 X52.0109 Y-15.8075 F200.00
G01 X52.0452 Y-15.8094 F200.00
G01 X53.3599 Y-15.8096 F200.00
G01 X53.3991 Y-15.8075 F200.00
G01 X53.4427 Y-15.8010 F200.00
G01 X53.4855 Y-15.7903 F200.00
G01 X53.5225 Y-15.7773 F200.00
G01 X54.2972 Y-16.5520 F200.00
G01 X54.2992 Y-16.5933 F200.00
G01 X54.3005 Y-16.6080 F200.00
G01 X54.3119 Y-16.6856 F200.00
G01 X54.3146 Y-16.7001 F200.00
G01 X54.3362 Y-16.7857 F200.00
G01 X54.3641 Y-16.8643 F200.00
G01 X54.3696 Y-16.8779 F200.00
G01 X54.4075 Y-16.9577 F200.00
G01 X54.4554 Y-17.0376 F200.00
G01 X54.5109 Y-17.1125 F200.00
G01 X54.5667 Y-17.1744 F200.00
G01 X54.5770 Y-17.1849 F200.00
G01 X54.6425 Y-17.2441 F200.00
G01 X54.7174 Y-17.2996 F200.00
G01 X54.7973 Y-17.3475 F200.00
G01 X54.8771 Y-17.3854 F200.00
G01 X54.8907 Y-17.3909 F200.00
G01 X54.9693 Y-17.4188 F200.00
G01 X55.0549 Y-17.4404 F200.00
G01 X55.0694 Y-17.4431 F200.00
G01 X55.1470 Y-17.4545 F200.00
G01 X55.1617 Y-17.4558 F200.00
G01 X55.2030 Y-17.4578 F200.00
G01 X56.0272 Y-18.2817 F200.00
G01 X56.0710 Y-18.3210 F200.00
G01 X56.1262 Y-18.3619 F200.00
G01 X56.1851 Y-18.3973 F200.00
G01 X56.2472 Y-18.4266 F200.00
G01 X56.3118 Y-18.4498 F200.00
G01 X56.3785 Y-18.4665 F200.00
G01 X56.4464 Y-18.4765 F200.00
G01 X56.5101 Y-18.4798 F200.00
G01 X58.9765 Y-18.4799 F200.00
G01 X58.9902 Y-18.4936 F200.00
G01 X59.0558 Y-18.5527 F200.00
G01 X59.1346 Y-18.6112 F200.00
G01 X59.2188 Y-18.6616 F200.00
G01 X59.2985 Y-18.6996 F200.00
G01 X59.3166 Y-18.7071 F200.00
G01 X59.3998 Y-18.7366 F200.00
G01 X59.4854 Y-18.7583 F200.00
G01 X59.5046 Y-18.7621 F200.00
G01 X59.5920 Y-18.7748 F200.00
G01 X59.6802 Y-18.7794 F200.00
G01 X59.6998 Y-18.7794 F200.00
G01 X59.7782 Y-18.7756 F200.00
G01 X59.7977 Y-18.7736 F200.00
G01 X59.8850 Y-18.7604 F200.00
G01 X59.9707 Y-18.7392 F200.00
G01 X59.9895 Y-18.7335 F200.00
G01 X60.0725 Y-18.7036 F200.00
G01 X60.1525 Y-18.6660 F200.00
G01 X60.1698 Y-18.6568 F200.00
G01 X60.2371 Y-18.6164 F200.00
G01 X60.2534 Y-18.6055 F200.00
G01 X60.3242 Y-18.5527 F200.00
G01 X60.3898 Y-18.4936 F200.00
G01 X60.4036 Y-18.4798 F200.00
G01 X60.4627 Y-18.4142 F200.00
G01 X60.5155 Y-18.3434 F200.00
G01 X60.5264 Y-18.3271 F200.00
G01 X60.5716 Y-18.2512 F200.00
G01 X60.6136 Y-18.1625 F200.00
G01 X60.6466 Y-18.0702 F200.00
G01 X60.6704 Y-17.9750 F200.00
G01 X60.6848 Y-17.8780 F200.00
G01 X60.6894 Y-17.7898 F200.00
G01 X60.6894 Y-17.7702 F200.00
G01 X60.6856 Y-17.6918 F200.00
G01 X60.6836 Y-17.6723 F200.00
G01 X60.6704 Y-17.5850 F200.00
G01 X60.6492 Y-17.4993 F200.00
G01 X60.6435 Y-17.4805 F200.00
G01 X60.6136 Y-17.3975 F200.00
G01 X60.5760 Y-17.3175 F200.00
G01 X60.5668 Y-17.3002 F200.00
G01 X60.5212 Y-17.2246 F200.00
G01 X60.4627 Y-17.1458 F200.00
G01 X60.3969 Y-17.0731 F200.00
G01 X60.3242 Y-17.0073 F200.00
G01 X60.2454 Y-16.9488 F200.00
G01 X60.1612 Y-16.8984 F200.00
G01 X60.0725 Y-16.8564 F200.00
G01 X59.9895 Y-16.8265 F200.00
G01 X59.9755 Y-16.8220 F200.00
G01 X59.8850 Y-16.7996 F200.00
G01 X59.7977 Y-16.7864 F200.00
G01 X59.7782 Y-16.7844 F200.00
G01 X59.6900 Y-16.7804 F200.00
G01 X59.6018 Y-16.7844 F200.00
G01 X59.5823 Y-16.7864 F200.00
G01 X59.4950 Y-16.7996 F200.00
G01 X59.4093 Y-16.8208 F200.00
G01 X59.3905 Y-16.8265 F200.00
G01 X59.3075 Y-16.8564 F200.00
G01 X59.2275 Y-16.8940 F200.00
G01 X59.2102 Y-16.9032 F200.00
G01 X59.1346 Y-16.9488 F200.00
G01 X59.0636 Y-17.0012 F200.00
G01 X59.0484 Y-17.0137 F200.00
G01 X58.9902 Y-17.0664 F200.00
G01 X58.9765 Y-17.0801 F200.00
G01 X56.8049 Y-17.0801 F200.00
G01 X56.1928 Y-16.4680 F200.00
G01 X56.1908 Y-16.4267 F200.00
G01 X56.1895 Y-16.4120 F200.00
G01 X56.1773 Y-16.3295 F200.00
G01 X56.1743 Y-16.3152 F200.00
G01 X56.1551 Y-16.2390 F200.00
G01 X56.1507 Y-16.2250 F200.00
G01 X56.1224 Y-16.1466 F200.00
G01 X56.0848 Y-16.0667 F200.00
G01 X56.0777 Y-16.0538 F200.00
G01 X56.0346 Y-15.9824 F200.00
G01 X55.9791 Y-15.9075 F200.00
G01 X55.9165 Y-15.8385 F200.00
G01 X55.8549 Y-15.7823 F200.00
G01 X55.8397 Y-15.7699 F200.00
G01 X55.7806 Y-15.7260 F200.00
G01 X55.7643 Y-15.7152 F200.00
G01 X55.6927 Y-15.6725 F200.00
G01 X55.6174 Y-15.6366 F200.00
G01 X55.6039 Y-15.6308 F200.00
G01 X55.5207 Y-15.6012 F200.00
G01 X55.4351 Y-15.5796 F200.00
G01 X55.4206 Y-15.5769 F200.00
G01 X55.3430 Y-15.5655 F200.00
G01 X55.3283 Y-15.5642 F200.00
G01 X55.2870 Y-15.5622 F200.00
G01 X54.1774 Y-14.4526 F200.00
G01 X54.1265 Y-14.4065 F200.00
G01 X54.0713 Y-14.3656 F200.00
G01 X54.0210 Y-14.3351 F200.00
G01 X54.0037 Y-14.3258 F200.00
G01 X53.9593 Y-14.3048 F200.00
G01 X53.9458 Y-14.2991 F200.00
G01 X53.8857 Y-14.2777 F200.00
G01 X53.8190 Y-14.2610 F200.00
G01 X53.7511 Y-14.2510 F200.00
G01 X53.7014 Y-14.2483 F200.00
G01 X53.6764 Y-14.2206 F200.00
G01 X53.6659 Y-14.2103 F200.00
G01 X53.6403 Y-14.1874 F200.00
G01 X53.6128 Y-14.1668 F200.00
G01 X53.6007 Y-14.1585 F200.00
G01 X53.5670 Y-14.1384 F200.00
G01 X53.5271 Y-14.1196 F200.00
G01 X53.4855 Y-14.1047 F200.00
G01 X53.4427 Y-14.0940 F200.00
G01 X53.3991 Y-14.0875 F200.00
G01 X53.3599 Y-14.0854 F200.00
G01 X52.0550 Y-14.0854 F200.00
G01 X52.0109 Y-14.0875 F200.00
G01 X51.9673 Y-14.0940 F200.00
G01 X51.9292 Y-14.1033 F200.00
G01 X51.9152 Y-14.1078 F200.00
G01 X51.8829 Y-14.1196 F200.00
G01 X51.8430 Y-14.1384 F200.00
G01 X51.8052 Y-14.1611 F200.00
G01 X51.7775 Y-14.1814 F200.00
G01 X51.7623 Y-14.1938 F200.00
G01 X51.7406 Y-14.2136 F200.00
G01 X51.7303 Y-14.2241 F200.00
G01 X51.7074 Y-14.2497 F200.00
G01 X51.6839 Y-14.2811 F200.00
G01 X51.6785 Y-14.2893 F200.00
G01 X51.6633 Y-14.3145 F200.00
G01 X51.6540 Y-14.3318 F200.00
G01 X51.6396 Y-14.3629 F200.00
G01 X51.6247 Y-14.4045 F200.00
G01 X51.6140 Y-14.4473 F200.00
G01 X51.6087 Y-14.4812 F200.00
G00 Z1.5000
G00 X52.3961 Y-11.3272
G01 F80.00
G01 Z-0.1107
G01 F200.00
G01 X52.3942 Y-11.3467 F200.00
G01 X52.3906 Y-11.4202 F200.00
G01 X52.3906 Y-11.4398 F200.00
G01 X52.3949 Y-11.5231 F200.00
G01 X52.4069 Y-11.6056 F200.00
G01 X52.4107 Y-11.6248 F200.00
G01 X52.4312 Y-11.7057 F200.00
G01 X52.4626 Y-11.7934 F200.00
G01 X52.5025 Y-11.8777 F200.00
G01 X52.5504 Y-11.9576 F200.00
G01 X52.6059 Y-12.0325 F200.00
G01 X52.6685 Y-12.1015 F200.00
G01 X52.7375 Y-12.1641 F200.00
G01 X52.8044 Y-12.2140 F200.00
G01 X52.8207 Y-12.2248 F200.00
G01 X52.8838 Y-12.2627 F200.00
G01 X52.9011 Y-12.2719 F200.00
G01 X52.9766 Y-12.3074 F200.00
G01 X53.0550 Y-12.3357 F200.00
G01 X53.0738 Y-12.3414 F200.00
G01 X53.1547 Y-12.3614 F200.00
G01 X53.2372 Y-12.3739 F200.00
G01 X53.2567 Y-12.3758 F200.00
G01 X53.3302 Y-12.3794 F200.00
G01 X53.3498 Y-12.3794 F200.00
G01 X53.4331 Y-12.3751 F200.00
G01 X53.5156 Y-12.3631 F200.00
G01 X53.5301 Y-12.3604 F200.00
G01 X53.6062 Y-12.3414 F200.00
G01 X53.6250 Y-12.3357 F200.00
G01 X53.7034 Y-12.3074 F200.00
G01 X53.7833 Y-12.2698 F200.00
G01 X53.7962 Y-12.2627 F200.00
G01 X53.8593 Y-12.2248 F200.00
G01 X53.8716 Y-12.2168 F200.00
G01 X53.9386 Y-12.1672 F200.00
G01 X53.9499 Y-12.1577 F200.00
G01 X53.9805 Y-12.1299 F200.00
G01 X55.5901 Y-12.1299 F200.00
G01 X58.6906 Y-15.2304 F200.00
G01 X58.6906 Y-15.2498 F200.00
G01 X58.6944 Y-15.3282 F200.00
G01 X58.6964 Y-15.3477 F200.00
G01 X58.7096 Y-15.4350 F200.00
G01 X58.7308 Y-15.5207 F200.00
G01 X58.7365 Y-15.5395 F200.00
G01 X58.7664 Y-15.6225 F200.00
G01 X58.8040 Y-15.7025 F200.00
G01 X58.8132 Y-15.7198 F200.00
G01 X58.8588 Y-15.7954 F200.00
G01 X58.9112 Y-15.8664 F200.00
G01 X58.9237 Y-15.8816 F200.00
G01 X58.9831 Y-15.9469 F200.00
G01 X59.0484 Y-16.0063 F200.00
G01 X59.0636 Y-16.0188 F200.00
G01 X59.1346 Y-16.0712 F200.00
G01 X59.2188 Y-16.1216 F200.00
G01 X59.3075 Y-16.1636 F200.00
G01 X59.3998 Y-16.1966 F200.00
G01 X59.4950 Y-16.2204 F200.00
G01 X59.5920 Y-16.2348 F200.00
G01 X59.6900 Y-16.2396 F200.00
G01 X59.7880 Y-16.2348 F200.00
G01 X59.8850 Y-16.2204 F200.00
G01 X59.9802 Y-16.1966 F200.00
G01 X60.0725 Y-16.1636 F200.00
G01 X60.1612 Y-16.1216 F200.00
G01 X60.2454 Y-16.0712 F200.00
G01 X60.3242 Y-16.0127 F200.00
G01 X60.3969 Y-15.9469 F200.00
G01 X60.4627 Y-15.8742 F200.00
G01 X60.5212 Y-15.7954 F200.00
G01 X60.5716 Y-15.7112 F200.00
G01 X60.6136 Y-15.6225 F200.00
G01 X60.6435 Y-15.5395 F200.00
G01 X60.6492 Y-15.5207 F200.00
G01 X60.6704 Y-15.4350 F200.00
G01 X60.6848 Y-15.3380 F200.00
G01 X60.6894 Y-15.2498 F200.00
G01 X60.6894 Y-15.2302 F200.00
G01 X60.6848 Y-15.1420 F200.00
G01 X60.6704 Y-15.0450 F200.00
G01 X60.6492 Y-14.9593 F200.00
G01 X60.6435 Y-14.9405 F200.00
G01 X60.6136 Y-14.8575 F200.00
G01 X60.5716 Y-14.7688 F200.00
G01 X60.5264 Y-14.6929 F200.00
G01 X60.5155 Y-14.6766 F200.00
G01 X60.4688 Y-14.6136 F200.00
G01 X60.4563 Y-14.5984 F200.00
G01 X60.3969 Y-14.5331 F200.00
G01 X60.3316 Y-14.4737 F200.00
G01 X60.3164 Y-14.4612 F200.00
G01 X60.2534 Y-14.4145 F200.00
G01 X60.2371 Y-14.4036 F200.00
G01 X60.1612 Y-14.3584 F200.00
G01 X60.0815 Y-14.3204 F200.00
G01 X60.0634 Y-14.3129 F200.00
G01 X59.9802 Y-14.2834 F200.00
G01 X59.8850 Y-14.2596 F200.00
G01 X59.7880 Y-14.2452 F200.00
G01 X59.6998 Y-14.2406 F200.00
G01 X59.6804 Y-14.2406 F200.00
G01 X56.3749 Y-10.9351 F200.00
G01 X56.3240 Y-10.8890 F200.00
G01 X56.2769 Y-10.8537 F200.00
G01 X56.2606 Y-10.8428 F200.00
G01 X56.2099 Y-10.8127 F200.00
G01 X56.1478 Y-10.7834 F200.00
G01 X56.0925 Y-10.7633 F200.00
G01 X56.0737 Y-10.7576 F200.00
G01 X56.0165 Y-10.7435 F200.00
G01 X55.9583 Y-10.7347 F200.00
G01 X55.9437 Y-10.7330 F200.00
G01 X55.8898 Y-10.7303 F200.00
G01 X53.9805 Y-10.7301 F200.00
G01 X53.9499 Y-10.7023 F200.00
G01 X53.9386 Y-10.6928 F200.00
G01 X53.8716 Y-10.6432 F200.00
G01 X53.8593 Y-10.6352 F200.00
G01 X53.7920 Y-10.5948 F200.00
G01 X53.7789 Y-10.5881 F200.00
G01 X53.7034 Y-10.5526 F200.00
G01 X53.6203 Y-10.5227 F200.00
G01 X53.6062 Y-10.5186 F200.00
G01 X53.5253 Y-10.4986 F200.00
G01 X53.4331 Y-10.4849 F200.00
G01 X53.3400 Y-10.4804 F200.00
G01 X53.2567 Y-10.4842 F200.00
G01 X53.2420 Y-10.4855 F200.00
G01 X53.1547 Y-10.4986 F200.00
G01 X53.0643 Y-10.5212 F200.00
G01 X52.9766 Y-10.5526 F200.00
G01 X52.9011 Y-10.5881 F200.00
G01 X52.8838 Y-10.5973 F200.00
G01 X52.8207 Y-10.6352 F200.00
G01 X52.8044 Y-10.6460 F200.00
G01 X52.7375 Y-10.6959 F200.00
G01 X52.6685 Y-10.7585 F200.00
G01 X52.6059 Y-10.8275 F200.00
G01 X52.5560 Y-10.8944 F200.00
G01 X52.5452 Y-10.9107 F200.00
G01 X52.5073 Y-10.9738 F200.00
G01 X52.4981 Y-10.9911 F200.00
G01 X52.4626 Y-11.0666 F200.00
G01 X52.4312 Y-11.1543 F200.00
G01 X52.4086 Y-11.2447 F200.00
G01 X52.3961 Y-11.3272 F200.00
G00 Z1.5000
G00 X55.8903 Y-6.2143
G01 F80.00
G01 Z-0.1107
G01 F200.00
G01 X55.8901 Y-9.6049 F200.00
G01 X55.8927 Y-9.6588 F200.00
G01 X55.8947 Y-9.6783 F200.00
G01 X55.9035 Y-9.7365 F200.00
G01 X55.9176 Y-9.7937 F200.00
G01 X55.9233 Y-9.8125 F200.00
G01 X55.9434 Y-9.8678 F200.00
G01 X55.9705 Y-9.9256 F200.00
G01 X55.9776 Y-9.9384 F200.00
G01 X56.0028 Y-9.9806 F200.00
G01 X56.0137 Y-9.9968 F200.00
G01 X56.0490 Y-10.0440 F200.00
G01 X56.0951 Y-10.0949 F200.00
G01 X58.6906 Y-12.6904 F200.00
G01 X58.6906 Y-12.7098 F200.00
G01 X58.6952 Y-12.7980 F200.00
G01 X58.7096 Y-12.8950 F200.00
G01 X58.7334 Y-12.9902 F200.00
G01 X58.7664 Y-13.0825 F200.00
G01 X58.8084 Y-13.1712 F200.00
G01 X58.8588 Y-13.2554 F200.00
G01 X58.9173 Y-13.3342 F200.00
G01 X58.9797 Y-13.4034 F200.00
G01 X58.9902 Y-13.4136 F200.00
G01 X59.0558 Y-13.4727 F200.00
G01 X59.1266 Y-13.5255 F200.00
G01 X59.1429 Y-13.5364 F200.00
G01 X59.2102 Y-13.5768 F200.00
G01 X59.2275 Y-13.5860 F200.00
G01 X59.3075 Y-13.6236 F200.00
G01 X59.3998 Y-13.6566 F200.00
G01 X59.4950 Y-13.6804 F200.00
G01 X59.5920 Y-13.6948 F200.00
G01 X59.6802 Y-13.6994 F200.00
G01 X59.6998 Y-13.6994 F200.00
G01 X59.7880 Y-13.6948 F200.00
G01 X59.8754 Y-13.6821 F200.00
G01 X59.8946 Y-13.6783 F200.00
G01 X59.9802 Y-13.6566 F200.00
G01 X60.0725 Y-13.6236 F200.00
G01 X60.1525 Y-13.5860 F200.00
G01 X60.1698 Y-13.5768 F200.00
G01 X60.2454 Y-13.5312 F200.00
G01 X60.3164 Y-13.4788 F200.00
G01 X60.3316 Y-13.4663 F200.00
G01 X60.3969 Y-13.4069 F200.00
G01 X60.4627 Y-13.3342 F200.00
G01 X60.5155 Y-13.2634 F200.00
G01 X60.5264 Y-13.2471 F200.00
G01 X60.5716 Y-13.1712 F200.00
G01 X60.6096 Y-13.0915 F200.00
G01 X60.6171 Y-13.0734 F200.00
G01 X60.6466 Y-12.9902 F200.00
G01 X60.6704 Y-12.8950 F200.00
G01 X60.6836 Y-12.8077 F200.00
G01 X60.6856 Y-12.7882 F200.00
G01 X60.6896 Y-12.7000 F200.00
G01 X60.6856 Y-12.6118 F200.00
G01 X60.6836 Y-12.5923 F200.00
G01 X60.6704 Y-12.5050 F200.00
G01 X60.6492 Y-12.4193 F200.00
G01 X60.6451 Y-12.4051 F200.00
G01 X60.6136 Y-12.3175 F200.00
G01 X60.5760 Y-12.2375 F200.00
G01 X60.5668 Y-12.2202 F200.00
G01 X60.5264 Y-12.1529 F200.00
G01 X60.5155 Y-12.1366 F200.00
G01 X60.4627 Y-12.0658 F200.00
G01 X60.3969 Y-11.9931 F200.00
G01 X60.3242 Y-11.9273 F200.00
G01 X60.2534 Y-11.8745 F200.00
G01 X60.2371 Y-11.8636 F200.00
G01 X60.1698 Y-11.8232 F200.00
G01 X60.1525 Y-11.8140 F200.00
G01 X60.0725 Y-11.7764 F200.00
G01 X59.9802 Y-11.7434 F200.00
G01 X59.8850 Y-11.7196 F200.00
G01 X59.7977 Y-11.7064 F200.00
G01 X59.7782 Y-11.7044 F200.00
G01 X59.6998 Y-11.7006 F200.00
G01 X59.6804 Y-11.7006 F200.00
G01 X57.2899 Y-9.3101 F200.00
G01 X57.2899 Y-6.5140 F200.00
G01 X60.1940 Y-3.6099 F200.00
G01 X76.3898 Y-3.6099 F200.00
G01 X77.7048 Y-4.9249 F200.00
G01 X77.7520 Y-4.9678 F200.00
G01 X77.7634 Y-4.9770 F200.00
G01 X77.8029 Y-5.0063 F200.00
G01 X77.8192 Y-5.0171 F200.00
G01 X77.8698 Y-5.0472 F200.00
G01 X77.9319 Y-5.0766 F200.00
G01 X77.9873 Y-5.0966 F200.00
G01 X78.0060 Y-5.1023 F200.00
G01 X78.0632 Y-5.1164 F200.00
G01 X78.1214 Y-5.1253 F200.00
G01 X78.1409 Y-5.1272 F200.00
G01 X78.1997 Y-5.1299 F200.00
G01 X86.6900 Y-5.1299 F200.00
G01 X91.7622 Y-10.2020 F200.00
G01 X91.7642 Y-10.2433 F200.00
G01 X91.7655 Y-10.2580 F200.00
G01 X91.7777 Y-10.3405 F200.00
G01 X91.7807 Y-10.3548 F200.00
G01 X91.7999 Y-10.4310 F200.00
G01 X91.8043 Y-10.4450 F200.00
G01 X91.8326 Y-10.5234 F200.00
G01 X91.8681 Y-10.5989 F200.00
G01 X91.8748 Y-10.6120 F200.00
G01 X91.9204 Y-10.6876 F200.00
G01 X91.9699 Y-10.7547 F200.00
G01 X91.9823 Y-10.7699 F200.00
G01 X92.0317 Y-10.8244 F200.00
G01 X92.0456 Y-10.8383 F200.00
G01 X92.1075 Y-10.8941 F200.00
G01 X92.1744 Y-10.9440 F200.00
G01 X92.1907 Y-10.9548 F200.00
G01 X92.2623 Y-10.9975 F200.00
G01 X92.3376 Y-11.0334 F200.00
G01 X92.3557 Y-11.0409 F200.00
G01 X92.4343 Y-11.0688 F200.00
G01 X92.5152 Y-11.0893 F200.00
G01 X92.5344 Y-11.0931 F200.00
G01 X92.6169 Y-11.1051 F200.00
G01 X92.7002 Y-11.1094 F200.00
G01 X92.7198 Y-11.1094 F200.00
G01 X92.8031 Y-11.1051 F200.00
G01 X92.8856 Y-11.0931 F200.00
G01 X92.9048 Y-11.0893 F200.00
G01 X92.9857 Y-11.0688 F200.00
G01 X93.0643 Y-11.0409 F200.00
G01 X93.0824 Y-11.0334 F200.00
G01 X93.1577 Y-10.9975 F200.00
G01 X93.2293 Y-10.9548 F200.00
G01 X93.2456 Y-10.9440 F200.00
G01 X93.3125 Y-10.8941 F200.00
G01 X93.3744 Y-10.8383 F200.00
G01 X93.3883 Y-10.8244 F200.00
G01 X93.4441 Y-10.7625 F200.00
G01 X93.4940 Y-10.6956 F200.00
G01 X93.5048 Y-10.6793 F200.00
G01 X93.5475 Y-10.6077 F200.00
G01 X93.5834 Y-10.5324 F200.00
G01 X93.5909 Y-10.5143 F200.00
G01 X93.6188 Y-10.4357 F200.00
G01 X93.6393 Y-10.3548 F200.00
G01 X93.6431 Y-10.3356 F200.00
G01 X93.6551 Y-10.2531 F200.00
G01 X93.6596 Y-10.1600 F200.00
G01 X93.6551 Y-10.0669 F200.00
G01 X93.6414 Y-9.9747 F200.00
G01 X93.6214 Y-9.8938 F200.00
G01 X93.6157 Y-9.8750 F200.00
G01 X93.5874 Y-9.7966 F200.00
G01 X93.5519 Y-9.7211 F200.00
G01 X93.5427 Y-9.7038 F200.00
G01 X93.5048 Y-9.6407 F200.00
G01 X93.4940 Y-9.6244 F200.00
G01 X93.4441 Y-9.5575 F200.00
G01 X93.3815 Y-9.4885 F200.00
G01 X93.3125 Y-9.4259 F200.00
G01 X93.2376 Y-9.3704 F200.00
G01 X93.1577 Y-9.3225 F200.00
G01 X93.0779 Y-9.2846 F200.00
G01 X93.0643 Y-9.2791 F200.00
G01 X92.9857 Y-9.2512 F200.00
G01 X92.9001 Y-9.2296 F200.00
G01 X92.8856 Y-9.2269 F200.00
G01 X92.8080 Y-9.2155 F200.00
G01 X92.7933 Y-9.2142 F200.00
G01 X92.7520 Y-9.2122 F200.00
G01 X87.4749 Y-3.9350 F200.00
G01 X87.4240 Y-3.8889 F200.00
G01 X87.3768 Y-3.8536 F200.00
G01 X87.3605 Y-3.8428 F200.00
G01 X87.3142 Y-3.8151 F200.00
G01 X87.3011 Y-3.8083 F200.00
G01 X87.2523 Y-3.7853 F200.00
G01 X87.2386 Y-3.7798 F200.00
G01 X87.1831 Y-3.7602 F200.00
G01 X87.1261 Y-3.7456 F200.00
G01 X87.1068 Y-3.7418 F200.00
G01 X87.0486 Y-3.7334 F200.00
G01 X86.9799 Y-3.7300 F200.00
G01 X78.4896 Y-3.7300 F200.00
G01 X77.1746 Y-2.4151 F200.00
G01 X77.1275 Y-2.3721 F200.00
G01 X77.1160 Y-2.3629 F200.00
G01 X77.0766 Y-2.3337 F200.00
G01 X77.0603 Y-2.3228 F200.00
G01 X77.0097 Y-2.2927 F200.00
G01 X76.9476 Y-2.2633 F200.00
G01 X76.8922 Y-2.2433 F200.00
G01 X76.8735 Y-2.2376 F200.00
G01 X76.8163 Y-2.2235 F200.00
G01 X76.7483 Y-2.2134 F200.00
G01 X76.6797 Y-2.2101 F200.00
G01 X59.9041 Y-2.2101 F200.00
G01 X59.8355 Y-2.2134 F200.00
G01 X59.7676 Y-2.2235 F200.00
G01 X59.7104 Y-2.2376 F200.00
G01 X59.6916 Y-2.2433 F200.00
G01 X59.6363 Y-2.2633 F200.00
G01 X59.5742 Y-2.2927 F200.00
G01 X59.5236 Y-2.3228 F200.00
G01 X59.5073 Y-2.3337 F200.00
G01 X59.4601 Y-2.3689 F200.00
G01 X59.4127 Y-2.4116 F200.00
G01 X56.0917 Y-5.7327 F200.00
G01 X56.0490 Y-5.7801 F200.00
G01 X56.0080 Y-5.8353 F200.00
G01 X55.9727 Y-5.8942 F200.00
G01 X55.9434 Y-5.9563 F200.00
G01 X55.9202 Y-6.0209 F200.00
G01 X55.9035 Y-6.0876 F200.00
G01 X55.8935 Y-6.1555 F200.00
G01 X55.8903 Y-6.2143 F200.00
G00 Z1.5000
G00 X57.2903 Y-6.7942
G01 F80.00
G01 Z-0.1107
G01 F200.00
G01 X57.2903 Y-8.4698 F200.00
G01 X57.2930 Y-8.5237 F200.00
G01 X57.2947 Y-8.5383 F200.00
G01 X57.3035 Y-8.5965 F200.00
G01 X57.3176 Y-8.6537 F200.00
G01 X57.3233 Y-8.6725 F200.00
G01 X57.3434 Y-8.7278 F200.00
G01 X57.3683 Y-8.7812 F200.00
G01 X57.3751 Y-8.7942 F200.00
G01 X57.4028 Y-8.8406 F200.00
G01 X57.4137 Y-8.8569 F200.00
G01 X57.4490 Y-8.9040 F200.00
G01 X57.4917 Y-8.9514 F200.00
G01 X58.6906 Y-10.1504 F200.00
G01 X58.6906 Y-10.1698 F200.00
G01 X58.6952 Y-10.2580 F200.00
G01 X58.7096 Y-10.3550 F200.00
G01 X58.7334 Y-10.4502 F200.00
G01 X58.7664 Y-10.5425 F200.00
G01 X58.8084 Y-10.6312 F200.00
G01 X58.8588 Y-10.7154 F200.00
G01 X58.9173 Y-10.7942 F200.00
G01 X58.9831 Y-10.8669 F200.00
G01 X59.0558 Y-10.9327 F200.00
G01 X59.1346 Y-10.9912 F200.00
G01 X59.2188 Y-11.0416 F200.00
G01 X59.3075 Y-11.0836 F200.00
G01 X59.3998 Y-11.1166 F200.00
G01 X59.4950 Y-11.1404 F200.00
G01 X59.5920 Y-11.1548 F200.00
G01 X59.6802 Y-11.1594 F200.00
G01 X59.6949 Y-11.1596 F200.00
G01 X59.7880 Y-11.1548 F200.00
G01 X59.8754 Y-11.1421 F200.00
G01 X59.8946 Y-11.1383 F200.00
G01 X59.9707 Y-11.1192 F200.00
G01 X59.9895 Y-11.1135 F200.00
G01 X60.0725 Y-11.0836 F200.00
G01 X60.1525 Y-11.0460 F200.00
G01 X60.1698 Y-11.0368 F200.00
G01 X60.2454 Y-10.9912 F200.00
G01 X60.3242 Y-10.9327 F200.00
G01 X60.3969 Y-10.8669 F200.00
G01 X60.4627 Y-10.7942 F200.00
G01 X60.5212 Y-10.7154 F200.00
G01 X60.5668 Y-10.6398 F200.00
G01 X60.5760 Y-10.6225 F200.00
G01 X60.6096 Y-10.5515 F200.00
G01 X60.6171 Y-10.5334 F200.00
G01 X60.6466 Y-10.4502 F200.00
G01 X60.6683 Y-10.3646 F200.00
G01 X60.6721 Y-10.3454 F200.00
G01 X60.6848 Y-10.2580 F200.00
G01 X60.6896 Y-10.1600 F200.00
G01 X60.6848 Y-10.0620 F200.00
G01 X60.6721 Y-9.9746 F200.00
G01 X60.6683 Y-9.9554 F200.00
G01 X60.6466 Y-9.8698 F200.00
G01 X60.6136 Y-9.7775 F200.00
G01 X60.5716 Y-9.6888 F200.00
G01 X60.5264 Y-9.6129 F200.00
G01 X60.5155 Y-9.5966 F200.00
G01 X60.4688 Y-9.5336 F200.00
G01 X60.4563 Y-9.5184 F200.00
G01 X60.3969 Y-9.4531 F200.00
G01 X60.3316 Y-9.3937 F200.00
G01 X60.3164 Y-9.3812 F200.00
G01 X60.2534 Y-9.3345 F200.00
G01 X60.2371 Y-9.3236 F200.00
G01 X60.1612 Y-9.2784 F200.00
G01 X60.0815 Y-9.2404 F200.00
G01 X60.0634 Y-9.2329 F200.00
G01 X59.9802 Y-9.2034 F200.00
G01 X59.8850 Y-9.1796 F200.00
G01 X59.7880 Y-9.1652 F200.00
G01 X59.6998 Y-9.1606 F200.00
G01 X59.6804 Y-9.1606 F200.00
G01 X58.6899 Y-8.1701 F200.00
G01 X58.6899 Y-7.0939 F200.00
G01 X59.1639 Y-6.6199 F200.00
G01 X59.4199 Y-6.6197 F200.00
G01 X59.4784 Y-6.6166 F200.00
G01 X59.5370 Y-6.6081 F200.00
G01 X59.5512 Y-6.6055 F200.00
G01 X59.6084 Y-6.5912 F200.00
G01 X59.6226 Y-6.5867 F200.00
G01 X59.6789 Y-6.5662 F200.00
G01 X59.7313 Y-6.5417 F200.00
G01 X59.7485 Y-6.5324 F200.00
G01 X59.7952 Y-6.5044 F200.00
G01 X59.8069 Y-6.4963 F200.00
G01 X59.8505 Y-6.4639 F200.00
G01 X59.8615 Y-6.4546 F200.00
G01 X59.9049 Y-6.4150 F200.00
G01 X61.3100 Y-5.0099 F200.00
G01 X75.8099 Y-5.0099 F200.00
G01 X77.1320 Y-6.3316 F200.00
G01 X77.1758 Y-6.3710 F200.00
G01 X77.2230 Y-6.4063 F200.00
G01 X77.2351 Y-6.4146 F200.00
G01 X77.2814 Y-6.4424 F200.00
G01 X77.2986 Y-6.4516 F200.00
G01 X77.3520 Y-6.4766 F200.00
G01 X77.4073 Y-6.4966 F200.00
G01 X77.4214 Y-6.5011 F200.00
G01 X77.4833 Y-6.5164 F200.00
G01 X77.5415 Y-6.5253 F200.00
G01 X77.5610 Y-6.5272 F200.00
G01 X77.6198 Y-6.5299 F200.00
G01 X83.5226 Y-6.5299 F200.00
G01 X83.5257 Y-6.5448 F200.00
G01 X83.5462 Y-6.6257 F200.00
G01 X83.5741 Y-6.7043 F200.00
G01 X83.5816 Y-6.7224 F200.00
G01 X83.6131 Y-6.7889 F200.00
G01 X83.6223 Y-6.8062 F200.00
G01 X83.6654 Y-6.8776 F200.00
G01 X83.7209 Y-6.9525 F200.00
G01 X83.7835 Y-7.0215 F200.00
G01 X83.8451 Y-7.0777 F200.00
G01 X83.8603 Y-7.0901 F200.00
G01 X83.9194 Y-7.1340 F200.00
G01 X83.9357 Y-7.1448 F200.00
G01 X84.0073 Y-7.1875 F200.00
G01 X84.0916 Y-7.2274 F200.00
G01 X84.1793 Y-7.2588 F200.00
G01 X84.2602 Y-7.2793 F200.00
G01 X84.2794 Y-7.2831 F200.00
G01 X84.3522 Y-7.2939 F200.00
G01 X84.3717 Y-7.2958 F200.00
G01 X84.4550 Y-7.2996 F200.00
G01 X84.5481 Y-7.2951 F200.00
G01 X84.6403 Y-7.2814 F200.00
G01 X84.7212 Y-7.2614 F200.00
G01 X84.7400 Y-7.2557 F200.00
G01 X84.8184 Y-7.2274 F200.00
G01 X84.8939 Y-7.1919 F200.00
G01 X84.9112 Y-7.1827 F200.00
G01 X84.9826 Y-7.1396 F200.00
G01 X85.0497 Y-7.0901 F200.00
G01 X85.0649 Y-7.0777 F200.00
G01 X85.1194 Y-7.0283 F200.00
G01 X85.1333 Y-7.0144 F200.00
G01 X85.1891 Y-6.9525 F200.00
G01 X85.2446 Y-6.8776 F200.00
G01 X85.2925 Y-6.7977 F200.00
G01 X85.3324 Y-6.7134 F200.00
G01 X85.3638 Y-6.6257 F200.00
G01 X85.3864 Y-6.5353 F200.00
G01 X85.4001 Y-6.4431 F200.00
G01 X85.4044 Y-6.3598 F200.00
G01 X85.4046 Y-6.3451 F200.00
G01 X85.4001 Y-6.2569 F200.00
G01 X85.3864 Y-6.1647 F200.00
G01 X85.3638 Y-6.0743 F200.00
G01 X85.3359 Y-5.9957 F200.00
G01 X85.3284 Y-5.9776 F200.00
G01 X85.2925 Y-5.9023 F200.00
G01 X85.2498 Y-5.8307 F200.00
G01 X85.2390 Y-5.8144 F200.00
G01 X85.1891 Y-5.7475 F200.00
G01 X85.1333 Y-5.6856 F200.00
G01 X85.1194 Y-5.6717 F200.00
G01 X85.0649 Y-5.6223 F200.00
G01 X85.0497 Y-5.6099 F200.00
G01 X84.9906 Y-5.5660 F200.00
G01 X84.9743 Y-5.5552 F200.00
G01 X84.9027 Y-5.5125 F200.00
G01 X84.8274 Y-5.4766 F200.00
G01 X84.8139 Y-5.4708 F200.00
G01 X84.7307 Y-5.4412 F200.00
G01 X84.6451 Y-5.4196 F200.00
G01 X84.6306 Y-5.4169 F200.00
G01 X84.5530 Y-5.4055 F200.00
G01 X84.5383 Y-5.4042 F200.00
G01 X84.4970 Y-5.4022 F200.00
G01 X84.4264 Y-5.3316 F200.00
G01 X84.3827 Y-5.2921 F200.00
G01 X84.3712 Y-5.2829 F200.00
G01 X84.3318 Y-5.2537 F200.00
G01 X84.3155 Y-5.2428 F200.00
G01 X84.2649 Y-5.2127 F200.00
G01 X84.2028 Y-5.1833 F200.00
G01 X84.1381 Y-5.1602 F200.00
G01 X84.0811 Y-5.1457 F200.00
G01 X84.0667 Y-5.1426 F200.00
G01 X84.0036 Y-5.1334 F200.00
G01 X83.9350 Y-5.1301 F200.00
G01 X77.9097 Y-5.1301 F200.00
G01 X76.5947 Y-3.8151 F200.00
G01 X76.5476 Y-3.7721 F200.00
G01 X76.5361 Y-3.7629 F200.00
G01 X76.4967 Y-3.7337 F200.00
G01 X76.4804 Y-3.7228 F200.00
G01 X76.4298 Y-3.6927 F200.00
G01 X76.3677 Y-3.6633 F200.00
G01 X76.3123 Y-3.6433 F200.00
G01 X76.2936 Y-3.6376 F200.00
G01 X76.2364 Y-3.6235 F200.00
G01 X76.1733 Y-3.6140 F200.00
G01 X76.1587 Y-3.6127 F200.00
G01 X76.0998 Y-3.6101 F200.00
G01 X61.0151 Y-3.6101 F200.00
G01 X60.9518 Y-3.6134 F200.00
G01 X60.8841 Y-3.6234 F200.00
G01 X60.8740 Y-3.6257 F200.00
G01 X60.8172 Y-3.6401 F200.00
G01 X60.7614 Y-3.6598 F200.00
G01 X60.7473 Y-3.6655 F200.00
G01 X60.6989 Y-3.6883 F200.00
G01 X60.6817 Y-3.6975 F200.00
G01 X60.6306 Y-3.7285 F200.00
G01 X60.5838 Y-3.7629 F200.00
G01 X60.5722 Y-3.7723 F200.00
G01 X60.5253 Y-3.8149 F200.00
G01 X59.1202 Y-5.2201 F200.00
G01 X58.8642 Y-5.2203 F200.00
G01 X58.8054 Y-5.2235 F200.00
G01 X58.7471 Y-5.2319 F200.00
G01 X58.7327 Y-5.2346 F200.00
G01 X58.6803 Y-5.2476 F200.00
G01 X58.6615 Y-5.2533 F200.00
G01 X58.6062 Y-5.2734 F200.00
G01 X58.5528 Y-5.2983 F200.00
G01 X58.5355 Y-5.3076 F200.00
G01 X58.4852 Y-5.3381 F200.00
G01 X58.4377 Y-5.3729 F200.00
G01 X58.4262 Y-5.3821 F200.00
G01 X58.3791 Y-5.4251 F200.00
G01 X57.4951 Y-6.3091 F200.00
G01 X57.4490 Y-6.3600 F200.00
G01 X57.4081 Y-6.4152 F200.00
G01 X57.3776 Y-6.4655 F200.00
G01 X57.3683 Y-6.4828 F200.00
G01 X57.3453 Y-6.5317 F200.00
G01 X57.3398 Y-6.5453 F200.00
G01 X57.3202 Y-6.6008 F200.00
G01 X57.3035 Y-6.6675 F200.00
G01 X57.2935 Y-6.7354 F200.00
G01 X57.2903 Y-6.7942 F200.00
G00 Z1.5000
G00 X58.6964 Y-7.5123
G01 F80.00
G01 Z-0.1107
G01 F200.00
G01 X58.6944 Y-7.5318 F200.00
G01 X58.6904 Y-7.6200 F200.00
G01 X58.6952 Y-7.7180 F200.00
G01 X58.7096 Y-7.8150 F200.00
G01 X58.7308 Y-7.9007 F200.00
G01 X58.7365 Y-7.9195 F200.00
G01 X58.7629 Y-7.9934 F200.00
G01 X58.7704 Y-8.0115 F200.00
G01 X58.8084 Y-8.0912 F200.00
G01 X58.8536 Y-8.1671 F200.00
G01 X58.8645 Y-8.1834 F200.00
G01 X58.9173 Y-8.2542 F200.00
G01 X58.9831 Y-8.3269 F200.00
G01 X59.0558 Y-8.3927 F200.00
G01 X59.1346 Y-8.4512 F200.00
G01 X59.2188 Y-8.5016 F200.00
G01 X59.2985 Y-8.5396 F200.00
G01 X59.3166 Y-8.5471 F200.00
G01 X59.3905 Y-8.5735 F200.00
G01 X59.4093 Y-8.5792 F200.00
G01 X59.4950 Y-8.6004 F200.00
G01 X59.5823 Y-8.6136 F200.00
G01 X59.6018 Y-8.6156 F200.00
G01 X59.6900 Y-8.6196 F200.00
G01 X59.7831 Y-8.6153 F200.00
G01 X59.7977 Y-8.6136 F200.00
G01 X59.8850 Y-8.6004 F200.00
G01 X59.9707 Y-8.5792 F200.00
G01 X59.9895 Y-8.5735 F200.00
G01 X60.0634 Y-8.5471 F200.00
G01 X60.0815 Y-8.5396 F200.00
G01 X60.1612 Y-8.5016 F200.00
G01 X60.2454 Y-8.4512 F200.00
G01 X60.3242 Y-8.3927 F200.00
G01 X60.3898 Y-8.3336 F200.00
G01 X60.4003 Y-8.3234 F200.00
G01 X60.4627 Y-8.2542 F200.00
G01 X60.5212 Y-8.1754 F200.00
G01 X60.5716 Y-8.0912 F200.00
G01 X60.6136 Y-8.0025 F200.00
G01 X60.6466 Y-7.9102 F200.00
G01 X60.6704 Y-7.8150 F200.00
G01 X60.6848 Y-7.7180 F200.00
G01 X60.6894 Y-7.6298 F200.00
G01 X60.6894 Y-7.6104 F200.00
G01 X61.8899 Y-6.4099 F200.00
G01 X74.8598 Y-6.4099 F200.00
G01 X76.1748 Y-7.7249 F200.00
G01 X76.2183 Y-7.7646 F200.00
G01 X76.2334 Y-7.7770 F200.00
G01 X76.2809 Y-7.8119 F200.00
G01 X76.3312 Y-7.8424 F200.00
G01 X76.3485 Y-7.8516 F200.00
G01 X76.4019 Y-7.8766 F200.00
G01 X76.4572 Y-7.8967 F200.00
G01 X76.4760 Y-7.9023 F200.00
G01 X76.5284 Y-7.9154 F200.00
G01 X76.5428 Y-7.9181 F200.00
G01 X76.6011 Y-7.9265 F200.00
G01 X76.6697 Y-7.9299 F200.00
G01 X81.4598 Y-7.9299 F200.00
G01 X83.8079 Y-10.2779 F200.00
G01 X83.8562 Y-10.3214 F200.00
G01 X83.9096 Y-10.3611 F200.00
G01 X83.9192 Y-10.3672 F200.00
G01 X83.9697 Y-10.3972 F200.00
G01 X84.0271 Y-10.4246 F200.00
G01 X84.0410 Y-10.4301 F200.00
G01 X84.0961 Y-10.4496 F200.00
G01 X84.1060 Y-10.4524 F200.00
G01 X84.1634 Y-10.4665 F200.00
G01 X84.2302 Y-10.4764 F200.00
G01 X84.2947 Y-10.4798 F200.00
G01 X86.8621 Y-10.4799 F200.00
G01 X88.3106 Y-11.9283 F200.00
G01 X88.3580 Y-11.9710 F200.00
G01 X88.4132 Y-12.0119 F200.00
G01 X88.4721 Y-12.0473 F200.00
G01 X88.5252 Y-12.0727 F200.00
G01 X88.5387 Y-12.0784 F200.00
G01 X88.5988 Y-12.0998 F200.00
G01 X88.6655 Y-12.1165 F200.00
G01 X88.7334 Y-12.1265 F200.00
G01 X88.7971 Y-12.1298 F200.00
G01 X91.0521 Y-12.1299 F200.00
G01 X92.3901 Y-13.4679 F200.00
G01 X92.3901 Y-15.6200 F200.00
G01 X92.3935 Y-15.6886 F200.00
G01 X92.4019 Y-15.7469 F200.00
G01 X92.4046 Y-15.7613 F200.00
G01 X92.4176 Y-15.8137 F200.00
G01 X92.4233 Y-15.8325 F200.00
G01 X92.4434 Y-15.8878 F200.00
G01 X92.4683 Y-15.9412 F200.00
G01 X92.4776 Y-15.9585 F200.00
G01 X92.5081 Y-16.0088 F200.00
G01 X92.5459 Y-16.0602 F200.00
G01 X92.5554 Y-16.0714 F200.00
G01 X92.5951 Y-16.1149 F200.00
G01 X93.0322 Y-16.5520 F200.00
G01 X93.0342 Y-16.5933 F200.00
G01 X93.0355 Y-16.6080 F200.00
G01 X93.0469 Y-16.6856 F200.00
G01 X93.0496 Y-16.7001 F200.00
G01 X93.0712 Y-16.7857 F200.00
G01 X93.1008 Y-16.8689 F200.00
G01 X93.1066 Y-16.8824 F200.00
G01 X93.1381 Y-16.9489 F200.00
G01 X93.1473 Y-16.9662 F200.00
G01 X93.1904 Y-17.0376 F200.00
G01 X93.2459 Y-17.1125 F200.00
G01 X93.3017 Y-17.1744 F200.00
G01 X93.3156 Y-17.1883 F200.00
G01 X93.3775 Y-17.2441 F200.00
G01 X93.4524 Y-17.2996 F200.00
G01 X93.5238 Y-17.3427 F200.00
G01 X93.5411 Y-17.3519 F200.00
G01 X93.6166 Y-17.3874 F200.00
G01 X93.6950 Y-17.4157 F200.00
G01 X93.7138 Y-17.4214 F200.00
G01 X93.7947 Y-17.4414 F200.00
G01 X93.8772 Y-17.4539 F200.00
G01 X93.8967 Y-17.4558 F200.00
G01 X93.9800 Y-17.4596 F200.00
G01 X94.0633 Y-17.4558 F200.00
G01 X94.0828 Y-17.4539 F200.00
G01 X94.1653 Y-17.4414 F200.00
G01 X94.2462 Y-17.4214 F200.00
G01 X94.2650 Y-17.4157 F200.00
G01 X94.3434 Y-17.3874 F200.00
G01 X94.4277 Y-17.3475 F200.00
G01 X94.4993 Y-17.3048 F200.00
G01 X94.5156 Y-17.2940 F200.00
G01 X94.5825 Y-17.2441 F200.00
G01 X94.6444 Y-17.1883 F200.00
G01 X94.6583 Y-17.1744 F200.00
G01 X94.7077 Y-17.1199 F200.00
G01 X94.7201 Y-17.1047 F200.00
G01 X94.7696 Y-17.0376 F200.00
G01 X94.8127 Y-16.9662 F200.00
G01 X94.8219 Y-16.9489 F200.00
G01 X94.8574 Y-16.8734 F200.00
G01 X94.8857 Y-16.7950 F200.00
G01 X94.8914 Y-16.7762 F200.00
G01 X94.9114 Y-16.6953 F200.00
G01 X94.9239 Y-16.6128 F200.00
G01 X94.9258 Y-16.5933 F200.00
G01 X94.9294 Y-16.5198 F200.00
G01 X94.9294 Y-16.5002 F200.00
G01 X94.9251 Y-16.4169 F200.00
G01 X94.9114 Y-16.3247 F200.00
G01 X94.8888 Y-16.2343 F200.00
G01 X94.8609 Y-16.1557 F200.00
G01 X94.8534 Y-16.1376 F200.00
G01 X94.8175 Y-16.0623 F200.00
G01 X94.7748 Y-15.9907 F200.00
G01 X94.7640 Y-15.9744 F200.00
G01 X94.7172 Y-15.9114 F200.00
G01 X94.7077 Y-15.9001 F200.00
G01 X94.6515 Y-15.8385 F200.00
G01 X94.5825 Y-15.7759 F200.00
G01 X94.5076 Y-15.7204 F200.00
G01 X94.4362 Y-15.6773 F200.00
G01 X94.4233 Y-15.6702 F200.00
G01 X94.3434 Y-15.6326 F200.00
G01 X94.2650 Y-15.6043 F200.00
G01 X94.2510 Y-15.5999 F200.00
G01 X94.1748 Y-15.5807 F200.00
G01 X94.1605 Y-15.5777 F200.00
G01 X94.0780 Y-15.5655 F200.00
G01 X94.0633 Y-15.5642 F200.00
G01 X94.0220 Y-15.5622 F200.00
G01 X93.7899 Y-15.3301 F200.00
G01 X93.7898 Y-13.1731 F200.00
G01 X93.7873 Y-13.1192 F200.00
G01 X93.7853 Y-13.0997 F200.00
G01 X93.7765 Y-13.0415 F200.00
G01 X93.7624 Y-12.9843 F200.00
G01 X93.7567 Y-12.9655 F200.00
G01 X93.7366 Y-12.9102 F200.00
G01 X93.7073 Y-12.8481 F200.00
G01 X93.6772 Y-12.7974 F200.00
G01 X93.6663 Y-12.7811 F200.00
G01 X93.6310 Y-12.7340 F200.00
G01 X93.5849 Y-12.6831 F200.00
G01 X91.8369 Y-10.9351 F200.00
G01 X91.7934 Y-10.8954 F200.00
G01 X91.7822 Y-10.8859 F200.00
G01 X91.7308 Y-10.8481 F200.00
G01 X91.6805 Y-10.8176 F200.00
G01 X91.6632 Y-10.8083 F200.00
G01 X91.6098 Y-10.7834 F200.00
G01 X91.5452 Y-10.7602 F200.00
G01 X91.4881 Y-10.7457 F200.00
G01 X91.4737 Y-10.7427 F200.00
G01 X91.4203 Y-10.7347 F200.00
G01 X91.4008 Y-10.7327 F200.00
G01 X91.3420 Y-10.7301 F200.00
G01 X89.0919 Y-10.7301 F200.00
G01 X87.6434 Y-9.2817 F200.00
G01 X87.6034 Y-9.2454 F200.00
G01 X87.5883 Y-9.2329 F200.00
G01 X87.5408 Y-9.1981 F200.00
G01 X87.4905 Y-9.1676 F200.00
G01 X87.4732 Y-9.1583 F200.00
G01 X87.4198 Y-9.1334 F200.00
G01 X87.3645 Y-9.1133 F200.00
G01 X87.3457 Y-9.1076 F200.00
G01 X87.2885 Y-9.0935 F200.00
G01 X87.2303 Y-9.0847 F200.00
G01 X87.2108 Y-9.0827 F200.00
G01 X87.1520 Y-9.0801 F200.00
G01 X84.5896 Y-9.0801 F200.00
G01 X82.2415 Y-6.7320 F200.00
G01 X82.2011 Y-6.6953 F200.00
G01 X82.1860 Y-6.6829 F200.00
G01 X82.1398 Y-6.6489 F200.00
G01 X82.1303 Y-6.6428 F200.00
G01 X82.0882 Y-6.6175 F200.00
G01 X82.0709 Y-6.6083 F200.00
G01 X82.0181 Y-6.5836 F200.00
G01 X81.9622 Y-6.5633 F200.00
G01 X81.9434 Y-6.5576 F200.00
G01 X81.8860 Y-6.5435 F200.00
G01 X81.8280 Y-6.5346 F200.00
G01 X81.8085 Y-6.5327 F200.00
G01 X81.7499 Y-6.5301 F200.00
G01 X76.9596 Y-6.5301 F200.00
G01 X75.6446 Y-5.2151 F200.00
G01 X75.5975 Y-5.1721 F200.00
G01 X75.5860 Y-5.1629 F200.00
G01 X75.5466 Y-5.1337 F200.00
G01 X75.5303 Y-5.1228 F200.00
G01 X75.4796 Y-5.0927 F200.00
G01 X75.4176 Y-5.0634 F200.00
G01 X75.3529 Y-5.0402 F200.00
G01 X75.2958 Y-5.0257 F200.00
G01 X75.2766 Y-5.0219 F200.00
G01 X75.2280 Y-5.0147 F200.00
G01 X75.2134 Y-5.0130 F200.00
G01 X75.1497 Y-5.0101 F200.00
G01 X61.5902 Y-5.0103 F200.00
G01 X61.5314 Y-5.0135 F200.00
G01 X61.4635 Y-5.0235 F200.00
G01 X61.3968 Y-5.0402 F200.00
G01 X61.3413 Y-5.0598 F200.00
G01 X61.3277 Y-5.0653 F200.00
G01 X61.2788 Y-5.0883 F200.00
G01 X61.2616 Y-5.0976 F200.00
G01 X61.2112 Y-5.1280 F200.00
G01 X61.1637 Y-5.1629 F200.00
G01 X61.1523 Y-5.1721 F200.00
G01 X61.1051 Y-5.2151 F200.00
G01 X59.6996 Y-6.6206 F200.00
G01 X59.6802 Y-6.6206 F200.00
G01 X59.5920 Y-6.6252 F200.00
G01 X59.5046 Y-6.6379 F200.00
G01 X59.4854 Y-6.6417 F200.00
G01 X59.4093 Y-6.6608 F200.00
G01 X59.3905 Y-6.6665 F200.00
G01 X59.3075 Y-6.6964 F200.00
G01 X59.2188 Y-6.7384 F200.00
G01 X59.1346 Y-6.7888 F200.00
G01 X59.0636 Y-6.8412 F200.00
G01 X59.0521 Y-6.8504 F200.00
G01 X58.9831 Y-6.9131 F200.00
G01 X58.9173 Y-6.9858 F200.00
G01 X58.8588 Y-7.0646 F200.00
G01 X58.8084 Y-7.1488 F200.00
G01 X58.7664 Y-7.2375 F200.00
G01 X58.7334 Y-7.3298 F200.00
G01 X58.7096 Y-7.4250 F200.00
G01 X58.6964 Y-7.5123 F200.00
G00 Z1.5000
G00 X66.3164 Y-7.5123
G01 F80.00
G01 Z-0.1107
G01 F200.00
G01 X66.3144 Y-7.5318 F200.00
G01 X66.3104 Y-7.6200 F200.00
G01 X66.3152 Y-7.7180 F200.00
G01 X66.3296 Y-7.8150 F200.00
G01 X66.3534 Y-7.9102 F200.00
G01 X66.3864 Y-8.0025 F200.00
G01 X66.4284 Y-8.0912 F200.00
G01 X66.4788 Y-8.1754 F200.00
G01 X66.5312 Y-8.2464 F200.00
G01 X66.5437 Y-8.2616 F200.00
G01 X66.6031 Y-8.3269 F200.00
G01 X66.6684 Y-8.3863 F200.00
G01 X66.6836 Y-8.3988 F200.00
G01 X66.7466 Y-8.4455 F200.00
G01 X66.7629 Y-8.4564 F200.00
G01 X66.8388 Y-8.5016 F200.00
G01 X66.9185 Y-8.5396 F200.00
G01 X66.9366 Y-8.5471 F200.00
G01 X67.0198 Y-8.5766 F200.00
G01 X67.1150 Y-8.6004 F200.00
G01 X67.2120 Y-8.6148 F200.00
G01 X67.3002 Y-8.6194 F200.00
G01 X67.3198 Y-8.6194 F200.00
G01 X67.3982 Y-8.6156 F200.00
G01 X67.4177 Y-8.6136 F200.00
G01 X67.5050 Y-8.6004 F200.00
G01 X67.5907 Y-8.5792 F200.00
G01 X67.6095 Y-8.5735 F200.00
G01 X67.6925 Y-8.5436 F200.00
G01 X67.7725 Y-8.5060 F200.00
G01 X67.7898 Y-8.4968 F200.00
G01 X67.8654 Y-8.4512 F200.00
G01 X67.9403 Y-8.3958 F200.00
G01 X67.9516 Y-8.3863 F200.00
G01 X68.0134 Y-8.3303 F200.00
G01 X68.0236 Y-8.3198 F200.00
G01 X68.0439 Y-8.2974 F200.00
G01 X68.0685 Y-8.2911 F200.00
G01 X68.0779 Y-8.2883 F200.00
G01 X68.1333 Y-8.2685 F200.00
G01 X68.1469 Y-8.2627 F200.00
G01 X68.1956 Y-8.2395 F200.00
G01 X68.2085 Y-8.2324 F200.00
G01 X68.2588 Y-8.2021 F200.00
G01 X68.3103 Y-8.1641 F200.00
G01 X68.3215 Y-8.1546 F200.00
G01 X68.3650 Y-8.1149 F200.00
G01 X68.6700 Y-7.8099 F200.00
G01 X74.2799 Y-7.8099 F200.00
G01 X75.5949 Y-9.1249 F200.00
G01 X75.6384 Y-9.1646 F200.00
G01 X75.6535 Y-9.1770 F200.00
G01 X75.7010 Y-9.2119 F200.00
G01 X75.7513 Y-9.2424 F200.00
G01 X75.7686 Y-9.2516 F200.00
G01 X75.8220 Y-9.2766 F200.00
G01 X75.8773 Y-9.2967 F200.00
G01 X75.8961 Y-9.3024 F200.00
G01 X75.9485 Y-9.3154 F200.00
G01 X75.9629 Y-9.3181 F200.00
G01 X76.0212 Y-9.3265 F200.00
G01 X76.0898 Y-9.3299 F200.00
G01 X80.8799 Y-9.3299 F200.00
G01 X83.4785 Y-11.9284 F200.00
G01 X83.5218 Y-11.9677 F200.00
G01 X83.5335 Y-11.9771 F200.00
G01 X83.5801 Y-12.0114 F200.00
G01 X83.6314 Y-12.0424 F200.00
G01 X83.6486 Y-12.0517 F200.00
G01 X83.7000 Y-12.0758 F200.00
G01 X83.7111 Y-12.0802 F200.00
G01 X83.7674 Y-12.1000 F200.00
G01 X83.8237 Y-12.1143 F200.00
G01 X83.8429 Y-12.1181 F200.00
G01 X83.9007 Y-12.1265 F200.00
G01 X83.9648 Y-12.1298 F200.00
G01 X85.7195 Y-12.1299 F200.00
G01 X85.7501 Y-12.1577 F200.00
G01 X85.7614 Y-12.1672 F200.00
G01 X85.8284 Y-12.2168 F200.00
G01 X85.8407 Y-12.2248 F200.00
G01 X85.9080 Y-12.2652 F200.00
G01 X85.9211 Y-12.2719 F200.00
G01 X85.9966 Y-12.3074 F200.00
G01 X86.0797 Y-12.3373 F200.00
G01 X86.0938 Y-12.3414 F200.00
G01 X86.1747 Y-12.3614 F200.00
G01 X86.2669 Y-12.3751 F200.00
G01 X86.3600 Y-12.3796 F200.00
G01 X86.4433 Y-12.3758 F200.00
G01 X86.4628 Y-12.3739 F200.00
G01 X86.5453 Y-12.3614 F200.00
G01 X86.6357 Y-12.3388 F200.00
G01 X86.7234 Y-12.3074 F200.00
G01 X86.7989 Y-12.2719 F200.00
G01 X86.8162 Y-12.2627 F200.00
G01 X86.8793 Y-12.2248 F200.00
G01 X86.8956 Y-12.2140 F200.00
G01 X86.9625 Y-12.1641 F200.00
G01 X87.0244 Y-12.1083 F200.00
G01 X87.0383 Y-12.0944 F200.00
G01 X87.0877 Y-12.0399 F200.00
G01 X87.1001 Y-12.0247 F200.00
G01 X87.1496 Y-11.9576 F200.00
G01 X87.1975 Y-11.8777 F200.00
G01 X87.2374 Y-11.7934 F200.00
G01 X87.2657 Y-11.7150 F200.00
G01 X87.2714 Y-11.6962 F200.00
G01 X87.2914 Y-11.6153 F200.00
G01 X87.3051 Y-11.5231 F200.00
G01 X87.3096 Y-11.4300 F200.00
G01 X87.3051 Y-11.3369 F200.00
G01 X87.2914 Y-11.2447 F200.00
G01 X87.2688 Y-11.1543 F200.00
G01 X87.2374 Y-11.0666 F200.00
G01 X87.1975 Y-10.9823 F200.00
G01 X87.1548 Y-10.9107 F200.00
G01 X87.1440 Y-10.8944 F200.00
G01 X87.0941 Y-10.8275 F200.00
G01 X87.0383 Y-10.7656 F200.00
G01 X87.0244 Y-10.7517 F200.00
G01 X86.9699 Y-10.7023 F200.00
G01 X86.9547 Y-10.6899 F200.00
G01 X86.8876 Y-10.6404 F200.00
G01 X86.8077 Y-10.5925 F200.00
G01 X86.7234 Y-10.5526 F200.00
G01 X86.6357 Y-10.5212 F200.00
G01 X86.5548 Y-10.5007 F200.00
G01 X86.5356 Y-10.4969 F200.00
G01 X86.4531 Y-10.4849 F200.00
G01 X86.3698 Y-10.4806 F200.00
G01 X86.3502 Y-10.4806 F200.00
G01 X86.2669 Y-10.4849 F200.00
G01 X86.1844 Y-10.4969 F200.00
G01 X86.1699 Y-10.4996 F200.00
G01 X86.0938 Y-10.5186 F200.00
G01 X86.0750 Y-10.5243 F200.00
G01 X85.9966 Y-10.5526 F200.00
G01 X85.9167 Y-10.5902 F200.00
G01 X85.9038 Y-10.5973 F200.00
G01 X85.8407 Y-10.6352 F200.00
G01 X85.8284 Y-10.6432 F200.00
G01 X85.7614 Y-10.6928 F200.00
G01 X85.7501 Y-10.7023 F200.00
G01 X85.7195 Y-10.7301 F200.00
G01 X84.2597 Y-10.7301 F200.00
G01 X81.6611 Y-8.1316 F200.00
G01 X81.6143 Y-8.0894 F200.00
G01 X81.6061 Y-8.0829 F200.00
G01 X81.5593 Y-8.0485 F200.00
G01 X81.5504 Y-8.0428 F200.00
G01 X81.5003 Y-8.0130 F200.00
G01 X81.4910 Y-8.0083 F200.00
G01 X81.4396 Y-7.9842 F200.00
G01 X81.4285 Y-7.9798 F200.00
G01 X81.3723 Y-7.9600 F200.00
G01 X81.3159 Y-7.9457 F200.00
G01 X81.3052 Y-7.9433 F200.00
G01 X81.2389 Y-7.9335 F200.00
G01 X81.2286 Y-7.9327 F200.00
G01 X81.1701 Y-7.9301 F200.00
G01 X76.3797 Y-7.9301 F200.00
G01 X75.0647 Y-6.6151 F200.00
G01 X75.0212 Y-6.5754 F200.00
G01 X75.0061 Y-6.5629 F200.00
G01 X74.9588 Y-6.5282 F200.00
G01 X74.9083 Y-6.4976 F200.00
G01 X74.8910 Y-6.4883 F200.00
G01 X74.8375 Y-6.4633 F200.00
G01 X74.7823 Y-6.4433 F200.00
G01 X74.7635 Y-6.4376 F200.00
G01 X74.7069 Y-6.4236 F200.00
G01 X74.6967 Y-6.4219 F200.00
G01 X74.6387 Y-6.4135 F200.00
G01 X74.6286 Y-6.4127 F200.00
G01 X74.5698 Y-6.4101 F200.00
G01 X68.3801 Y-6.4101 F200.00
G01 X68.3213 Y-6.4127 F200.00
G01 X68.3066 Y-6.4140 F200.00
G01 X68.2435 Y-6.4236 F200.00
G01 X68.1769 Y-6.4402 F200.00
G01 X68.1125 Y-6.4633 F200.00
G01 X68.0589 Y-6.4883 F200.00
G01 X68.0416 Y-6.4976 F200.00
G01 X67.9910 Y-6.5282 F200.00
G01 X67.9438 Y-6.5629 F200.00
G01 X67.9322 Y-6.5722 F200.00
G01 X67.8887 Y-6.6117 F200.00
G01 X67.7683 Y-6.7320 F200.00
G01 X67.6925 Y-6.6964 F200.00
G01 X67.6095 Y-6.6665 F200.00
G01 X67.5907 Y-6.6608 F200.00
G01 X67.5146 Y-6.6417 F200.00
G01 X67.4954 Y-6.6379 F200.00
G01 X67.4080 Y-6.6252 F200.00
G01 X67.3100 Y-6.6204 F200.00
G01 X67.2218 Y-6.6244 F200.00
G01 X67.2023 Y-6.6264 F200.00
G01 X67.1150 Y-6.6396 F200.00
G01 X67.0293 Y-6.6608 F200.00
G01 X67.0105 Y-6.6665 F200.00
G01 X66.9275 Y-6.6964 F200.00
G01 X66.8475 Y-6.7340 F200.00
G01 X66.8345 Y-6.7408 F200.00
G01 X66.7629 Y-6.7836 F200.00
G01 X66.7466 Y-6.7945 F200.00
G01 X66.6758 Y-6.8473 F200.00
G01 X66.6102 Y-6.9064 F200.00
G01 X66.5964 Y-6.9202 F200.00
G01 X66.5373 Y-6.9858 F200.00
G01 X66.4788 Y-7.0646 F200.00
G01 X66.4284 Y-7.1488 F200.00
G01 X66.3904 Y-7.2285 F200.00
G01 X66.3829 Y-7.2466 F200.00
G01 X66.3565 Y-7.3205 F200.00
G01 X66.3508 Y-7.3393 F200.00
G01 X66.3296 Y-7.4250 F200.00
G01 X66.3164 Y-7.5123 F200.00
G00 Z1.5000
G00 X66.3164 Y-10.0523
G01 F80.00
G01 Z-0.1107
G01 F200.00
G01 X66.3144 Y-10.0718 F200.00
G01 X66.3104 Y-10.1600 F200.00
G01 X66.3152 Y-10.2580 F200.00
G01 X66.3296 Y-10.3550 F200.00
G01 X66.3534 Y-10.4502 F200.00
G01 X66.3864 Y-10.5425 F200.00
G01 X66.4284 Y-10.6312 F200.00
G01 X66.4788 Y-10.7154 F200.00
G01 X66.5373 Y-10.7942 F200.00
G01 X66.6031 Y-10.8669 F200.00
G01 X66.6758 Y-10.9327 F200.00
G01 X66.7546 Y-10.9912 F200.00
G01 X66.8388 Y-11.0416 F200.00
G01 X66.9275 Y-11.0836 F200.00
G01 X67.0198 Y-11.1166 F200.00
G01 X67.1150 Y-11.1404 F200.00
G01 X67.2120 Y-11.1548 F200.00
G01 X67.3100 Y-11.1596 F200.00
G01 X67.3982 Y-11.1556 F200.00
G01 X67.4177 Y-11.1536 F200.00
G01 X67.5050 Y-11.1404 F200.00
G01 X67.5907 Y-11.1192 F200.00
G01 X67.6095 Y-11.1135 F200.00
G01 X67.6834 Y-11.0871 F200.00
G01 X67.7015 Y-11.0796 F200.00
G01 X67.7812 Y-11.0416 F200.00
G01 X67.8654 Y-10.9912 F200.00
G01 X67.9442 Y-10.9327 F200.00
G01 X68.0098 Y-10.8736 F200.00
G01 X68.0235 Y-10.8599 F200.00
G01 X71.2180 Y-10.8599 F200.00
G01 X71.2817 Y-10.8570 F200.00
G01 X71.2963 Y-10.8553 F200.00
G01 X71.3545 Y-10.8465 F200.00
G01 X71.4117 Y-10.8324 F200.00
G01 X71.4305 Y-10.8267 F200.00
G01 X71.4858 Y-10.8066 F200.00
G01 X71.5392 Y-10.7817 F200.00
G01 X71.5565 Y-10.7724 F200.00
G01 X71.6027 Y-10.7446 F200.00
G01 X71.6149 Y-10.7363 F200.00
G01 X71.6620 Y-10.7010 F200.00
G01 X71.7058 Y-10.6617 F200.00
G01 X71.8879 Y-10.4799 F200.00
G01 X73.7000 Y-10.4799 F200.00
G01 X74.4050 Y-11.1849 F200.00
G01 X74.4559 Y-11.2310 F200.00
G01 X74.5030 Y-11.2663 F200.00
G01 X74.5193 Y-11.2772 F200.00
G01 X74.5700 Y-11.3072 F200.00
G01 X74.6321 Y-11.3366 F200.00
G01 X74.6874 Y-11.3567 F200.00
G01 X74.7062 Y-11.3624 F200.00
G01 X74.7633 Y-11.3764 F200.00
G01 X74.8216 Y-11.3853 F200.00
G01 X74.8411 Y-11.3872 F200.00
G01 X74.8999 Y-11.3899 F200.00
G01 X80.2501 Y-11.3899 F200.00
G01 X82.4386 Y-13.5783 F200.00
G01 X82.4860 Y-13.6210 F200.00
G01 X82.5331 Y-13.6563 F200.00
G01 X82.5494 Y-13.6672 F200.00
G01 X82.6001 Y-13.6973 F200.00
G01 X82.6622 Y-13.7266 F200.00
G01 X82.7175 Y-13.7467 F200.00
G01 X82.7363 Y-13.7524 F200.00
G01 X82.7839 Y-13.7643 F200.00
G01 X82.7983 Y-13.7673 F200.00
G01 X82.8614 Y-13.7765 F200.00
G01 X82.9300 Y-13.7799 F200.00
G01 X89.6251 Y-13.7799 F200.00
G01 X89.8572 Y-14.0120 F200.00
G01 X89.8592 Y-14.0533 F200.00
G01 X89.8605 Y-14.0680 F200.00
G01 X89.8719 Y-14.1456 F200.00
G01 X89.8746 Y-14.1601 F200.00
G01 X89.8962 Y-14.2457 F200.00
G01 X89.9241 Y-14.3243 F200.00
G01 X89.9296 Y-14.3379 F200.00
G01 X89.9675 Y-14.4177 F200.00
G01 X90.0154 Y-14.4976 F200.00
G01 X90.0709 Y-14.5725 F200.00
G01 X90.1267 Y-14.6344 F200.00
G01 X90.1370 Y-14.6449 F200.00
G01 X90.2025 Y-14.7041 F200.00
G01 X90.2774 Y-14.7596 F200.00
G01 X90.3573 Y-14.8075 F200.00
G01 X90.4416 Y-14.8474 F200.00
G01 X90.5293 Y-14.8788 F200.00
G01 X90.6197 Y-14.9014 F200.00
G01 X90.7119 Y-14.9151 F200.00
G01 X90.7952 Y-14.9194 F200.00
G01 X90.8148 Y-14.9194 F200.00
G01 X90.8883 Y-14.9158 F200.00
G01 X90.9078 Y-14.9139 F200.00
G01 X90.9903 Y-14.9014 F200.00
G01 X91.0712 Y-14.8814 F200.00
G01 X91.0900 Y-14.8757 F200.00
G01 X91.1684 Y-14.8474 F200.00
G01 X91.2527 Y-14.8075 F200.00
G01 X91.3326 Y-14.7596 F200.00
G01 X91.4075 Y-14.7041 F200.00
G01 X91.4765 Y-14.6415 F200.00
G01 X91.5391 Y-14.5725 F200.00
G01 X91.5946 Y-14.4976 F200.00
G01 X91.6377 Y-14.4262 F200.00
G01 X91.6469 Y-14.4089 F200.00
G01 X91.6784 Y-14.3424 F200.00
G01 X91.6859 Y-14.3243 F200.00
G01 X91.7138 Y-14.2457 F200.00
G01 X91.7343 Y-14.1648 F200.00
G01 X91.7373 Y-14.1505 F200.00
G01 X91.7489 Y-14.0728 F200.00
G01 X91.7508 Y-14.0533 F200.00
G01 X91.7546 Y-13.9700 F200.00
G01 X91.7508 Y-13.8867 F200.00
G01 X91.7489 Y-13.8672 F200.00
G01 X91.7364 Y-13.7847 F200.00
G01 X91.7138 Y-13.6943 F200.00
G01 X91.6824 Y-13.6066 F200.00
G01 X91.6469 Y-13.5311 F200.00
G01 X91.6377 Y-13.5138 F200.00
G01 X91.5946 Y-13.4424 F200.00
G01 X91.5451 Y-13.3753 F200.00
G01 X91.5327 Y-13.3601 F200.00
G01 X91.4799 Y-13.3020 F200.00
G01 X91.4694 Y-13.2917 F200.00
G01 X91.4075 Y-13.2359 F200.00
G01 X91.3326 Y-13.1804 F200.00
G01 X91.2527 Y-13.1325 F200.00
G01 X91.1729 Y-13.0946 F200.00
G01 X91.1593 Y-13.0891 F200.00
G01 X91.0807 Y-13.0612 F200.00
G01 X90.9951 Y-13.0396 F200.00
G01 X90.9806 Y-13.0369 F200.00
G01 X90.9030 Y-13.0255 F200.00
G01 X90.8883 Y-13.0242 F200.00
G01 X90.8470 Y-13.0222 F200.00
G01 X90.4099 Y-12.5851 F200.00
G01 X90.3664 Y-12.5454 F200.00
G01 X90.3552 Y-12.5359 F200.00
G01 X90.3119 Y-12.5037 F200.00
G01 X90.2956 Y-12.4928 F200.00
G01 X90.2449 Y-12.4627 F200.00
G01 X90.1918 Y-12.4373 F200.00
G01 X90.1737 Y-12.4299 F200.00
G01 X90.1182 Y-12.4102 F200.00
G01 X90.0515 Y-12.3935 F200.00
G01 X89.9836 Y-12.3835 F200.00
G01 X89.9150 Y-12.3801 F200.00
G01 X83.2199 Y-12.3801 F200.00
G01 X81.0314 Y-10.1917 F200.00
G01 X80.9840 Y-10.1489 F200.00
G01 X80.9368 Y-10.1137 F200.00
G01 X80.9205 Y-10.1028 F200.00
G01 X80.8699 Y-10.0727 F200.00
G01 X80.8078 Y-10.0434 F200.00
G01 X80.7525 Y-10.0233 F200.00
G01 X80.7337 Y-10.0176 F200.00
G01 X80.6861 Y-10.0057 F200.00
G01 X80.6717 Y-10.0026 F200.00
G01 X80.6086 Y-9.9934 F200.00
G01 X80.5400 Y-9.9901 F200.00
G01 X75.1898 Y-9.9901 F200.00
G01 X74.4848 Y-9.2851 F200.00
G01 X74.4377 Y-9.2421 F200.00
G01 X74.4262 Y-9.2329 F200.00
G01 X74.3788 Y-9.1981 F200.00
G01 X74.3198 Y-9.1627 F200.00
G01 X74.2578 Y-9.1334 F200.00
G01 X74.2024 Y-9.1133 F200.00
G01 X74.1836 Y-9.1076 F200.00
G01 X74.1265 Y-9.0935 F200.00
G01 X74.0682 Y-9.0847 F200.00
G01 X74.0487 Y-9.0827 F200.00
G01 X73.9899 Y-9.0801 F200.00
G01 X71.5980 Y-9.0801 F200.00
G01 X71.5392 Y-9.0827 F200.00
G01 X71.5197 Y-9.0847 F200.00
G01 X71.4615 Y-9.0935 F200.00
G01 X71.4043 Y-9.1076 F200.00
G01 X71.3855 Y-9.1133 F200.00
G01 X71.3302 Y-9.1334 F200.00
G01 X71.2768 Y-9.1583 F200.00
G01 X71.2638 Y-9.1651 F200.00
G01 X71.2092 Y-9.1981 F200.00
G01 X71.1617 Y-9.2329 F200.00
G01 X71.1502 Y-9.2421 F200.00
G01 X71.1031 Y-9.2851 F200.00
G01 X70.9281 Y-9.4601 F200.00
G01 X68.0235 Y-9.4601 F200.00
G01 X68.0098 Y-9.4464 F200.00
G01 X67.9442 Y-9.3873 F200.00
G01 X67.8734 Y-9.3345 F200.00
G01 X67.8571 Y-9.3236 F200.00
G01 X67.7812 Y-9.2784 F200.00
G01 X67.7015 Y-9.2404 F200.00
G01 X67.6834 Y-9.2329 F200.00
G01 X67.6002 Y-9.2034 F200.00
G01 X67.5050 Y-9.1796 F200.00
G01 X67.4177 Y-9.1664 F200.00
G01 X67.3982 Y-9.1644 F200.00
G01 X67.3100 Y-9.1604 F200.00
G01 X67.2218 Y-9.1644 F200.00
G01 X67.2023 Y-9.1664 F200.00
G01 X67.1198 Y-9.1787 F200.00
G01 X67.1054 Y-9.1817 F200.00
G01 X67.0293 Y-9.2008 F200.00
G01 X67.0105 Y-9.2065 F200.00
G01 X66.9275 Y-9.2364 F200.00
G01 X66.8388 Y-9.2784 F200.00
G01 X66.7546 Y-9.3288 F200.00
G01 X66.6836 Y-9.3812 F200.00
G01 X66.6684 Y-9.3937 F200.00
G01 X66.6102 Y-9.4464 F200.00
G01 X66.5964 Y-9.4602 F200.00
G01 X66.5373 Y-9.5258 F200.00
G01 X66.4788 Y-9.6046 F200.00
G01 X66.4284 Y-9.6888 F200.00
G01 X66.3904 Y-9.7685 F200.00
G01 X66.3829 Y-9.7866 F200.00
G01 X66.3565 Y-9.8605 F200.00
G01 X66.3508 Y-9.8793 F200.00
G01 X66.3296 Y-9.9650 F200.00
G01 X66.3164 Y-10.0523 F200.00
G00 Z1.5000
G00 X66.3164 Y-12.5923
G01 F80.00
G01 Z-0.1107
G01 F200.00
G01 X66.3144 Y-12.6118 F200.00
G01 X66.3104 Y-12.7000 F200.00
G01 X66.3144 Y-12.7882 F200.00
G01 X66.3164 Y-12.8077 F200.00
G01 X66.3296 Y-12.8950 F200.00
G01 X66.3508 Y-12.9807 F200.00
G01 X66.3565 Y-12.9995 F200.00
G01 X66.3864 Y-13.0825 F200.00
G01 X66.4284 Y-13.1712 F200.00
G01 X66.4736 Y-13.2471 F200.00
G01 X66.4845 Y-13.2634 F200.00
G01 X66.5312 Y-13.3264 F200.00
G01 X66.5437 Y-13.3416 F200.00
G01 X66.6031 Y-13.4069 F200.00
G01 X66.6684 Y-13.4663 F200.00
G01 X66.6836 Y-13.4788 F200.00
G01 X66.7546 Y-13.5312 F200.00
G01 X66.8388 Y-13.5816 F200.00
G01 X66.9275 Y-13.6236 F200.00
G01 X67.0105 Y-13.6535 F200.00
G01 X67.0293 Y-13.6592 F200.00
G01 X67.1150 Y-13.6804 F200.00
G01 X67.2023 Y-13.6936 F200.00
G01 X67.2218 Y-13.6956 F200.00
G01 X67.3002 Y-13.6994 F200.00
G01 X67.3198 Y-13.6994 F200.00
G01 X67.4080 Y-13.6948 F200.00
G01 X67.5013 Y-13.6811 F200.00
G01 X68.2850 Y-14.4649 F200.00
G01 X68.3322 Y-14.5079 F200.00
G01 X68.3436 Y-14.5171 F200.00
G01 X68.3911 Y-14.5519 F200.00
G01 X68.4415 Y-14.5824 F200.00
G01 X68.4587 Y-14.5917 F200.00
G01 X68.5121 Y-14.6166 F200.00
G01 X68.5674 Y-14.6367 F200.00
G01 X68.5862 Y-14.6424 F200.00
G01 X68.6434 Y-14.6565 F200.00
G01 X68.7113 Y-14.6665 F200.00
G01 X68.7799 Y-14.6699 F200.00
G01 X73.0195 Y-14.6699 F200.00
G01 X73.0501 Y-14.6977 F200.00
G01 X73.0614 Y-14.7072 F200.00
G01 X73.1284 Y-14.7568 F200.00
G01 X73.1407 Y-14.7648 F200.00
G01 X73.2080 Y-14.8052 F200.00
G01 X73.2211 Y-14.8119 F200.00
G01 X73.2966 Y-14.8474 F200.00
G01 X73.3797 Y-14.8773 F200.00
G01 X73.3938 Y-14.8814 F200.00
G01 X73.4747 Y-14.9014 F200.00
G01 X73.5669 Y-14.9151 F200.00
G01 X73.6600 Y-14.9196 F200.00
G01 X73.7482 Y-14.9155 F200.00
G01 X73.7628 Y-14.9139 F200.00
G01 X73.8356 Y-14.9031 F200.00
G01 X73.8548 Y-14.8993 F200.00
G01 X73.9357 Y-14.8788 F200.00
G01 X74.0234 Y-14.8474 F200.00
G01 X74.1077 Y-14.8075 F200.00
G01 X74.1793 Y-14.7648 F200.00
G01 X74.1956 Y-14.7540 F200.00
G01 X74.2547 Y-14.7101 F200.00
G01 X74.2699 Y-14.6977 F200.00
G01 X74.3315 Y-14.6415 F200.00
G01 X74.3941 Y-14.5725 F200.00
G01 X74.4496 Y-14.4976 F200.00
G01 X74.4927 Y-14.4262 F200.00
G01 X74.5019 Y-14.4089 F200.00
G01 X74.5334 Y-14.3424 F200.00
G01 X74.5409 Y-14.3243 F200.00
G01 X74.5688 Y-14.2457 F200.00
G01 X74.5914 Y-14.1553 F200.00
G01 X74.6051 Y-14.0631 F200.00
G01 X74.6096 Y-13.9700 F200.00
G01 X74.6051 Y-13.8769 F200.00
G01 X74.5914 Y-13.7847 F200.00
G01 X74.5688 Y-13.6943 F200.00
G01 X74.5374 Y-13.6066 F200.00
G01 X74.4975 Y-13.5223 F200.00
G01 X74.4496 Y-13.4424 F200.00
G01 X74.3941 Y-13.3675 F200.00
G01 X74.3315 Y-13.2985 F200.00
G01 X74.2625 Y-13.2359 F200.00
G01 X74.1876 Y-13.1804 F200.00
G01 X74.1077 Y-13.1325 F200.00
G01 X74.0234 Y-13.0926 F200.00
G01 X73.9357 Y-13.0612 F200.00
G01 X73.8548 Y-13.0407 F200.00
G01 X73.8356 Y-13.0369 F200.00
G01 X73.7628 Y-13.0261 F200.00
G01 X73.7433 Y-13.0242 F200.00
G01 X73.6600 Y-13.0204 F200.00
G01 X73.5767 Y-13.0242 F200.00
G01 X73.5572 Y-13.0261 F200.00
G01 X73.4747 Y-13.0386 F200.00
G01 X73.3890 Y-13.0599 F200.00
G01 X73.3750 Y-13.0643 F200.00
G01 X73.2966 Y-13.0926 F200.00
G01 X73.2211 Y-13.1281 F200.00
G01 X73.2080 Y-13.1348 F200.00
G01 X73.1407 Y-13.1752 F200.00
G01 X73.1284 Y-13.1832 F200.00
G01 X73.0614 Y-13.2328 F200.00
G01 X73.0501 Y-13.2423 F200.00
G01 X73.0195 Y-13.2701 F200.00
G01 X69.0698 Y-13.2701 F200.00
G01 X68.2860 Y-12.4863 F200.00
G01 X68.2666 Y-12.4098 F200.00
G01 X68.2371 Y-12.3266 F200.00
G01 X68.2296 Y-12.3085 F200.00
G01 X68.1916 Y-12.2288 F200.00
G01 X68.1412 Y-12.1446 F200.00
G01 X68.0888 Y-12.0736 F200.00
G01 X68.0763 Y-12.0584 F200.00
G01 X68.0169 Y-11.9931 F200.00
G01 X67.9516 Y-11.9337 F200.00
G01 X67.9364 Y-11.9212 F200.00
G01 X67.8654 Y-11.8688 F200.00
G01 X67.7812 Y-11.8184 F200.00
G01 X67.6925 Y-11.7764 F200.00
G01 X67.6095 Y-11.7465 F200.00
G01 X67.5907 Y-11.7408 F200.00
G01 X67.5050 Y-11.7196 F200.00
G01 X67.4080 Y-11.7052 F200.00
G01 X67.3100 Y-11.7004 F200.00
G01 X67.2120 Y-11.7052 F200.00
G01 X67.1150 Y-11.7196 F200.00
G01 X67.0198 Y-11.7434 F200.00
G01 X66.9275 Y-11.7764 F200.00
G01 X66.8388 Y-11.8184 F200.00
G01 X66.7629 Y-11.8636 F200.00
G01 X66.7466 Y-11.8745 F200.00
G01 X66.6758 Y-11.9273 F200.00
G01 X66.6031 Y-11.9931 F200.00
G01 X66.5373 Y-12.0658 F200.00
G01 X66.4845 Y-12.1366 F200.00
G01 X66.4736 Y-12.1529 F200.00
G01 X66.4284 Y-12.2288 F200.00
G01 X66.3904 Y-12.3085 F200.00
G01 X66.3829 Y-12.3266 F200.00
G01 X66.3565 Y-12.4005 F200.00
G01 X66.3508 Y-12.4193 F200.00
G01 X66.3296 Y-12.5050 F200.00
G01 X66.3164 Y-12.5923 F200.00
G00 Z1.5000
G00 X66.3164 Y-15.1323
G01 F80.00
G01 Z-0.1107
G01 F200.00
G01 X66.3144 Y-15.1518 F200.00
G01 X66.3106 Y-15.2302 F200.00
G01 X66.3106 Y-15.2498 F200.00
G01 X66.3152 Y-15.3380 F200.00
G01 X66.3279 Y-15.4254 F200.00
G01 X66.3317 Y-15.4446 F200.00
G01 X66.3534 Y-15.5302 F200.00
G01 X66.3829 Y-15.6134 F200.00
G01 X66.3904 Y-15.6315 F200.00
G01 X66.4284 Y-15.7112 F200.00
G01 X66.4736 Y-15.7871 F200.00
G01 X66.4845 Y-15.8034 F200.00
G01 X66.5373 Y-15.8742 F200.00
G01 X66.5964 Y-15.9398 F200.00
G01 X66.6102 Y-15.9536 F200.00
G01 X66.6758 Y-16.0127 F200.00
G01 X66.7546 Y-16.0712 F200.00
G01 X66.8388 Y-16.1216 F200.00
G01 X66.9185 Y-16.1596 F200.00
G01 X66.9366 Y-16.1671 F200.00
G01 X67.0198 Y-16.1966 F200.00
G01 X67.1150 Y-16.2204 F200.00
G01 X67.2023 Y-16.2336 F200.00
G01 X67.2218 Y-16.2356 F200.00
G01 X67.3002 Y-16.2394 F200.00
G01 X67.3149 Y-16.2396 F200.00
G01 X67.4080 Y-16.2348 F200.00
G01 X67.4954 Y-16.2221 F200.00
G01 X67.5146 Y-16.2183 F200.00
G01 X67.5907 Y-16.1992 F200.00
G01 X67.6049 Y-16.1951 F200.00
G01 X67.6925 Y-16.1636 F200.00
G01 X67.7769 Y-16.1239 F200.00
G01 X67.7898 Y-16.1168 F200.00
G01 X67.8613 Y-16.0739 F200.00
G01 X67.8694 Y-16.0684 F200.00
G01 X67.8920 Y-16.0518 F200.00
G01 X68.4651 Y-16.6249 F200.00
G01 X68.5086 Y-16.6646 F200.00
G01 X68.5198 Y-16.6741 F200.00
G01 X68.5712 Y-16.7119 F200.00
G01 X68.6215 Y-16.7424 F200.00
G01 X68.6388 Y-16.7517 F200.00
G01 X68.6922 Y-16.7766 F200.00
G01 X68.7568 Y-16.7998 F200.00
G01 X68.8139 Y-16.8143 F200.00
G01 X68.8283 Y-16.8173 F200.00
G01 X68.8817 Y-16.8253 F200.00
G01 X68.9012 Y-16.8272 F200.00
G01 X68.9600 Y-16.8299 F200.00
G01 X74.0400 Y-16.8299 F200.00
G01 X74.1086 Y-16.8265 F200.00
G01 X74.1669 Y-16.8181 F200.00
G01 X74.1861 Y-16.8143 F200.00
G01 X74.2337 Y-16.8024 F200.00
G01 X74.2478 Y-16.7983 F200.00
G01 X74.2987 Y-16.7801 F200.00
G01 X74.3168 Y-16.7727 F200.00
G01 X74.3699 Y-16.7473 F200.00
G01 X74.4206 Y-16.7172 F200.00
G01 X74.4369 Y-16.7063 F200.00
G01 X74.4840 Y-16.6710 F200.00
G01 X74.5314 Y-16.6283 F200.00
G01 X76.9699 Y-14.1899 F200.00
G01 X77.9701 Y-14.1899 F200.00
G01 X78.9604 Y-15.1802 F200.00
G01 X78.9604 Y-15.8449 F200.00
G01 X78.9621 Y-15.8792 F200.00
G01 X78.9637 Y-15.8938 F200.00
G01 X78.9690 Y-15.9277 F200.00
G01 X78.9771 Y-15.9611 F200.00
G01 X78.9812 Y-15.9752 F200.00
G01 X78.9946 Y-16.0121 F200.00
G01 X79.0134 Y-16.0520 F200.00
G01 X79.0361 Y-16.0898 F200.00
G01 X79.0594 Y-16.1214 F200.00
G01 X79.0688 Y-16.1327 F200.00
G01 X79.0920 Y-16.1580 F200.00
G01 X79.1173 Y-16.1812 F200.00
G01 X79.1286 Y-16.1906 F200.00
G01 X79.1522 Y-16.2082 F200.00
G01 X79.1643 Y-16.2165 F200.00
G01 X79.1980 Y-16.2366 F200.00
G01 X79.2379 Y-16.2554 F200.00
G01 X79.2795 Y-16.2703 F200.00
G01 X79.3223 Y-16.2810 F200.00
G01 X79.3659 Y-16.2875 F200.00
G01 X79.4051 Y-16.2896 F200.00
G01 X80.6100 Y-16.2896 F200.00
G01 X80.6541 Y-16.2875 F200.00
G01 X80.6977 Y-16.2810 F200.00
G01 X80.7405 Y-16.2703 F200.00
G01 X80.7729 Y-16.2589 F200.00
G01 X80.7866 Y-16.2535 F200.00
G01 X80.8132 Y-16.2410 F200.00
G01 X80.8305 Y-16.2317 F200.00
G01 X80.8598 Y-16.2139 F200.00
G01 X80.8953 Y-16.1876 F200.00
G01 X80.9280 Y-16.1580 F200.00
G01 X80.9512 Y-16.1327 F200.00
G01 X80.9606 Y-16.1214 F200.00
G01 X80.9782 Y-16.0978 F200.00
G01 X80.9891 Y-16.0815 F200.00
G01 X81.0066 Y-16.0520 F200.00
G01 X81.0254 Y-16.0121 F200.00
G01 X81.0403 Y-15.9705 F200.00
G01 X81.0489 Y-15.9373 F200.00
G01 X81.0519 Y-15.9229 F200.00
G01 X81.0563 Y-15.8938 F200.00
G01 X81.0582 Y-15.8743 F200.00
G01 X81.0596 Y-15.8400 F200.00
G01 X81.0596 Y-14.6400 F200.00
G01 X81.0579 Y-14.6008 F200.00
G01 X81.0569 Y-14.5911 F200.00
G01 X81.0527 Y-14.5619 F200.00
G01 X81.0489 Y-14.5427 F200.00
G01 X81.0403 Y-14.5095 F200.00
G01 X81.0254 Y-14.4679 F200.00
G01 X81.0066 Y-14.4280 F200.00
G01 X80.9891 Y-14.3985 F200.00
G01 X80.9782 Y-14.3822 F200.00
G01 X80.9606 Y-14.3586 F200.00
G01 X80.9512 Y-14.3473 F200.00
G01 X80.9280 Y-14.3220 F200.00
G01 X80.8953 Y-14.2924 F200.00
G01 X80.8598 Y-14.2661 F200.00
G01 X80.8263 Y-14.2458 F200.00
G01 X80.8132 Y-14.2390 F200.00
G01 X80.7866 Y-14.2265 F200.00
G01 X80.7775 Y-14.2228 F200.00
G01 X80.7498 Y-14.2128 F200.00
G01 X80.7358 Y-14.2083 F200.00
G01 X80.7073 Y-14.2011 F200.00
G01 X80.6881 Y-14.1973 F200.00
G01 X80.6541 Y-14.1925 F200.00
G01 X80.6100 Y-14.1904 F200.00
G01 X79.9502 Y-14.1904 F200.00
G01 X78.7549 Y-12.9951 F200.00
G01 X78.7078 Y-12.9521 F200.00
G01 X78.6963 Y-12.9429 F200.00
G01 X78.6569 Y-12.9137 F200.00
G01 X78.6406 Y-12.9028 F200.00
G01 X78.5899 Y-12.8727 F200.00
G01 X78.5278 Y-12.8434 F200.00
G01 X78.4632 Y-12.8202 F200.00
G01 X78.4061 Y-12.8057 F200.00
G01 X78.3917 Y-12.8027 F200.00
G01 X78.3383 Y-12.7947 F200.00
G01 X78.3188 Y-12.7927 F200.00
G01 X78.2600 Y-12.7901 F200.00
G01 X76.6702 Y-12.7903 F200.00
G01 X76.6163 Y-12.7930 F200.00
G01 X76.6017 Y-12.7947 F200.00
G01 X76.5435 Y-12.8035 F200.00
G01 X76.4863 Y-12.8176 F200.00
G01 X76.4675 Y-12.8233 F200.00
G01 X76.4122 Y-12.8434 F200.00
G01 X76.3588 Y-12.8683 F200.00
G01 X76.3458 Y-12.8751 F200.00
G01 X76.2912 Y-12.9081 F200.00
G01 X76.2437 Y-12.9429 F200.00
G01 X76.2286 Y-12.9554 F200.00
G01 X76.1851 Y-12.9951 F200.00
G01 X73.7501 Y-15.4301 F200.00
G01 X69.2499 Y-15.4301 F200.00
G01 X68.5614 Y-14.7417 F200.00
G01 X68.5140 Y-14.6990 F200.00
G01 X68.4669 Y-14.6637 F200.00
G01 X68.4547 Y-14.6554 F200.00
G01 X68.3999 Y-14.6227 F200.00
G01 X68.3468 Y-14.5973 F200.00
G01 X68.3287 Y-14.5898 F200.00
G01 X68.2825 Y-14.5733 F200.00
G01 X68.2685 Y-14.5689 F200.00
G01 X68.2065 Y-14.5535 F200.00
G01 X68.1435 Y-14.5440 F200.00
G01 X68.1288 Y-14.5427 F200.00
G01 X68.0749 Y-14.5402 F200.00
G01 X68.0235 Y-14.5401 F200.00
G01 X68.0098 Y-14.5264 F200.00
G01 X67.9442 Y-14.4673 F200.00
G01 X67.8654 Y-14.4088 F200.00
G01 X67.7812 Y-14.3584 F200.00
G01 X67.7015 Y-14.3204 F200.00
G01 X67.6834 Y-14.3129 F200.00
G01 X67.6002 Y-14.2834 F200.00
G01 X67.5050 Y-14.2596 F200.00
G01 X67.4080 Y-14.2452 F200.00
G01 X67.3198 Y-14.2406 F200.00
G01 X67.3002 Y-14.2406 F200.00
G01 X67.2218 Y-14.2444 F200.00
G01 X67.2023 Y-14.2464 F200.00
G01 X67.1150 Y-14.2596 F200.00
G01 X67.0293 Y-14.2808 F200.00
G01 X67.0105 Y-14.2865 F200.00
G01 X66.9275 Y-14.3164 F200.00
G01 X66.8388 Y-14.3584 F200.00
G01 X66.7546 Y-14.4088 F200.00
G01 X66.6836 Y-14.4612 F200.00
G01 X66.6684 Y-14.4737 F200.00
G01 X66.6031 Y-14.5331 F200.00
G01 X66.5373 Y-14.6058 F200.00
G01 X66.4788 Y-14.6846 F200.00
G01 X66.4284 Y-14.7688 F200.00
G01 X66.3864 Y-14.8575 F200.00
G01 X66.3534 Y-14.9498 F200.00
G01 X66.3296 Y-15.0450 F200.00
G01 X66.3164 Y-15.1323 F200.00
G00 Z1.5000
G00 X66.3164 Y-17.6723
G01 F80.00
G01 Z-0.1107
G01 F200.00
G01 X66.3144 Y-17.6918 F200.00
G01 X66.3104 Y-17.7800 F200.00
G01 X66.3152 Y-17.8780 F200.00
G01 X66.3296 Y-17.9750 F200.00
G01 X66.3534 Y-18.0702 F200.00
G01 X66.3864 Y-18.1625 F200.00
G01 X66.4284 Y-18.2512 F200.00
G01 X66.4788 Y-18.3354 F200.00
G01 X66.5312 Y-18.4064 F200.00
G01 X66.5437 Y-18.4216 F200.00
G01 X66.6031 Y-18.4869 F200.00
G01 X66.6684 Y-18.5463 F200.00
G01 X66.6836 Y-18.5588 F200.00
G01 X66.7466 Y-18.6055 F200.00
G01 X66.7629 Y-18.6164 F200.00
G01 X66.8388 Y-18.6616 F200.00
G01 X66.9185 Y-18.6996 F200.00
G01 X66.9366 Y-18.7071 F200.00
G01 X67.0198 Y-18.7366 F200.00
G01 X67.1150 Y-18.7604 F200.00
G01 X67.2120 Y-18.7748 F200.00
G01 X67.3051 Y-18.7796 F200.00
G01 X67.3198 Y-18.7794 F200.00
G01 X67.4080 Y-18.7748 F200.00
G01 X67.5050 Y-18.7604 F200.00
G01 X67.6002 Y-18.7366 F200.00
G01 X67.6925 Y-18.7036 F200.00
G01 X67.7812 Y-18.6616 F200.00
G01 X67.8654 Y-18.6112 F200.00
G01 X67.9442 Y-18.5527 F200.00
G01 X68.0098 Y-18.4936 F200.00
G01 X68.0235 Y-18.4799 F200.00
G01 X71.7495 Y-18.4799 F200.00
G01 X71.7801 Y-18.5077 F200.00
G01 X71.7914 Y-18.5172 F200.00
G01 X71.8584 Y-18.5668 F200.00
G01 X71.8707 Y-18.5748 F200.00
G01 X71.9380 Y-18.6152 F200.00
G01 X71.9511 Y-18.6219 F200.00
G01 X72.0266 Y-18.6574 F200.00
G01 X72.1050 Y-18.6857 F200.00
G01 X72.1190 Y-18.6901 F200.00
G01 X72.1952 Y-18.7093 F200.00
G01 X72.2144 Y-18.7131 F200.00
G01 X72.2969 Y-18.7251 F200.00
G01 X72.3802 Y-18.7294 F200.00
G01 X72.3998 Y-18.7294 F200.00
G01 X72.4831 Y-18.7251 F200.00
G01 X72.5705 Y-18.7123 F200.00
G01 X72.5848 Y-18.7093 F200.00
G01 X72.6657 Y-18.6888 F200.00
G01 X72.7443 Y-18.6609 F200.00
G01 X72.7624 Y-18.6534 F200.00
G01 X72.8289 Y-18.6219 F200.00
G01 X72.8462 Y-18.6127 F200.00
G01 X72.9176 Y-18.5696 F200.00
G01 X72.9925 Y-18.5141 F200.00
G01 X73.0615 Y-18.4515 F200.00
G01 X73.1241 Y-18.3825 F200.00
G01 X73.1796 Y-18.3076 F200.00
G01 X73.2227 Y-18.2362 F200.00
G01 X73.2319 Y-18.2189 F200.00
G01 X73.2634 Y-18.1524 F200.00
G01 X73.2709 Y-18.1343 F200.00
G01 X73.2988 Y-18.0557 F200.00
G01 X73.3214 Y-17.9653 F200.00
G01 X73.3351 Y-17.8731 F200.00
G01 X73.3396 Y-17.7849 F200.00
G01 X73.3394 Y-17.7702 F200.00
G01 X73.3351 Y-17.6869 F200.00
G01 X73.3214 Y-17.5947 F200.00
G01 X73.2988 Y-17.5043 F200.00
G01 X73.2674 Y-17.4166 F200.00
G01 X73.2275 Y-17.3323 F200.00
G01 X73.1796 Y-17.2524 F200.00
G01 X73.1241 Y-17.1775 F200.00
G01 X73.0615 Y-17.1085 F200.00
G01 X72.9925 Y-17.0459 F200.00
G01 X72.9176 Y-16.9904 F200.00
G01 X72.8377 Y-16.9425 F200.00
G01 X72.7534 Y-16.9026 F200.00
G01 X72.6657 Y-16.8712 F200.00
G01 X72.5753 Y-16.8486 F200.00
G01 X72.4831 Y-16.8349 F200.00
G01 X72.3949 Y-16.8304 F200.00
G01 X72.3802 Y-16.8306 F200.00
G01 X72.2969 Y-16.8349 F200.00
G01 X72.2047 Y-16.8486 F200.00
G01 X72.1143 Y-16.8712 F200.00
G01 X72.0311 Y-16.9008 F200.00
G01 X72.0176 Y-16.9066 F200.00
G01 X71.9423 Y-16.9425 F200.00
G01 X71.8665 Y-16.9877 F200.00
G01 X71.8544 Y-16.9960 F200.00
G01 X71.7914 Y-17.0428 F200.00
G01 X71.7801 Y-17.0523 F200.00
G01 X71.7495 Y-17.0801 F200.00
G01 X68.0235 Y-17.0801 F200.00
G01 X68.0098 Y-17.0664 F200.00
G01 X67.9442 Y-17.0073 F200.00
G01 X67.8734 Y-16.9545 F200.00
G01 X67.8571 Y-16.9436 F200.00
G01 X67.7812 Y-16.8984 F200.00
G01 X67.7015 Y-16.8604 F200.00
G01 X67.6834 Y-16.8529 F200.00
G01 X67.6095 Y-16.8265 F200.00
G01 X67.5907 Y-16.8208 F200.00
G01 X67.5050 Y-16.7996 F200.00
G01 X67.4080 Y-16.7852 F200.00
G01 X67.3100 Y-16.7804 F200.00
G01 X67.2218 Y-16.7844 F200.00
G01 X67.2023 Y-16.7864 F200.00
G01 X67.1150 Y-16.7996 F200.00
G01 X67.0198 Y-16.8234 F200.00
G01 X66.9275 Y-16.8564 F200.00
G01 X66.8475 Y-16.8940 F200.00
G01 X66.8302 Y-16.9032 F200.00
G01 X66.7629 Y-16.9436 F200.00
G01 X66.7466 Y-16.9545 F200.00
G01 X66.6758 Y-17.0073 F200.00
G01 X66.6031 Y-17.0731 F200.00
G01 X66.5373 Y-17.1458 F200.00
G01 X66.4845 Y-17.2166 F200.00
G01 X66.4736 Y-17.2329 F200.00
G01 X66.4332 Y-17.3002 F200.00
G01 X66.4240 Y-17.3175 F200.00
G01 X66.3864 Y-17.3975 F200.00
G01 X66.3534 Y-17.4898 F200.00
G01 X66.3296 Y-17.5850 F200.00
G01 X66.3164 Y-17.6723 F200.00
G00 Z1.5000
G00 X64.2033 Y-20.8893
G01 F80.00
G01 Z-0.1107
G01 F200.00
G01 X64.2019 Y-20.9031 F200.00
G01 X64.2004 Y-20.9400 F200.00
G01 X64.2004 Y-22.2400 F200.00
G01 X64.2021 Y-22.2792 F200.00
G01 X64.2037 Y-22.2938 F200.00
G01 X64.2090 Y-22.3277 F200.00
G01 X64.2197 Y-22.3705 F200.00
G01 X64.2346 Y-22.4121 F200.00
G01 X64.2512 Y-22.4476 F200.00
G01 X64.2583 Y-22.4605 F200.00
G01 X64.2761 Y-22.4898 F200.00
G01 X64.2994 Y-22.5214 F200.00
G01 X64.3088 Y-22.5327 F200.00
G01 X64.3286 Y-22.5544 F200.00
G01 X64.3356 Y-22.5614 F200.00
G01 X64.3501 Y-22.5746 F200.00
G01 X64.3501 Y-23.1704 F200.00
G01 X64.3356 Y-23.1836 F200.00
G01 X64.3286 Y-23.1906 F200.00
G01 X64.3088 Y-23.2123 F200.00
G01 X64.2994 Y-23.2236 F200.00
G01 X64.2761 Y-23.2552 F200.00
G01 X64.2583 Y-23.2845 F200.00
G01 X64.2512 Y-23.2974 F200.00
G01 X64.2346 Y-23.3329 F200.00
G01 X64.2197 Y-23.3745 F200.00
G01 X64.2090 Y-23.4173 F200.00
G01 X64.2025 Y-23.4609 F200.00
G01 X64.2004 Y-23.5050 F200.00
G01 X64.2004 Y-24.7550 F200.00
G01 X64.2021 Y-24.7942 F200.00
G01 X64.2031 Y-24.8039 F200.00
G01 X64.2073 Y-24.8331 F200.00
G01 X64.2111 Y-24.8523 F200.00
G01 X64.2197 Y-24.8855 F200.00
G01 X64.2346 Y-24.9271 F200.00
G01 X64.2534 Y-24.9670 F200.00
G01 X64.2709 Y-24.9965 F200.00
G01 X64.2789 Y-25.0089 F200.00
G01 X64.3024 Y-25.0403 F200.00
G01 X64.3320 Y-25.0730 F200.00
G01 X64.3573 Y-25.0962 F200.00
G01 X64.3686 Y-25.1056 F200.00
G01 X64.4002 Y-25.1289 F200.00
G01 X64.4380 Y-25.1516 F200.00
G01 X64.4690 Y-25.1665 F200.00
G01 X64.4825 Y-25.1722 F200.00
G01 X64.5195 Y-25.1853 F200.00
G01 X64.5623 Y-25.1960 F200.00
G01 X64.5962 Y-25.2013 F200.00
G01 X64.6108 Y-25.2029 F200.00
G01 X64.6500 Y-25.2046 F200.00
G01 X65.4500 Y-25.2046 F200.00
G01 X65.4941 Y-25.2025 F200.00
G01 X65.5377 Y-25.1960 F200.00
G01 X65.5758 Y-25.1867 F200.00
G01 X65.5898 Y-25.1822 F200.00
G01 X65.6221 Y-25.1704 F200.00
G01 X65.6532 Y-25.1560 F200.00
G01 X65.6663 Y-25.1492 F200.00
G01 X65.6998 Y-25.1289 F200.00
G01 X65.7353 Y-25.1026 F200.00
G01 X65.7680 Y-25.0730 F200.00
G01 X65.7944 Y-25.0440 F200.00
G01 X65.8036 Y-25.0325 F200.00
G01 X65.8239 Y-25.0048 F200.00
G01 X65.8417 Y-24.9755 F200.00
G01 X65.8488 Y-24.9626 F200.00
G01 X65.8635 Y-24.9316 F200.00
G01 X65.8689 Y-24.9179 F200.00
G01 X65.8803 Y-24.8855 F200.00
G01 X65.8910 Y-24.8427 F200.00
G01 X65.8975 Y-24.7991 F200.00
G01 X65.8996 Y-24.7599 F200.00
G01 X65.8994 Y-23.4952 F200.00
G01 X65.8979 Y-23.4658 F200.00
G01 X65.8969 Y-23.4561 F200.00
G01 X65.8927 Y-23.4269 F200.00
G01 X65.8900 Y-23.4125 F200.00
G01 X65.8829 Y-23.3839 F200.00
G01 X65.8788 Y-23.3698 F200.00
G01 X65.8672 Y-23.3375 F200.00
G01 X65.8615 Y-23.3240 F200.00
G01 X65.8488 Y-23.2974 F200.00
G01 X65.8442 Y-23.2887 F200.00
G01 X65.8265 Y-23.2593 F200.00
G01 X65.8182 Y-23.2472 F200.00
G01 X65.8006 Y-23.2236 F200.00
G01 X65.7912 Y-23.2123 F200.00
G01 X65.7680 Y-23.1870 F200.00
G01 X65.7499 Y-23.1704 F200.00
G01 X65.7499 Y-22.5956 F200.00
G01 X65.7603 Y-22.5876 F200.00
G01 X65.7677 Y-22.5812 F200.00
G01 X65.7894 Y-22.5614 F200.00
G01 X65.7997 Y-22.5509 F200.00
G01 X65.8194 Y-22.5290 F200.00
G01 X65.8256 Y-22.5214 F200.00
G01 X65.8461 Y-22.4939 F200.00
G01 X65.8541 Y-22.4815 F200.00
G01 X65.8692 Y-22.4563 F200.00
G01 X65.8738 Y-22.4476 F200.00
G01 X65.8865 Y-22.4210 F200.00
G01 X65.8922 Y-22.4075 F200.00
G01 X65.9022 Y-22.3798 F200.00
G01 X65.9067 Y-22.3658 F200.00
G01 X65.9150 Y-22.3325 F200.00
G01 X65.9177 Y-22.3181 F200.00
G01 X65.9225 Y-22.2841 F200.00
G01 X65.9246 Y-22.2400 F200.00
G01 X65.9246 Y-21.4252 F200.00
G01 X66.3299 Y-21.0199 F200.00
G01 X66.5965 Y-21.0199 F200.00
G01 X66.6102 Y-21.0336 F200.00
G01 X66.6758 Y-21.0927 F200.00
G01 X66.7546 Y-21.1512 F200.00
G01 X66.8388 Y-21.2016 F200.00
G01 X66.9275 Y-21.2436 F200.00
G01 X67.0198 Y-21.2766 F200.00
G01 X67.1150 Y-21.3004 F200.00
G01 X67.2120 Y-21.3148 F200.00
G01 X67.3100 Y-21.3196 F200.00
G01 X67.4080 Y-21.3148 F200.00
G01 X67.5050 Y-21.3004 F200.00
G01 X67.6002 Y-21.2766 F200.00
G01 X67.6925 Y-21.2436 F200.00
G01 X67.7812 Y-21.2016 F200.00
G01 X67.8654 Y-21.1512 F200.00
G01 X67.9442 Y-21.0927 F200.00
G01 X68.0098 Y-21.0336 F200.00
G01 X68.0235 Y-21.0199 F200.00
G01 X71.3101 Y-21.0199 F200.00
G01 X71.3102 Y-22.4849 F200.00
G01 X71.3135 Y-22.5486 F200.00
G01 X71.3235 Y-22.6165 F200.00
G01 X71.3402 Y-22.6832 F200.00
G01 X71.3598 Y-22.7387 F200.00
G01 X71.3653 Y-22.7523 F200.00
G01 X71.3927 Y-22.8099 F200.00
G01 X71.4281 Y-22.8688 F200.00
G01 X71.4690 Y-22.9240 F200.00
G01 X71.5117 Y-22.9714 F200.00
G01 X72.5301 Y-23.9899 F200.00
G01 X72.5810 Y-24.0360 F200.00
G01 X72.6362 Y-24.0769 F200.00
G01 X72.6951 Y-24.1123 F200.00
G01 X72.7482 Y-24.1377 F200.00
G01 X72.7663 Y-24.1452 F200.00
G01 X72.8218 Y-24.1648 F200.00
G01 X72.8789 Y-24.1793 F200.00
G01 X72.8981 Y-24.1831 F200.00
G01 X72.9564 Y-24.1915 F200.00
G01 X73.0152 Y-24.1947 F200.00
G01 X75.0768 Y-24.1949 F200.00
G01 X75.0790 Y-24.2077 F200.00
G01 X75.0811 Y-24.2173 F200.00
G01 X75.0883 Y-24.2458 F200.00
G01 X75.0912 Y-24.2552 F200.00
G01 X75.1046 Y-24.2921 F200.00
G01 X75.1212 Y-24.3276 F200.00
G01 X75.1258 Y-24.3363 F200.00
G01 X75.1409 Y-24.3615 F200.00
G01 X75.1518 Y-24.3778 F200.00
G01 X75.1724 Y-24.4053 F200.00
G01 X75.1986 Y-24.4344 F200.00
G01 X75.2056 Y-24.4414 F200.00
G01 X75.2273 Y-24.4612 F200.00
G01 X75.2425 Y-24.4736 F200.00
G01 X75.2702 Y-24.4939 F200.00
G01 X75.3037 Y-24.5142 F200.00
G01 X75.3168 Y-24.5210 F200.00
G01 X75.3434 Y-24.5335 F200.00
G01 X75.3525 Y-24.5372 F200.00
G01 X75.3895 Y-24.5503 F200.00
G01 X75.4227 Y-24.5589 F200.00
G01 X75.4371 Y-24.5619 F200.00
G01 X75.4759 Y-24.5675 F200.00
G01 X75.5200 Y-24.5696 F200.00
G01 X76.3249 Y-24.5696 F200.00
G01 X76.3641 Y-24.5675 F200.00
G01 X76.4077 Y-24.5610 F200.00
G01 X76.4505 Y-24.5503 F200.00
G01 X76.4921 Y-24.5354 F200.00
G01 X76.5276 Y-24.5188 F200.00
G01 X76.5405 Y-24.5117 F200.00
G01 X76.5698 Y-24.4939 F200.00
G01 X76.6053 Y-24.4676 F200.00
G01 X76.6344 Y-24.4414 F200.00
G01 X76.6447 Y-24.4309 F200.00
G01 X76.6676 Y-24.4053 F200.00
G01 X76.6882 Y-24.3778 F200.00
G01 X76.6991 Y-24.3615 F200.00
