(G-CODE GENERATED BY FLATCAM v8.994 - www.flatcam.org - Version Date: 2020/11/7)

(Name: zvire-vetrnik-current-sensor.drl_mill_cnc)
(Type: G-code from Geometry)
(Units: MM)

(Created on Sobota, 17 prosince 2022 at 16:27)

(This preprocessor is the default preprocessor used by FlatCAM.)
(It is made to work with MACH3 compatible motion controllers.)

(TOOL DIAMETER: 1.0 mm)
(Feedrate_XY: 80.0 mm/min)
(Feedrate_Z: 25.0 mm/min)
(Feedrate rapids 1500.0 mm/min)

(Z_Cut: -1.6 mm)
(Z_Move: 2.0 mm)
(Z Start: None mm)
(Z End: 5.0 mm)
(X,Y End: None mm)
(Steps per circle: 64)
(Preprocessor Geometry: default)

(X range:    2.7100 ...   48.0900  mm)
(Y range:    2.7100 ...   56.9800  mm)

(Spindle Speed: 10000.0 RPM)
G21
G90
G94

G01 F80.00

M5
G00 Z15.0000
G00 X0.0000 Y0.0000
T1
M6    
(MSG, Change to Tool Dia = 1.0000)
M0
G00 Z15.0000

M03 S10000.0
G4 P1.0
G01 F80.00
G00 X4.9100 Y3.8100
G01 F25.00
G01 Z-1.6000
G01 F80.00
G01 X4.9047 Y3.7022
G01 X4.8889 Y3.5954
G01 X4.8626 Y3.4907
G01 X4.8263 Y3.3890
G01 X4.7801 Y3.2915
G01 X4.7246 Y3.1989
G01 X4.6603 Y3.1122
G01 X4.5878 Y3.0322
G01 X4.5078 Y2.9597
G01 X4.4211 Y2.8954
G01 X4.3285 Y2.8399
G01 X4.2310 Y2.7937
G01 X4.1293 Y2.7574
G01 X4.0246 Y2.7311
G01 X3.9178 Y2.7153
G01 X3.8100 Y2.7100
G01 X3.7022 Y2.7153
G01 X3.5954 Y2.7311
G01 X3.4907 Y2.7574
G01 X3.3890 Y2.7937
G01 X3.2915 Y2.8399
G01 X3.1989 Y2.8954
G01 X3.1122 Y2.9597
G01 X3.0322 Y3.0322
G01 X2.9597 Y3.1122
G01 X2.8954 Y3.1989
G01 X2.8399 Y3.2915
G01 X2.7937 Y3.3890
G01 X2.7574 Y3.4907
G01 X2.7311 Y3.5954
G01 X2.7153 Y3.7022
G01 X2.7100 Y3.8100
G01 X2.7153 Y3.9178
G01 X2.7311 Y4.0246
G01 X2.7574 Y4.1293
G01 X2.7937 Y4.2310
G01 X2.8399 Y4.3285
G01 X2.8954 Y4.4211
G01 X2.9597 Y4.5078
G01 X3.0322 Y4.5878
G01 X3.1122 Y4.6603
G01 X3.1989 Y4.7246
G01 X3.2915 Y4.7801
G01 X3.3890 Y4.8263
G01 X3.4907 Y4.8626
G01 X3.5954 Y4.8889
G01 X3.7022 Y4.9047
G01 X3.8100 Y4.9100
G01 X3.9178 Y4.9047
G01 X4.0246 Y4.8889
G01 X4.1293 Y4.8626
G01 X4.2310 Y4.8263
G01 X4.3285 Y4.7801
G01 X4.4211 Y4.7246
G01 X4.5078 Y4.6603
G01 X4.5878 Y4.5878
G01 X4.6603 Y4.5078
G01 X4.7246 Y4.4211
G01 X4.7801 Y4.3285
G01 X4.8263 Y4.2310
G01 X4.8626 Y4.1293
G01 X4.8889 Y4.0246
G01 X4.9047 Y3.9178
G01 X4.9100 Y3.8100
G00 Z2.0000
G00 X18.4000 Y10.3600
G01 F25.00
G01 Z-1.6000
G01 F80.00
G01 X18.3978 Y10.3159
G01 X18.3914 Y10.2722
G01 X18.3806 Y10.2294
G01 X18.3657 Y10.1878
G01 X18.3469 Y10.1479
G01 X18.3242 Y10.1100
G01 X18.2979 Y10.0745
G01 X18.2682 Y10.0418
G01 X18.2355 Y10.0121
G01 X18.2000 Y9.9858
G01 X18.1621 Y9.9631
G01 X18.1222 Y9.9443
G01 X18.0806 Y9.9294
G01 X18.0378 Y9.9186
G01 X17.9941 Y9.9122
G01 X17.9500 Y9.9100
G01 X17.9059 Y9.9122
G01 X17.8622 Y9.9186
G01 X17.8194 Y9.9294
G01 X17.7778 Y9.9443
G01 X17.7379 Y9.9631
G01 X17.7000 Y9.9858
G01 X17.6645 Y10.0121
G01 X17.6318 Y10.0418
G01 X17.6021 Y10.0745
G01 X17.5758 Y10.1100
G01 X17.5531 Y10.1479
G01 X17.5343 Y10.1878
G01 X17.5194 Y10.2294
G01 X17.5086 Y10.2722
G01 X17.5022 Y10.3159
G01 X17.5000 Y10.3600
G01 X17.5022 Y10.4041
G01 X17.5086 Y10.4478
G01 X17.5194 Y10.4906
G01 X17.5343 Y10.5322
G01 X17.5531 Y10.5721
G01 X17.5758 Y10.6100
G01 X17.6021 Y10.6455
G01 X17.6318 Y10.6782
G01 X17.6645 Y10.7079
G01 X17.7000 Y10.7342
G01 X17.7379 Y10.7569
G01 X17.7778 Y10.7757
G01 X17.8194 Y10.7906
G01 X17.8622 Y10.8014
G01 X17.9059 Y10.8078
G01 X17.9500 Y10.8100
G01 X17.9941 Y10.8078
G01 X18.0378 Y10.8014
G01 X18.0806 Y10.7906
G01 X18.1222 Y10.7757
G01 X18.1621 Y10.7569
G01 X18.2000 Y10.7342
G01 X18.2355 Y10.7079
G01 X18.2682 Y10.6782
G01 X18.2979 Y10.6455
G01 X18.3242 Y10.6100
G01 X18.3469 Y10.5721
G01 X18.3657 Y10.5322
G01 X18.3806 Y10.4906
G01 X18.3914 Y10.4478
G01 X18.3978 Y10.4041
G01 X18.4000 Y10.3600
G00 Z2.0000
G00 X22.2000 Y10.3600
G01 F25.00
G01 Z-1.6000
G01 F80.00
G01 X22.1978 Y10.3159
G01 X22.1914 Y10.2722
G01 X22.1806 Y10.2294
G01 X22.1657 Y10.1878
G01 X22.1469 Y10.1479
G01 X22.1242 Y10.1100
G01 X22.0979 Y10.0745
G01 X22.0682 Y10.0418
G01 X22.0355 Y10.0121
G01 X22.0000 Y9.9858
G01 X21.9621 Y9.9631
G01 X21.9222 Y9.9443
G01 X21.8806 Y9.9294
G01 X21.8378 Y9.9186
G01 X21.7941 Y9.9122
G01 X21.7500 Y9.9100
G01 X21.7059 Y9.9122
G01 X21.6622 Y9.9186
G01 X21.6194 Y9.9294
G01 X21.5778 Y9.9443
G01 X21.5379 Y9.9631
G01 X21.5000 Y9.9858
G01 X21.4645 Y10.0121
G01 X21.4318 Y10.0418
G01 X21.4021 Y10.0745
G01 X21.3758 Y10.1100
G01 X21.3531 Y10.1479
G01 X21.3343 Y10.1878
G01 X21.3194 Y10.2294
G01 X21.3086 Y10.2722
G01 X21.3022 Y10.3159
G01 X21.3000 Y10.3600
G01 X21.3022 Y10.4041
G01 X21.3086 Y10.4478
G01 X21.3194 Y10.4906
G01 X21.3343 Y10.5322
G01 X21.3531 Y10.5721
G01 X21.3758 Y10.6100
G01 X21.4021 Y10.6455
G01 X21.4318 Y10.6782
G01 X21.4645 Y10.7079
G01 X21.5000 Y10.7342
G01 X21.5379 Y10.7569
G01 X21.5778 Y10.7757
G01 X21.6194 Y10.7906
G01 X21.6622 Y10.8014
G01 X21.7059 Y10.8078
G01 X21.7500 Y10.8100
G01 X21.7941 Y10.8078
G01 X21.8378 Y10.8014
G01 X21.8806 Y10.7906
G01 X21.9222 Y10.7757
G01 X21.9621 Y10.7569
G01 X22.0000 Y10.7342
G01 X22.0355 Y10.7079
G01 X22.0682 Y10.6782
G01 X22.0979 Y10.6455
G01 X22.1242 Y10.6100
G01 X22.1469 Y10.5721
G01 X22.1657 Y10.5322
G01 X22.1806 Y10.4906
G01 X22.1914 Y10.4478
G01 X22.1978 Y10.4041
G01 X22.2000 Y10.3600
G00 Z2.0000
G00 X28.4000 Y10.3600
G01 F25.00
G01 Z-1.6000
G01 F80.00
G01 X28.3978 Y10.3159
G01 X28.3914 Y10.2722
G01 X28.3806 Y10.2294
G01 X28.3657 Y10.1878
G01 X28.3469 Y10.1479
G01 X28.3242 Y10.1100
G01 X28.2979 Y10.0745
G01 X28.2682 Y10.0418
G01 X28.2355 Y10.0121
G01 X28.2000 Y9.9858
G01 X28.1621 Y9.9631
G01 X28.1222 Y9.9443
G01 X28.0806 Y9.9294
G01 X28.0378 Y9.9186
G01 X27.9941 Y9.9122
G01 X27.9500 Y9.9100
G01 X27.9059 Y9.9122
G01 X27.8622 Y9.9186
G01 X27.8194 Y9.9294
G01 X27.7778 Y9.9443
G01 X27.7379 Y9.9631
G01 X27.7000 Y9.9858
G01 X27.6645 Y10.0121
G01 X27.6318 Y10.0418
G01 X27.6021 Y10.0745
G01 X27.5758 Y10.1100
G01 X27.5531 Y10.1479
G01 X27.5343 Y10.1878
G01 X27.5194 Y10.2294
G01 X27.5086 Y10.2722
G01 X27.5022 Y10.3159
G01 X27.5000 Y10.3600
G01 X27.5022 Y10.4041
G01 X27.5086 Y10.4478
G01 X27.5194 Y10.4906
G01 X27.5343 Y10.5322
G01 X27.5531 Y10.5721
G01 X27.5758 Y10.6100
G01 X27.6021 Y10.6455
G01 X27.6318 Y10.6782
G01 X27.6645 Y10.7079
G01 X27.7000 Y10.7342
G01 X27.7379 Y10.7569
G01 X27.7778 Y10.7757
G01 X27.8194 Y10.7906
G01 X27.8622 Y10.8014
G01 X27.9059 Y10.8078
G01 X27.9500 Y10.8100
G01 X27.9941 Y10.8078
G01 X28.0378 Y10.8014
G01 X28.0806 Y10.7906
G01 X28.1222 Y10.7757
G01 X28.1621 Y10.7569
G01 X28.2000 Y10.7342
G01 X28.2355 Y10.7079
G01 X28.2682 Y10.6782
G01 X28.2979 Y10.6455
G01 X28.3242 Y10.6100
G01 X28.3469 Y10.5721
G01 X28.3657 Y10.5322
G01 X28.3806 Y10.4906
G01 X28.3914 Y10.4478
G01 X28.3978 Y10.4041
G01 X28.4000 Y10.3600
G00 Z2.0000
G00 X32.2000 Y10.3600
G01 F25.00
G01 Z-1.6000
G01 F80.00
G01 X32.1978 Y10.3159
G01 X32.1914 Y10.2722
G01 X32.1806 Y10.2294
G01 X32.1657 Y10.1878
G01 X32.1469 Y10.1479
G01 X32.1242 Y10.1100
G01 X32.0979 Y10.0745
G01 X32.0682 Y10.0418
G01 X32.0355 Y10.0121
G01 X32.0000 Y9.9858
G01 X31.9621 Y9.9631
G01 X31.9222 Y9.9443
G01 X31.8806 Y9.9294
G01 X31.8378 Y9.9186
G01 X31.7941 Y9.9122
G01 X31.7500 Y9.9100
G01 X31.7059 Y9.9122
G01 X31.6622 Y9.9186
G01 X31.6194 Y9.9294
G01 X31.5778 Y9.9443
G01 X31.5379 Y9.9631
G01 X31.5000 Y9.9858
G01 X31.4645 Y10.0121
G01 X31.4318 Y10.0418
G01 X31.4021 Y10.0745
G01 X31.3758 Y10.1100
G01 X31.3531 Y10.1479
G01 X31.3343 Y10.1878
G01 X31.3194 Y10.2294
G01 X31.3086 Y10.2722
G01 X31.3022 Y10.3159
G01 X31.3000 Y10.3600
G01 X31.3022 Y10.4041
G01 X31.3086 Y10.4478
G01 X31.3194 Y10.4906
G01 X31.3343 Y10.5322
G01 X31.3531 Y10.5721
G01 X31.3758 Y10.6100
G01 X31.4021 Y10.6455
G01 X31.4318 Y10.6782
G01 X31.4645 Y10.7079
G01 X31.5000 Y10.7342
G01 X31.5379 Y10.7569
G01 X31.5778 Y10.7757
G01 X31.6194 Y10.7906
G01 X31.6622 Y10.8014
G01 X31.7059 Y10.8078
G01 X31.7500 Y10.8100
G01 X31.7941 Y10.8078
G01 X31.8378 Y10.8014
G01 X31.8806 Y10.7906
G01 X31.9222 Y10.7757
G01 X31.9621 Y10.7569
G01 X32.0000 Y10.7342
G01 X32.0355 Y10.7079
G01 X32.0682 Y10.6782
G01 X32.0979 Y10.6455
G01 X32.1242 Y10.6100
G01 X32.1469 Y10.5721
G01 X32.1657 Y10.5322
G01 X32.1806 Y10.4906
G01 X32.1914 Y10.4478
G01 X32.1978 Y10.4041
G01 X32.2000 Y10.3600
G00 Z2.0000
G00 X32.2000 Y22.8600
G01 F25.00
G01 Z-1.6000
G01 F80.00
G01 X32.1978 Y22.8159
G01 X32.1914 Y22.7722
G01 X32.1806 Y22.7294
G01 X32.1657 Y22.6878
G01 X32.1469 Y22.6479
G01 X32.1242 Y22.6100
G01 X32.0979 Y22.5745
G01 X32.0682 Y22.5418
G01 X32.0355 Y22.5121
G01 X32.0000 Y22.4858
G01 X31.9621 Y22.4631
G01 X31.9222 Y22.4443
G01 X31.8806 Y22.4294
G01 X31.8378 Y22.4186
G01 X31.7941 Y22.4122
G01 X31.7500 Y22.4100
G01 X31.7059 Y22.4122
G01 X31.6622 Y22.4186
G01 X31.6194 Y22.4294
G01 X31.5778 Y22.4443
G01 X31.5379 Y22.4631
G01 X31.5000 Y22.4858
G01 X31.4645 Y22.5121
G01 X31.4318 Y22.5418
G01 X31.4021 Y22.5745
G01 X31.3758 Y22.6100
G01 X31.3531 Y22.6479
G01 X31.3343 Y22.6878
G01 X31.3194 Y22.7294
G01 X31.3086 Y22.7722
G01 X31.3022 Y22.8159
G01 X31.3000 Y22.8600
G01 X31.3022 Y22.9041
G01 X31.3086 Y22.9478
G01 X31.3194 Y22.9906
G01 X31.3343 Y23.0322
G01 X31.3531 Y23.0721
G01 X31.3758 Y23.1100
G01 X31.4021 Y23.1455
G01 X31.4318 Y23.1782
G01 X31.4645 Y23.2079
G01 X31.5000 Y23.2342
G01 X31.5379 Y23.2569
G01 X31.5778 Y23.2757
G01 X31.6194 Y23.2906
G01 X31.6622 Y23.3014
G01 X31.7059 Y23.3078
G01 X31.7500 Y23.3100
G01 X31.7941 Y23.3078
G01 X31.8378 Y23.3014
G01 X31.8806 Y23.2906
G01 X31.9222 Y23.2757
G01 X31.9621 Y23.2569
G01 X32.0000 Y23.2342
G01 X32.0355 Y23.2079
G01 X32.0682 Y23.1782
G01 X32.0979 Y23.1455
G01 X32.1242 Y23.1100
G01 X32.1469 Y23.0721
G01 X32.1657 Y23.0322
G01 X32.1806 Y22.9906
G01 X32.1914 Y22.9478
G01 X32.1978 Y22.9041
G01 X32.2000 Y22.8600
G00 Z2.0000
G00 X28.4000 Y22.8600
G01 F25.00
G01 Z-1.6000
G01 F80.00
G01 X28.3978 Y22.8159
G01 X28.3914 Y22.7722
G01 X28.3806 Y22.7294
G01 X28.3657 Y22.6878
G01 X28.3469 Y22.6479
G01 X28.3242 Y22.6100
G01 X28.2979 Y22.5745
G01 X28.2682 Y22.5418
G01 X28.2355 Y22.5121
G01 X28.2000 Y22.4858
G01 X28.1621 Y22.4631
G01 X28.1222 Y22.4443
G01 X28.0806 Y22.4294
G01 X28.0378 Y22.4186
G01 X27.9941 Y22.4122
G01 X27.9500 Y22.4100
G01 X27.9059 Y22.4122
G01 X27.8622 Y22.4186
G01 X27.8194 Y22.4294
G01 X27.7778 Y22.4443
G01 X27.7379 Y22.4631
G01 X27.7000 Y22.4858
G01 X27.6645 Y22.5121
G01 X27.6318 Y22.5418
G01 X27.6021 Y22.5745
G01 X27.5758 Y22.6100
G01 X27.5531 Y22.6479
G01 X27.5343 Y22.6878
G01 X27.5194 Y22.7294
G01 X27.5086 Y22.7722
G01 X27.5022 Y22.8159
G01 X27.5000 Y22.8600
G01 X27.5022 Y22.9041
G01 X27.5086 Y22.9478
G01 X27.5194 Y22.9906
G01 X27.5343 Y23.0322
G01 X27.5531 Y23.0721
G01 X27.5758 Y23.1100
G01 X27.6021 Y23.1455
G01 X27.6318 Y23.1782
G01 X27.6645 Y23.2079
G01 X27.7000 Y23.2342
G01 X27.7379 Y23.2569
G01 X27.7778 Y23.2757
G01 X27.8194 Y23.2906
G01 X27.8622 Y23.3014
G01 X27.9059 Y23.3078
G01 X27.9500 Y23.3100
G01 X27.9941 Y23.3078
G01 X28.0378 Y23.3014
G01 X28.0806 Y23.2906
G01 X28.1222 Y23.2757
G01 X28.1621 Y23.2569
G01 X28.2000 Y23.2342
G01 X28.2355 Y23.2079
G01 X28.2682 Y23.1782
G01 X28.2979 Y23.1455
G01 X28.3242 Y23.1100
G01 X28.3469 Y23.0721
G01 X28.3657 Y23.0322
G01 X28.3806 Y22.9906
G01 X28.3914 Y22.9478
G01 X28.3978 Y22.9041
G01 X28.4000 Y22.8600
G00 Z2.0000
G00 X22.2000 Y22.8600
G01 F25.00
G01 Z-1.6000
G01 F80.00
G01 X22.1978 Y22.8159
G01 X22.1914 Y22.7722
G01 X22.1806 Y22.7294
G01 X22.1657 Y22.6878
G01 X22.1469 Y22.6479
G01 X22.1242 Y22.6100
G01 X22.0979 Y22.5745
G01 X22.0682 Y22.5418
G01 X22.0355 Y22.5121
G01 X22.0000 Y22.4858
G01 X21.9621 Y22.4631
G01 X21.9222 Y22.4443
G01 X21.8806 Y22.4294
G01 X21.8378 Y22.4186
G01 X21.7941 Y22.4122
G01 X21.7500 Y22.4100
G01 X21.7059 Y22.4122
G01 X21.6622 Y22.4186
G01 X21.6194 Y22.4294
G01 X21.5778 Y22.4443
G01 X21.5379 Y22.4631
G01 X21.5000 Y22.4858
G01 X21.4645 Y22.5121
G01 X21.4318 Y22.5418
G01 X21.4021 Y22.5745
G01 X21.3758 Y22.6100
G01 X21.3531 Y22.6479
G01 X21.3343 Y22.6878
G01 X21.3194 Y22.7294
G01 X21.3086 Y22.7722
G01 X21.3022 Y22.8159
G01 X21.3000 Y22.8600
G01 X21.3022 Y22.9041
G01 X21.3086 Y22.9478
G01 X21.3194 Y22.9906
G01 X21.3343 Y23.0322
G01 X21.3531 Y23.0721
G01 X21.3758 Y23.1100
G01 X21.4021 Y23.1455
G01 X21.4318 Y23.1782
G01 X21.4645 Y23.2079
G01 X21.5000 Y23.2342
G01 X21.5379 Y23.2569
G01 X21.5778 Y23.2757
G01 X21.6194 Y23.2906
G01 X21.6622 Y23.3014
G01 X21.7059 Y23.3078
G01 X21.7500 Y23.3100
G01 X21.7941 Y23.3078
G01 X21.8378 Y23.3014
G01 X21.8806 Y23.2906
G01 X21.9222 Y23.2757
G01 X21.9621 Y23.2569
G01 X22.0000 Y23.2342
G01 X22.0355 Y23.2079
G01 X22.0682 Y23.1782
G01 X22.0979 Y23.1455
G01 X22.1242 Y23.1100
G01 X22.1469 Y23.0721
G01 X22.1657 Y23.0322
G01 X22.1806 Y22.9906
G01 X22.1914 Y22.9478
G01 X22.1978 Y22.9041
G01 X22.2000 Y22.8600
G00 Z2.0000
G00 X18.4000 Y22.8600
G01 F25.00
G01 Z-1.6000
G01 F80.00
G01 X18.3978 Y22.8159
G01 X18.3914 Y22.7722
G01 X18.3806 Y22.7294
G01 X18.3657 Y22.6878
G01 X18.3469 Y22.6479
G01 X18.3242 Y22.6100
G01 X18.2979 Y22.5745
G01 X18.2682 Y22.5418
G01 X18.2355 Y22.5121
G01 X18.2000 Y22.4858
G01 X18.1621 Y22.4631
G01 X18.1222 Y22.4443
G01 X18.0806 Y22.4294
G01 X18.0378 Y22.4186
G01 X17.9941 Y22.4122
G01 X17.9500 Y22.4100
G01 X17.9059 Y22.4122
G01 X17.8622 Y22.4186
G01 X17.8194 Y22.4294
G01 X17.7778 Y22.4443
G01 X17.7379 Y22.4631
G01 X17.7000 Y22.4858
G01 X17.6645 Y22.5121
G01 X17.6318 Y22.5418
G01 X17.6021 Y22.5745
G01 X17.5758 Y22.6100
G01 X17.5531 Y22.6479
G01 X17.5343 Y22.6878
G01 X17.5194 Y22.7294
G01 X17.5086 Y22.7722
G01 X17.5022 Y22.8159
G01 X17.5000 Y22.8600
G01 X17.5022 Y22.9041
G01 X17.5086 Y22.9478
G01 X17.5194 Y22.9906
G01 X17.5343 Y23.0322
G01 X17.5531 Y23.0721
G01 X17.5758 Y23.1100
G01 X17.6021 Y23.1455
G01 X17.6318 Y23.1782
G01 X17.6645 Y23.2079
G01 X17.7000 Y23.2342
G01 X17.7379 Y23.2569
G01 X17.7778 Y23.2757
G01 X17.8194 Y23.2906
G01 X17.8622 Y23.3014
G01 X17.9059 Y23.3078
G01 X17.9500 Y23.3100
G01 X17.9941 Y23.3078
G01 X18.0378 Y23.3014
G01 X18.0806 Y23.2906
G01 X18.1222 Y23.2757
G01 X18.1621 Y23.2569
G01 X18.2000 Y23.2342
G01 X18.2355 Y23.2079
G01 X18.2682 Y23.1782
G01 X18.2979 Y23.1455
G01 X18.3242 Y23.1100
G01 X18.3469 Y23.0721
G01 X18.3657 Y23.0322
G01 X18.3806 Y22.9906
G01 X18.3914 Y22.9478
G01 X18.3978 Y22.9041
G01 X18.4000 Y22.8600
G00 Z2.0000
G00 X48.0900 Y3.8100
G01 F25.00
G01 Z-1.6000
G01 F80.00
G01 X48.0847 Y3.7022
G01 X48.0689 Y3.5954
G01 X48.0426 Y3.4907
G01 X48.0063 Y3.3890
G01 X47.9601 Y3.2915
G01 X47.9046 Y3.1989
G01 X47.8403 Y3.1122
G01 X47.7678 Y3.0322
G01 X47.6878 Y2.9597
G01 X47.6011 Y2.8954
G01 X47.5085 Y2.8399
G01 X47.4110 Y2.7937
G01 X47.3093 Y2.7574
G01 X47.2046 Y2.7311
G01 X47.0978 Y2.7153
G01 X46.9900 Y2.7100
G01 X46.8822 Y2.7153
G01 X46.7754 Y2.7311
G01 X46.6707 Y2.7574
G01 X46.5690 Y2.7937
G01 X46.4715 Y2.8399
G01 X46.3789 Y2.8954
G01 X46.2922 Y2.9597
G01 X46.2122 Y3.0322
G01 X46.1397 Y3.1122
G01 X46.0754 Y3.1989
G01 X46.0199 Y3.2915
G01 X45.9737 Y3.3890
G01 X45.9374 Y3.4907
G01 X45.9111 Y3.5954
G01 X45.8953 Y3.7022
G01 X45.8900 Y3.8100
G01 X45.8953 Y3.9178
G01 X45.9111 Y4.0246
G01 X45.9374 Y4.1293
G01 X45.9737 Y4.2310
G01 X46.0199 Y4.3285
G01 X46.0754 Y4.4211
G01 X46.1397 Y4.5078
G01 X46.2122 Y4.5878
G01 X46.2922 Y4.6603
G01 X46.3789 Y4.7246
G01 X46.4715 Y4.7801
G01 X46.5690 Y4.8263
G01 X46.6707 Y4.8626
G01 X46.7754 Y4.8889
G01 X46.8822 Y4.9047
G01 X46.9900 Y4.9100
G01 X47.0978 Y4.9047
G01 X47.2046 Y4.8889
G01 X47.3093 Y4.8626
G01 X47.4110 Y4.8263
G01 X47.5085 Y4.7801
G01 X47.6011 Y4.7246
G01 X47.6878 Y4.6603
G01 X47.7678 Y4.5878
G01 X47.8403 Y4.5078
G01 X47.9046 Y4.4211
G01 X47.9601 Y4.3285
G01 X48.0063 Y4.2310
G01 X48.0426 Y4.1293
G01 X48.0689 Y4.0246
G01 X48.0847 Y3.9178
G01 X48.0900 Y3.8100
G00 Z2.0000
G00 X48.0900 Y55.8800
G01 F25.00
G01 Z-1.6000
G01 F80.00
G01 X48.0847 Y55.7722
G01 X48.0689 Y55.6654
G01 X48.0426 Y55.5607
G01 X48.0063 Y55.4590
G01 X47.9601 Y55.3615
G01 X47.9046 Y55.2689
G01 X47.8403 Y55.1822
G01 X47.7678 Y55.1022
G01 X47.6878 Y55.0297
G01 X47.6011 Y54.9654
G01 X47.5085 Y54.9099
G01 X47.4110 Y54.8637
G01 X47.3093 Y54.8274
G01 X47.2046 Y54.8011
G01 X47.0978 Y54.7853
G01 X46.9900 Y54.7800
G01 X46.8822 Y54.7853
G01 X46.7754 Y54.8011
G01 X46.6707 Y54.8274
G01 X46.5690 Y54.8637
G01 X46.4715 Y54.9099
G01 X46.3789 Y54.9654
G01 X46.2922 Y55.0297
G01 X46.2122 Y55.1022
G01 X46.1397 Y55.1822
G01 X46.0754 Y55.2689
G01 X46.0199 Y55.3615
G01 X45.9737 Y55.4590
G01 X45.9374 Y55.5607
G01 X45.9111 Y55.6654
G01 X45.8953 Y55.7722
G01 X45.8900 Y55.8800
G01 X45.8953 Y55.9878
G01 X45.9111 Y56.0946
G01 X45.9374 Y56.1993
G01 X45.9737 Y56.3010
G01 X46.0199 Y56.3985
G01 X46.0754 Y56.4911
G01 X46.1397 Y56.5778
G01 X46.2122 Y56.6578
G01 X46.2922 Y56.7303
G01 X46.3789 Y56.7946
G01 X46.4715 Y56.8501
G01 X46.5690 Y56.8963
G01 X46.6707 Y56.9326
G01 X46.7754 Y56.9589
G01 X46.8822 Y56.9747
G01 X46.9900 Y56.9800
G01 X47.0978 Y56.9747
G01 X47.2046 Y56.9589
G01 X47.3093 Y56.9326
G01 X47.4110 Y56.8963
G01 X47.5085 Y56.8501
G01 X47.6011 Y56.7946
G01 X47.6878 Y56.7303
G01 X47.7678 Y56.6578
G01 X47.8403 Y56.5778
G01 X47.9046 Y56.4911
G01 X47.9601 Y56.3985
G01 X48.0063 Y56.3010
G01 X48.0426 Y56.1993
G01 X48.0689 Y56.0946
G01 X48.0847 Y55.9878
G01 X48.0900 Y55.8800
G00 Z2.0000
G00 X4.9100 Y55.8800
G01 F25.00
G01 Z-1.6000
G01 F80.00
G01 X4.9047 Y55.7722
G01 X4.8889 Y55.6654
G01 X4.8626 Y55.5607
G01 X4.8263 Y55.4590
G01 X4.7801 Y55.3615
G01 X4.7246 Y55.2689
G01 X4.6603 Y55.1822
G01 X4.5878 Y55.1022
G01 X4.5078 Y55.0297
G01 X4.4211 Y54.9654
G01 X4.3285 Y54.9099
G01 X4.2310 Y54.8637
G01 X4.1293 Y54.8274
G01 X4.0246 Y54.8011
G01 X3.9178 Y54.7853
G01 X3.8100 Y54.7800
G01 X3.7022 Y54.7853
G01 X3.5954 Y54.8011
G01 X3.4907 Y54.8274
G01 X3.3890 Y54.8637
G01 X3.2915 Y54.9099
G01 X3.1989 Y54.9654
G01 X3.1122 Y55.0297
G01 X3.0322 Y55.1022
G01 X2.9597 Y55.1822
G01 X2.8954 Y55.2689
G01 X2.8399 Y55.3615
G01 X2.7937 Y55.4590
G01 X2.7574 Y55.5607
G01 X2.7311 Y55.6654
G01 X2.7153 Y55.7722
G01 X2.7100 Y55.8800
G01 X2.7153 Y55.9878
G01 X2.7311 Y56.0946
G01 X2.7574 Y56.1993
G01 X2.7937 Y56.3010
G01 X2.8399 Y56.3985
G01 X2.8954 Y56.4911
G01 X2.9597 Y56.5778
G01 X3.0322 Y56.6578
G01 X3.1122 Y56.7303
G01 X3.1989 Y56.7946
G01 X3.2915 Y56.8501
G01 X3.3890 Y56.8963
G01 X3.4907 Y56.9326
G01 X3.5954 Y56.9589
G01 X3.7022 Y56.9747
G01 X3.8100 Y56.9800
G01 X3.9178 Y56.9747
G01 X4.0246 Y56.9589
G01 X4.1293 Y56.9326
G01 X4.2310 Y56.8963
G01 X4.3285 Y56.8501
G01 X4.4211 Y56.7946
G01 X4.5078 Y56.7303
G01 X4.5878 Y56.6578
G01 X4.6603 Y56.5778
G01 X4.7246 Y56.4911
G01 X4.7801 Y56.3985
G01 X4.8263 Y56.3010
G01 X4.8626 Y56.1993
G01 X4.8889 Y56.0946
G01 X4.9047 Y55.9878
G01 X4.9100 Y55.8800
G00 Z2.0000
M05
G00 Z2.0000
G00 Z5.00


