(G-CODE GENERATED BY FLATCAM v8.994 - www.flatcam.org - Version Date: 2020/11/7)

(Name: zvire-vetrnik-current-sensor-B_Cu.gbr_iso_combined_cnc)
(Type: G-code from Geometry)
(Units: MM)

(Created on Sobota, 17 prosince 2022 at 20:15)

(This preprocessor is the default preprocessor used by FlatCAM.)
(It is made to work with MACH3 compatible motion controllers.)

(TOOL DIAMETER: 0.4 mm)
(Feedrate_XY: 240.0 mm/min)
(Feedrate_Z: 80.0 mm/min)
(Feedrate rapids 1500.0 mm/min)

(Z_Cut: -0.2239 mm)
(Z_Move: 2.0 mm)
(Z Start: None mm)
(Z End: 5.0 mm)
(X,Y End: None mm)
(Steps per circle: 64)
(Preprocessor Geometry: default)

(X range:    0.5099 ...   50.2901  mm)
(Y range:    0.5099 ...   59.1801  mm)

(Spindle Speed: 10000.0 RPM)
G21
G90
G94

G01 F240.00

M5
G00 Z15.0000
G00 X0.0000 Y0.0000
T2
M6    
(MSG, Change to Tool Dia = 0.4000)
M0
G00 Z15.0000

M03 S10000.0
G4 P1.0
G01 F240.00
G00 X0.7899 Y7.7470
G01 F80.00
G01 Z-0.2239
G01 F240.00
G01 X0.7905 Y7.7234
G01 X0.7929 Y7.6875
G01 X0.7976 Y7.6518
G01 X0.8016 Y7.6286
G01 X0.8068 Y7.6056
G01 X0.8161 Y7.5708
G01 X0.8235 Y7.5484
G01 X0.8318 Y7.5256
G01 X0.8408 Y7.5039
G01 X0.8562 Y7.4713
G01 X0.8673 Y7.4505
G01 X0.8858 Y7.4196
G01 X0.8989 Y7.4000
G01 X0.9204 Y7.3711
G01 X0.9353 Y7.3529
G01 X0.9515 Y7.3348
G01 X0.9677 Y7.3177
G01 X0.9848 Y7.3015
G01 X1.0119 Y7.2777
G01 X1.0305 Y7.2632
G01 X1.0500 Y7.2489
G01 X1.0696 Y7.2358
G01 X1.1005 Y7.2173
G01 X1.1213 Y7.2062
G01 X1.1431 Y7.1957
G01 X1.1647 Y7.1861
G01 X1.1867 Y7.1777
G01 X1.2208 Y7.1661
G01 X1.2556 Y7.1568
G01 X1.2786 Y7.1516
G01 X1.3018 Y7.1476
G01 X1.3375 Y7.1429
G01 X1.3734 Y7.1405
G01 X1.3970 Y7.1399
G01 X7.1399 Y7.1399
G01 X7.1399 Y1.3970
G01 X7.1405 Y1.3734
G01 X7.1418 Y1.3492
G01 X7.1442 Y1.3258
G01 X7.1476 Y1.3018
G01 X7.1516 Y1.2786
G01 X7.1568 Y1.2556
G01 X7.1628 Y1.2321
G01 X7.1696 Y1.2095
G01 X7.1777 Y1.1867
G01 X7.1861 Y1.1647
G01 X7.1957 Y1.1431
G01 X7.2062 Y1.1213
G01 X7.2173 Y1.1005
G01 X7.2296 Y1.0796
G01 X7.2422 Y1.0597
G01 X7.2489 Y1.0500
G01 X7.2632 Y1.0305
G01 X7.2777 Y1.0119
G01 X7.2931 Y0.9940
G01 X7.3095 Y0.9762
G01 X7.3177 Y0.9677
G01 X7.3348 Y0.9515
G01 X7.3529 Y0.9353
G01 X7.3711 Y0.9204
G01 X7.3905 Y0.9058
G01 X7.4097 Y0.8922
G01 X7.4296 Y0.8796
G01 X7.4505 Y0.8673
G01 X7.4713 Y0.8562
G01 X7.4931 Y0.8457
G01 X7.5147 Y0.8361
G01 X7.5367 Y0.8277
G01 X7.5595 Y0.8196
G01 X7.5821 Y0.8128
G01 X7.6056 Y0.8068
G01 X7.6286 Y0.8016
G01 X7.6641 Y0.7957
G01 X7.6875 Y0.7929
G01 X7.6992 Y0.7918
G01 X7.7234 Y0.7905
G01 X7.7470 Y0.7899
G01 X24.0148 Y0.7901
G01 X24.0390 Y0.7911
G01 X24.0625 Y0.7929
G01 X24.0859 Y0.7957
G01 X24.1099 Y0.7994
G01 X24.1330 Y0.8040
G01 X24.1444 Y0.8068
G01 X24.1679 Y0.8128
G01 X24.1905 Y0.8196
G01 X24.2133 Y0.8277
G01 X24.2353 Y0.8361
G01 X24.2569 Y0.8457
G01 X24.2787 Y0.8562
G01 X24.2995 Y0.8673
G01 X24.3204 Y0.8796
G01 X24.3403 Y0.8922
G01 X24.3595 Y0.9058
G01 X24.3789 Y0.9204
G01 X24.3971 Y0.9353
G01 X24.4152 Y0.9515
G01 X24.4323 Y0.9677
G01 X24.4485 Y0.9848
G01 X24.4647 Y1.0029
G01 X24.4796 Y1.0211
G01 X24.4942 Y1.0405
G01 X24.5078 Y1.0597
G01 X24.5204 Y1.0796
G01 X24.5327 Y1.1005
G01 X24.5438 Y1.1213
G01 X24.5543 Y1.1431
G01 X24.5639 Y1.1647
G01 X24.5723 Y1.1867
G01 X24.5804 Y1.2095
G01 X24.5872 Y1.2321
G01 X24.5932 Y1.2556
G01 X24.5984 Y1.2786
G01 X24.6024 Y1.3018
G01 X24.6058 Y1.3258
G01 X24.6082 Y1.3492
G01 X24.6095 Y1.3734
G01 X24.6101 Y1.3970
G01 X24.6101 Y9.7653
G01 X24.6089 Y9.8034
G01 X24.6066 Y9.8302
G01 X24.6039 Y9.8510
G01 X24.6002 Y9.8742
G01 X24.5947 Y9.9006
G01 X24.5898 Y9.9209
G01 X24.5823 Y9.9467
G01 X24.5717 Y9.9776
G01 X24.5662 Y9.9917
G01 X24.5570 Y10.0134
G01 X24.5428 Y10.0429
G01 X24.5358 Y10.0562
G01 X24.5193 Y10.0845
G01 X24.5047 Y10.1071
G01 X24.4926 Y10.1241
G01 X24.4762 Y10.1455
G01 X24.4611 Y10.1635
G01 X24.4471 Y10.1791
G01 X24.4284 Y10.1984
G01 X24.4044 Y10.2206
G01 X24.3930 Y10.2305
G01 X24.3673 Y10.2508
G01 X24.3482 Y10.2646
G01 X24.3357 Y10.2730
G01 X24.3079 Y10.2902
G01 X24.2843 Y10.3032
G01 X24.2656 Y10.3125
G01 X24.2442 Y10.3223
G01 X24.2192 Y10.3324
G01 X24.1996 Y10.3396
G01 X24.1740 Y10.3477
G01 X24.1424 Y10.3561
G01 X24.1245 Y10.3600
G01 X24.1419 Y10.3638
G01 X24.1763 Y10.3730
G01 X24.1985 Y10.3801
G01 X24.2210 Y10.3883
G01 X24.2427 Y10.3970
G01 X24.2638 Y10.4067
G01 X24.2853 Y10.4174
G01 X24.3057 Y10.4286
G01 X24.3262 Y10.4410
G01 X24.3458 Y10.4537
G01 X24.3745 Y10.4748
G01 X24.3927 Y10.4893
G01 X24.4102 Y10.5047
G01 X24.4360 Y10.5293
G01 X24.4519 Y10.5463
G01 X24.4678 Y10.5643
G01 X24.4824 Y10.5824
G01 X24.4967 Y10.6017
G01 X24.5100 Y10.6208
G01 X24.5223 Y10.6406
G01 X24.5344 Y10.6613
G01 X24.5452 Y10.6819
G01 X24.5603 Y10.7142
G01 X24.5691 Y10.7357
G01 X24.5773 Y10.7583
G01 X24.5845 Y10.7804
G01 X24.5906 Y10.8029
G01 X24.5987 Y10.8376
G01 X24.6026 Y10.8606
G01 X24.6059 Y10.8843
G01 X24.6082 Y10.9075
G01 X24.6095 Y10.9315
G01 X24.6101 Y10.9547
G01 X24.6099 Y22.2769
G01 X24.6089 Y22.3009
G01 X24.6072 Y22.3241
G01 X24.6044 Y22.3472
G01 X24.5987 Y22.3824
G01 X24.5906 Y22.4171
G01 X24.5845 Y22.4396
G01 X24.5773 Y22.4617
G01 X24.5691 Y22.4843
G01 X24.5603 Y22.5058
G01 X24.5452 Y22.5381
G01 X24.5344 Y22.5587
G01 X24.5223 Y22.5794
G01 X24.5100 Y22.5992
G01 X24.4967 Y22.6183
G01 X24.4824 Y22.6376
G01 X24.4678 Y22.6557
G01 X24.4519 Y22.6737
G01 X24.4360 Y22.6907
G01 X24.4193 Y22.7070
G01 X24.3927 Y22.7307
G01 X24.3647 Y22.7527
G01 X24.3458 Y22.7663
G01 X24.3262 Y22.7790
G01 X24.3057 Y22.7914
G01 X24.2853 Y22.8026
G01 X24.2638 Y22.8133
G01 X24.2427 Y22.8230
G01 X24.2210 Y22.8317
G01 X24.1985 Y22.8399
G01 X24.1763 Y22.8470
G01 X24.1419 Y22.8562
G01 X24.1244 Y22.8600
G01 X24.1419 Y22.8638
G01 X24.1763 Y22.8730
G01 X24.1985 Y22.8801
G01 X24.2210 Y22.8883
G01 X24.2427 Y22.8970
G01 X24.2638 Y22.9067
G01 X24.2853 Y22.9174
G01 X24.3057 Y22.9286
G01 X24.3262 Y22.9410
G01 X24.3458 Y22.9537
G01 X24.3745 Y22.9748
G01 X24.3927 Y22.9893
G01 X24.4102 Y23.0047
G01 X24.4360 Y23.0293
G01 X24.4519 Y23.0463
G01 X24.4678 Y23.0643
G01 X24.4824 Y23.0824
G01 X24.4967 Y23.1017
G01 X24.5100 Y23.1208
G01 X24.5223 Y23.1406
G01 X24.5344 Y23.1613
G01 X24.5452 Y23.1819
G01 X24.5603 Y23.2142
G01 X24.5691 Y23.2357
G01 X24.5773 Y23.2583
G01 X24.5845 Y23.2804
G01 X24.5906 Y23.3029
G01 X24.5987 Y23.3376
G01 X24.6044 Y23.3728
G01 X24.6072 Y23.3959
G01 X24.6089 Y23.4191
G01 X24.6099 Y23.4431
G01 X24.6101 Y26.8322
G01 X24.6095 Y26.8557
G01 X24.6072 Y26.8915
G01 X24.6043 Y26.9148
G01 X24.6006 Y26.9386
G01 X24.5985 Y26.9502
G01 X24.5934 Y26.9731
G01 X24.5841 Y27.0077
G01 X24.5768 Y27.0300
G01 X24.5686 Y27.0527
G01 X24.5642 Y27.0636
G01 X24.5548 Y27.0851
G01 X24.5390 Y27.1173
G01 X24.5275 Y27.1377
G01 X24.5150 Y27.1584
G01 X24.5020 Y27.1779
G01 X24.4951 Y27.1875
G01 X24.4734 Y27.2160
G01 X24.4581 Y27.2338
G01 X24.4418 Y27.2516
G01 X24.4337 Y27.2601
G01 X24.4167 Y27.2763
G01 X24.3988 Y27.2925
G01 X24.3807 Y27.3074
G01 X24.3615 Y27.3220
G01 X24.3424 Y27.3356
G01 X24.3120 Y27.3546
G01 X24.3019 Y27.3606
G01 X24.2812 Y27.3717
G01 X24.2595 Y27.3823
G01 X24.2422 Y27.3902
G01 X24.3221 Y27.4493
G01 X24.3313 Y27.4567
G01 X24.3491 Y27.4721
G01 X24.4036 Y27.5215
G01 X24.4207 Y27.5377
G01 X24.4369 Y27.5548
G01 X24.4864 Y27.6093
G01 X24.5018 Y27.6272
G01 X24.5163 Y27.6457
G01 X24.5601 Y27.7049
G01 X24.5737 Y27.7241
G01 X24.5863 Y27.7440
G01 X24.6241 Y27.8072
G01 X24.6357 Y27.8277
G01 X24.6463 Y27.8487
G01 X24.6778 Y27.9152
G01 X24.6873 Y27.9368
G01 X24.6958 Y27.9588
G01 X24.7206 Y28.0281
G01 X24.7280 Y28.0504
G01 X24.7343 Y28.0731
G01 X24.7522 Y28.1445
G01 X24.7573 Y28.1675
G01 X24.7613 Y28.1907
G01 X24.7721 Y28.2635
G01 X24.7737 Y28.2752
G01 X24.7760 Y28.2987
G01 X24.7808 Y28.3957
G01 X24.7810 Y28.4075
G01 X24.7804 Y28.4310
G01 X24.7768 Y28.5045
G01 X24.7750 Y28.5280
G01 X24.7721 Y28.5514
G01 X24.7595 Y28.6359
G01 X24.7549 Y28.6590
G01 X24.7522 Y28.6704
G01 X24.7313 Y28.7532
G01 X24.7244 Y28.7758
G01 X24.7014 Y28.8405
G01 X24.7304 Y29.0355
G01 X24.7332 Y29.0589
G01 X24.7350 Y29.0824
G01 X24.7494 Y29.3764
G01 X24.7500 Y29.4000
G01 X24.7494 Y29.4236
G01 X24.7350 Y29.7176
G01 X24.7332 Y29.7411
G01 X24.7304 Y29.7645
G01 X24.7014 Y29.9595
G01 X24.7206 Y30.0131
G01 X24.7280 Y30.0355
G01 X24.7343 Y30.0582
G01 X24.7549 Y30.1410
G01 X24.7595 Y30.1641
G01 X24.7613 Y30.1758
G01 X24.7721 Y30.2486
G01 X24.7750 Y30.2720
G01 X24.7768 Y30.2955
G01 X24.7804 Y30.3690
G01 X24.7810 Y30.3925
G01 X24.7804 Y30.4161
G01 X24.7768 Y30.4896
G01 X24.7750 Y30.5131
G01 X24.7721 Y30.5365
G01 X24.7595 Y30.6209
G01 X24.7573 Y30.6325
G01 X24.7522 Y30.6555
G01 X24.7343 Y30.7269
G01 X24.7280 Y30.7496
G01 X24.7206 Y30.7719
G01 X24.6958 Y30.8412
G01 X24.6873 Y30.8632
G01 X24.6778 Y30.8848
G01 X24.6463 Y30.9513
G01 X24.6357 Y30.9723
G01 X24.6241 Y30.9928
G01 X24.5863 Y31.0560
G01 X24.5737 Y31.0759
G01 X24.5601 Y31.0951
G01 X24.5163 Y31.1543
G01 X24.5018 Y31.1728
G01 X24.4864 Y31.1907
G01 X24.4369 Y31.2452
G01 X24.4207 Y31.2623
G01 X24.4036 Y31.2785
G01 X24.3491 Y31.3279
G01 X24.3313 Y31.3433
G01 X24.3127 Y31.3578
G01 X24.2422 Y31.4098
G01 X24.2595 Y31.4177
G01 X24.2812 Y31.4283
G01 X24.3019 Y31.4394
G01 X24.3226 Y31.4518
G01 X24.3424 Y31.4644
G01 X24.3520 Y31.4711
G01 X24.3714 Y31.4854
G01 X24.3899 Y31.4999
G01 X24.4076 Y31.5153
G01 X24.4253 Y31.5317
G01 X24.4418 Y31.5484
G01 X24.4581 Y31.5662
G01 X24.4734 Y31.5840
G01 X24.4807 Y31.5932
G01 X24.4951 Y31.6125
G01 X24.5086 Y31.6318
G01 X24.5211 Y31.6516
G01 X24.5333 Y31.6724
G01 X24.5444 Y31.6931
G01 X24.5495 Y31.7037
G01 X24.5596 Y31.7256
G01 X24.5686 Y31.7473
G01 X24.5768 Y31.7700
G01 X24.5841 Y31.7923
G01 X24.5904 Y31.8149
G01 X24.5961 Y31.8384
G01 X24.6006 Y31.8614
G01 X24.6025 Y31.8730
G01 X24.6072 Y31.9085
G01 X24.6089 Y31.9319
G01 X24.6099 Y31.9560
G01 X24.6101 Y46.8630
G01 X24.6089 Y46.8990
G01 X24.6082 Y46.9108
G01 X24.6058 Y46.9342
G01 X24.6024 Y46.9582
G01 X24.5984 Y46.9814
G01 X24.5932 Y47.0044
G01 X24.5839 Y47.0392
G01 X24.5723 Y47.0733
G01 X24.5639 Y47.0953
G01 X24.5543 Y47.1169
G01 X24.5438 Y47.1387
G01 X24.5327 Y47.1595
G01 X24.5204 Y47.1804
G01 X24.5078 Y47.2003
G01 X24.4942 Y47.2195
G01 X24.4796 Y47.2389
G01 X24.4647 Y47.2571
G01 X24.4405 Y47.2838
G01 X24.4238 Y47.3005
G01 X24.4060 Y47.3169
G01 X24.3881 Y47.3323
G01 X24.3595 Y47.3542
G01 X24.3403 Y47.3678
G01 X24.3204 Y47.3804
G01 X24.2892 Y47.3984
G01 X24.2681 Y47.4090
G01 X24.2461 Y47.4192
G01 X24.2244 Y47.4282
G01 X24.2016 Y47.4365
G01 X24.1792 Y47.4439
G01 X24.1565 Y47.4502
G01 X24.1330 Y47.4560
G01 X24.1099 Y47.4606
G01 X24.0742 Y47.4658
G01 X24.0508 Y47.4682
G01 X24.0266 Y47.4695
G01 X24.0030 Y47.4701
G01 X18.2601 Y47.4701
G01 X18.2599 Y58.3048
G01 X18.2589 Y58.3290
G01 X18.2571 Y58.3525
G01 X18.2543 Y58.3759
G01 X18.2506 Y58.3999
G01 X18.2460 Y58.4230
G01 X18.2432 Y58.4344
G01 X18.2372 Y58.4579
G01 X18.2304 Y58.4805
G01 X18.2223 Y58.5033
G01 X18.2139 Y58.5253
G01 X18.2043 Y58.5469
G01 X18.1938 Y58.5687
G01 X18.1827 Y58.5895
G01 X18.1704 Y58.6104
G01 X18.1578 Y58.6303
G01 X18.1442 Y58.6495
G01 X18.1296 Y58.6689
G01 X18.1147 Y58.6871
G01 X18.0985 Y58.7052
G01 X18.0823 Y58.7223
G01 X18.0652 Y58.7385
G01 X18.0471 Y58.7547
G01 X18.0289 Y58.7696
G01 X18.0095 Y58.7842
G01 X17.9903 Y58.7978
G01 X17.9704 Y58.8104
G01 X17.9495 Y58.8227
G01 X17.9287 Y58.8338
G01 X17.9069 Y58.8443
G01 X17.8853 Y58.8539
G01 X17.8633 Y58.8623
G01 X17.8405 Y58.8704
G01 X17.8179 Y58.8772
G01 X17.7944 Y58.8832
G01 X17.7714 Y58.8884
G01 X17.7482 Y58.8924
G01 X17.7242 Y58.8958
G01 X17.7008 Y58.8982
G01 X17.6766 Y58.8995
G01 X17.6530 Y58.9001
G01 X7.7470 Y58.9001
G01 X7.7234 Y58.8995
G01 X7.6875 Y58.8971
G01 X7.6518 Y58.8924
G01 X7.6286 Y58.8884
G01 X7.6056 Y58.8832
G01 X7.5708 Y58.8739
G01 X7.5484 Y58.8665
G01 X7.5256 Y58.8582
G01 X7.5039 Y58.8492
G01 X7.4931 Y58.8443
G01 X7.4713 Y58.8338
G01 X7.4505 Y58.8227
G01 X7.4296 Y58.8104
G01 X7.4097 Y58.7978
G01 X7.3905 Y58.7842
G01 X7.3711 Y58.7696
G01 X7.3529 Y58.7547
G01 X7.3348 Y58.7385
G01 X7.3262 Y58.7305
G01 X7.3095 Y58.7138
G01 X7.2931 Y58.6960
G01 X7.2777 Y58.6781
G01 X7.2558 Y58.6495
G01 X7.2489 Y58.6400
G01 X7.2358 Y58.6204
G01 X7.2232 Y58.5997
G01 X7.2116 Y58.5792
G01 X7.2010 Y58.5581
G01 X7.1908 Y58.5361
G01 X7.1861 Y58.5253
G01 X7.1777 Y58.5033
G01 X7.1696 Y58.4805
G01 X7.1628 Y58.4579
G01 X7.1568 Y58.4344
G01 X7.1516 Y58.4114
G01 X7.1476 Y58.3882
G01 X7.1442 Y58.3642
G01 X7.1429 Y58.3525
G01 X7.1411 Y58.3290
G01 X7.1399 Y58.2930
G01 X7.1399 Y52.5501
G01 X1.3970 Y52.5501
G01 X1.3734 Y52.5495
G01 X1.3492 Y52.5482
G01 X1.3258 Y52.5458
G01 X1.3018 Y52.5424
G01 X1.2786 Y52.5384
G01 X1.2670 Y52.5360
G01 X1.2435 Y52.5302
G01 X1.2208 Y52.5239
G01 X1.1984 Y52.5165
G01 X1.1756 Y52.5082
G01 X1.1539 Y52.4992
G01 X1.1431 Y52.4943
G01 X1.1213 Y52.4838
G01 X1.1005 Y52.4727
G01 X1.0796 Y52.4604
G01 X1.0597 Y52.4478
G01 X1.0405 Y52.4342
G01 X1.0211 Y52.4196
G01 X1.0029 Y52.4047
G01 X0.9848 Y52.3885
G01 X0.9677 Y52.3723
G01 X0.9595 Y52.3638
G01 X0.9431 Y52.3460
G01 X0.9277 Y52.3281
G01 X0.9132 Y52.3095
G01 X0.8989 Y52.2900
G01 X0.8922 Y52.2803
G01 X0.8796 Y52.2604
G01 X0.8673 Y52.2395
G01 X0.8562 Y52.2187
G01 X0.8457 Y52.1969
G01 X0.8361 Y52.1753
G01 X0.8277 Y52.1533
G01 X0.8196 Y52.1305
G01 X0.8128 Y52.1079
G01 X0.8068 Y52.0844
G01 X0.8016 Y52.0614
G01 X0.7976 Y52.0382
G01 X0.7942 Y52.0142
G01 X0.7918 Y51.9908
G01 X0.7905 Y51.9666
G01 X0.7899 Y51.9430
G01 X0.7899 Y7.7470
G00 Z2.0000
G00 X1.0699 Y7.7470
G01 F80.00
G01 Z-0.2239
G01 F240.00
G01 X1.0715 Y7.7149
G01 X1.0762 Y7.6832
G01 X1.0840 Y7.6521
G01 X1.0948 Y7.6218
G01 X1.1086 Y7.5928
G01 X1.1251 Y7.5653
G01 X1.1442 Y7.5395
G01 X1.1623 Y7.5192
G01 X1.1692 Y7.5123
G01 X1.1858 Y7.4973
G01 X1.1933 Y7.4911
G01 X1.2112 Y7.4778
G01 X1.2194 Y7.4724
G01 X1.2385 Y7.4609
G01 X1.2472 Y7.4563
G01 X1.2629 Y7.4488
G01 X1.2810 Y7.4413
G01 X1.2974 Y7.4355
G01 X1.3115 Y7.4314
G01 X1.3284 Y7.4272
G01 X1.3380 Y7.4253
G01 X1.3601 Y7.4221
G01 X1.3747 Y7.4208
G01 X1.3970 Y7.4199
G01 X7.4199 Y7.4199
G01 X7.4202 Y1.3872
G01 X7.4211 Y1.3698
G01 X7.4221 Y1.3601
G01 X7.4262 Y1.3332
G01 X7.4327 Y1.3068
G01 X7.4355 Y1.2974
G01 X7.4413 Y1.2810
G01 X7.4488 Y1.2629
G01 X7.4563 Y1.2472
G01 X7.4609 Y1.2385
G01 X7.4751 Y1.2153
G01 X7.4911 Y1.1933
G01 X7.4973 Y1.1858
G01 X7.5090 Y1.1728
G01 X7.5228 Y1.1590
G01 X7.5358 Y1.1473
G01 X7.5433 Y1.1411
G01 X7.5653 Y1.1251
G01 X7.5885 Y1.1109
G01 X7.5972 Y1.1063
G01 X7.6129 Y1.0988
G01 X7.6310 Y1.0913
G01 X7.6474 Y1.0855
G01 X7.6568 Y1.0827
G01 X7.6832 Y1.0762
G01 X7.7052 Y1.0727
G01 X7.7198 Y1.0711
G01 X7.7470 Y1.0699
G01 X24.0079 Y1.0700
G01 X24.0351 Y1.0715
G01 X24.0620 Y1.0753
G01 X24.0764 Y1.0784
G01 X24.0932 Y1.0827
G01 X24.1026 Y1.0855
G01 X24.1282 Y1.0948
G01 X24.1528 Y1.1063
G01 X24.1615 Y1.1109
G01 X24.1764 Y1.1198
G01 X24.1927 Y1.1307
G01 X24.2067 Y1.1411
G01 X24.2142 Y1.1473
G01 X24.2343 Y1.1657
G01 X24.2527 Y1.1858
G01 X24.2589 Y1.1933
G01 X24.2693 Y1.2073
G01 X24.2802 Y1.2236
G01 X24.2891 Y1.2385
G01 X24.2937 Y1.2472
G01 X24.3052 Y1.2718
G01 X24.3145 Y1.2974
G01 X24.3173 Y1.3068
G01 X24.3216 Y1.3236
G01 X24.3255 Y1.3429
G01 X24.3279 Y1.3601
G01 X24.3289 Y1.3698
G01 X24.3301 Y1.3970
G01 X24.3301 Y9.7653
G01 X24.3293 Y9.7872
G01 X24.3279 Y9.8029
G01 X24.3243 Y9.8265
G01 X24.3188 Y9.8505
G01 X24.3143 Y9.8656
G01 X24.3074 Y9.8849
G01 X24.2979 Y9.9067
G01 X24.2907 Y9.9208
G01 X24.2782 Y9.9420
G01 X24.2646 Y9.9615
G01 X24.2549 Y9.9739
G01 X24.2413 Y9.9893
G01 X24.2302 Y10.0005
G01 X24.2151 Y10.0142
G01 X24.1964 Y10.0290
G01 X24.1799 Y10.0403
G01 X24.1595 Y10.0524
G01 X24.1374 Y10.0634
G01 X24.1268 Y10.0680
G01 X24.1115 Y10.0738
G01 X24.0925 Y10.0798
G01 X24.0767 Y10.0839
G01 X24.0653 Y10.0863
G01 X24.0410 Y10.0901
G01 X24.0172 Y10.0920
G01 X23.9973 Y10.0922
G01 X23.9810 Y10.0916
G01 X23.9694 Y10.0906
G01 X23.9450 Y10.0871
G01 X23.9218 Y10.0820
G01 X23.9027 Y10.0765
G01 X23.8872 Y10.0711
G01 X23.8764 Y10.0668
G01 X23.8615 Y10.0601
G01 X23.8511 Y10.0549
G01 X23.8298 Y10.0427
G01 X23.8200 Y10.0363
G01 X23.8067 Y10.0268
G01 X23.7920 Y10.0151
G01 X23.6401 Y10.1671
G01 X23.6416 Y10.1836
G01 X23.6500 Y10.3600
G01 X23.6416 Y10.5364
G01 X23.6401 Y10.5529
G01 X23.7921 Y10.7049
G01 X23.8058 Y10.6939
G01 X23.8238 Y10.6812
G01 X23.8320 Y10.6760
G01 X23.8555 Y10.6628
G01 X23.8800 Y10.6517
G01 X23.8890 Y10.6482
G01 X23.9053 Y10.6427
G01 X23.9193 Y10.6386
G01 X23.9455 Y10.6328
G01 X23.9722 Y10.6292
G01 X23.9818 Y10.6284
G01 X23.9990 Y10.6278
G01 X24.0184 Y10.6281
G01 X24.0356 Y10.6293
G01 X24.0452 Y10.6304
G01 X24.0717 Y10.6350
G01 X24.0977 Y10.6417
G01 X24.1116 Y10.6463
G01 X24.1276 Y10.6524
G01 X24.1366 Y10.6562
G01 X24.1606 Y10.6682
G01 X24.1795 Y10.6795
G01 X24.1916 Y10.6876
G01 X24.2130 Y10.7040
G01 X24.2293 Y10.7188
G01 X24.2396 Y10.7290
G01 X24.2574 Y10.7492
G01 X24.2706 Y10.7669
G01 X24.2788 Y10.7789
G01 X24.2923 Y10.8022
G01 X24.3018 Y10.8220
G01 X24.3075 Y10.8354
G01 X24.3148 Y10.8562
G01 X24.3189 Y10.8702
G01 X24.3239 Y10.8916
G01 X24.3280 Y10.9182
G01 X24.3292 Y10.9327
G01 X24.3301 Y10.9547
G01 X24.3300 Y22.2701
G01 X24.3285 Y22.2970
G01 X24.3256 Y22.3188
G01 X24.3229 Y22.3331
G01 X24.3163 Y22.3592
G01 X24.3092 Y22.3800
G01 X24.3038 Y22.3936
G01 X24.2923 Y22.4178
G01 X24.2813 Y22.4369
G01 X24.2734 Y22.4492
G01 X24.2574 Y22.4708
G01 X24.2429 Y22.4874
G01 X24.2328 Y22.4979
G01 X24.2130 Y22.5160
G01 X24.1955 Y22.5295
G01 X24.1836 Y22.5379
G01 X24.1649 Y22.5494
G01 X24.1564 Y22.5541
G01 X24.1409 Y22.5617
G01 X24.1231 Y22.5694
G01 X24.1070 Y22.5753
G01 X24.0977 Y22.5783
G01 X24.0717 Y22.5850
G01 X24.0452 Y22.5896
G01 X24.0356 Y22.5907
G01 X24.0184 Y22.5919
G01 X23.9990 Y22.5922
G01 X23.9818 Y22.5916
G01 X23.9722 Y22.5908
G01 X23.9455 Y22.5872
G01 X23.9193 Y22.5814
G01 X23.9053 Y22.5773
G01 X23.8890 Y22.5718
G01 X23.8800 Y22.5683
G01 X23.8555 Y22.5572
G01 X23.8320 Y22.5440
G01 X23.8238 Y22.5388
G01 X23.8058 Y22.5261
G01 X23.7921 Y22.5151
G01 X23.6401 Y22.6671
G01 X23.6416 Y22.6836
G01 X23.6500 Y22.8600
G01 X23.6416 Y23.0364
G01 X23.6401 Y23.0529
G01 X23.7921 Y23.2049
G01 X23.8058 Y23.1939
G01 X23.8238 Y23.1812
G01 X23.8320 Y23.1760
G01 X23.8555 Y23.1628
G01 X23.8800 Y23.1517
G01 X23.8890 Y23.1482
G01 X23.9053 Y23.1427
G01 X23.9193 Y23.1386
G01 X23.9455 Y23.1328
G01 X23.9722 Y23.1292
G01 X23.9818 Y23.1284
G01 X23.9990 Y23.1278
G01 X24.0136 Y23.1279
G01 X24.0404 Y23.1298
G01 X24.0670 Y23.1340
G01 X24.0811 Y23.1373
G01 X24.0977 Y23.1417
G01 X24.1070 Y23.1447
G01 X24.1321 Y23.1542
G01 X24.1520 Y23.1637
G01 X24.1649 Y23.1706
G01 X24.1836 Y23.1821
G01 X24.1955 Y23.1905
G01 X24.2130 Y23.2040
G01 X24.2293 Y23.2188
G01 X24.2396 Y23.2290
G01 X24.2543 Y23.2455
G01 X24.2633 Y23.2569
G01 X24.2761 Y23.2748
G01 X24.2875 Y23.2937
G01 X24.2945 Y23.3065
G01 X24.3038 Y23.3264
G01 X24.3092 Y23.3400
G01 X24.3163 Y23.3608
G01 X24.3218 Y23.3822
G01 X24.3248 Y23.3964
G01 X24.3285 Y23.4230
G01 X24.3301 Y23.4547
G01 X24.3301 Y26.8322
G01 X24.3289 Y26.8593
G01 X24.3273 Y26.8739
G01 X24.3238 Y26.8958
G01 X24.3175 Y26.9221
G01 X24.3146 Y26.9314
G01 X24.3072 Y26.9523
G01 X24.3035 Y26.9614
G01 X24.2940 Y26.9815
G01 X24.2894 Y26.9901
G01 X24.2780 Y27.0092
G01 X24.2726 Y27.0173
G01 X24.2595 Y27.0352
G01 X24.2533 Y27.0427
G01 X24.2384 Y27.0592
G01 X24.2315 Y27.0662
G01 X24.2152 Y27.0811
G01 X24.2076 Y27.0873
G01 X24.1899 Y27.1006
G01 X24.1817 Y27.1061
G01 X24.1628 Y27.1176
G01 X24.1542 Y27.1222
G01 X24.1341 Y27.1318
G01 X24.1251 Y27.1356
G01 X24.1043 Y27.1432
G01 X24.0949 Y27.1461
G01 X24.0734 Y27.1516
G01 X24.0639 Y27.1536
G01 X24.0419 Y27.1569
G01 X24.0322 Y27.1580
G01 X24.0101 Y27.1592
G01 X24.0003 Y27.1593
G01 X23.9781 Y27.1583
G01 X23.9684 Y27.1574
G01 X23.9464 Y27.1543
G01 X23.9368 Y27.1525
G01 X23.9152 Y27.1473
G01 X23.9012 Y27.1430
G01 X23.8803 Y27.1354
G01 X23.8513 Y27.1220
G01 X23.8238 Y27.1058
G01 X23.7979 Y27.0870
G01 X23.7740 Y27.0658
G01 X23.7555 Y27.0460
G01 X23.6726 Y26.9471
G01 X23.1479 Y26.5255
G01 X22.5510 Y26.2144
G01 X22.4873 Y26.1958
G01 X22.4423 Y26.2454
G01 X22.3104 Y26.3774
G01 X22.4946 Y26.4436
G01 X22.7741 Y26.5756
G01 X22.7870 Y26.5827
G01 X23.0395 Y26.7340
G01 X23.0519 Y26.7421
G01 X23.3001 Y26.9264
G01 X23.5292 Y27.1338
G01 X23.5395 Y27.1444
G01 X23.7405 Y27.3662
G01 X23.7497 Y27.3777
G01 X23.8434 Y27.5041
G01 X23.9145 Y27.5298
G01 X23.9900 Y27.5652
G01 X24.0031 Y27.5720
G01 X24.0787 Y27.6176
G01 X24.1459 Y27.6671
G01 X24.1611 Y27.6795
G01 X24.2227 Y27.7357
G01 X24.2853 Y27.8048
G01 X24.3408 Y27.8797
G01 X24.3888 Y27.9597
G01 X24.4286 Y28.0439
G01 X24.4600 Y28.1317
G01 X24.4827 Y28.2221
G01 X24.4964 Y28.3144
G01 X24.5007 Y28.3977
G01 X24.5007 Y28.4173
G01 X24.4964 Y28.5006
G01 X24.4836 Y28.5880
G01 X24.4805 Y28.6024
G01 X24.4627 Y28.6738
G01 X24.4586 Y28.6879
G01 X24.4305 Y28.7665
G01 X24.4267 Y28.7755
G01 X24.4130 Y28.8046
G01 X24.4546 Y29.0863
G01 X24.4700 Y29.4000
G01 X24.4546 Y29.7137
G01 X24.4130 Y29.9954
G01 X24.4267 Y30.0245
G01 X24.4305 Y30.0335
G01 X24.4586 Y30.1121
G01 X24.4627 Y30.1262
G01 X24.4817 Y30.2024
G01 X24.4844 Y30.2169
G01 X24.4964 Y30.2994
G01 X24.5007 Y30.3827
G01 X24.5007 Y30.4023
G01 X24.4964 Y30.4856
G01 X24.4844 Y30.5682
G01 X24.4805 Y30.5874
G01 X24.4627 Y30.6588
G01 X24.4570 Y30.6776
G01 X24.4286 Y30.7561
G01 X24.3910 Y30.8360
G01 X24.3839 Y30.8489
G01 X24.3461 Y30.9120
G01 X24.3352 Y30.9283
G01 X24.2853 Y30.9952
G01 X24.2295 Y31.0572
G01 X24.2192 Y31.0677
G01 X24.1536 Y31.1269
G01 X24.0868 Y31.1768
G01 X24.0705 Y31.1877
G01 X24.0073 Y31.2255
G01 X23.9900 Y31.2348
G01 X23.9145 Y31.2702
G01 X23.8434 Y31.2959
G01 X23.7497 Y31.4223
G01 X23.7405 Y31.4338
G01 X23.5362 Y31.6592
G01 X23.5256 Y31.6695
G01 X23.3075 Y31.8672
G01 X23.2962 Y31.8767
G01 X23.0478 Y32.0607
G01 X22.7870 Y32.2173
G01 X22.7697 Y32.2266
G01 X22.5036 Y32.3524
G01 X22.4900 Y32.3582
G01 X22.4713 Y32.3650
G01 X22.4713 Y32.6089
G01 X22.5510 Y32.5856
G01 X23.1479 Y32.2745
G01 X23.6726 Y31.8529
G01 X23.7555 Y31.7540
G01 X23.7740 Y31.7342
G01 X23.7979 Y31.7130
G01 X23.8238 Y31.6942
G01 X23.8513 Y31.6780
G01 X23.8803 Y31.6646
G01 X23.9012 Y31.6570
G01 X23.9152 Y31.6527
G01 X23.9368 Y31.6475
G01 X23.9464 Y31.6457
G01 X23.9684 Y31.6426
G01 X23.9781 Y31.6417
G01 X24.0003 Y31.6407
G01 X24.0101 Y31.6408
G01 X24.0322 Y31.6420
G01 X24.0419 Y31.6431
G01 X24.0639 Y31.6464
G01 X24.0734 Y31.6484
G01 X24.0949 Y31.6539
G01 X24.1043 Y31.6568
G01 X24.1251 Y31.6644
G01 X24.1341 Y31.6682
G01 X24.1542 Y31.6778
G01 X24.1628 Y31.6824
G01 X24.1817 Y31.6939
G01 X24.1899 Y31.6994
G01 X24.2076 Y31.7127
G01 X24.2152 Y31.7189
G01 X24.2315 Y31.7338
G01 X24.2384 Y31.7408
G01 X24.2533 Y31.7573
G01 X24.2595 Y31.7648
G01 X24.2726 Y31.7827
G01 X24.2780 Y31.7908
G01 X24.2894 Y31.8099
G01 X24.2940 Y31.8185
G01 X24.3035 Y31.8386
G01 X24.3072 Y31.8477
G01 X24.3146 Y31.8686
G01 X24.3175 Y31.8779
G01 X24.3238 Y31.9042
G01 X24.3273 Y31.9261
G01 X24.3289 Y31.9407
G01 X24.3301 Y31.9678
G01 X24.3301 Y46.8630
G01 X24.3292 Y46.8853
G01 X24.3279 Y46.8999
G01 X24.3238 Y46.9268
G01 X24.3160 Y46.9579
G01 X24.3052 Y46.9882
G01 X24.2937 Y47.0128
G01 X24.2891 Y47.0215
G01 X24.2776 Y47.0406
G01 X24.2722 Y47.0488
G01 X24.2619 Y47.0627
G01 X24.2527 Y47.0742
G01 X24.2410 Y47.0872
G01 X24.2272 Y47.1010
G01 X24.2142 Y47.1127
G01 X24.2067 Y47.1189
G01 X24.1888 Y47.1322
G01 X24.1806 Y47.1376
G01 X24.1572 Y47.1514
G01 X24.1282 Y47.1652
G01 X24.0979 Y47.1760
G01 X24.0716 Y47.1828
G01 X24.0620 Y47.1847
G01 X24.0399 Y47.1879
G01 X24.0302 Y47.1889
G01 X24.0128 Y47.1898
G01 X17.9801 Y47.1901
G01 X17.9800 Y58.2979
G01 X17.9785 Y58.3251
G01 X17.9747 Y58.3520
G01 X17.9716 Y58.3664
G01 X17.9673 Y58.3832
G01 X17.9645 Y58.3926
G01 X17.9552 Y58.4182
G01 X17.9437 Y58.4428
G01 X17.9391 Y58.4515
G01 X17.9302 Y58.4664
G01 X17.9193 Y58.4827
G01 X17.9089 Y58.4967
G01 X17.9027 Y58.5042
G01 X17.8843 Y58.5243
G01 X17.8642 Y58.5427
G01 X17.8567 Y58.5489
G01 X17.8427 Y58.5593
G01 X17.8264 Y58.5702
G01 X17.8115 Y58.5791
G01 X17.8028 Y58.5837
G01 X17.7782 Y58.5952
G01 X17.7526 Y58.6045
G01 X17.7432 Y58.6073
G01 X17.7264 Y58.6116
G01 X17.7071 Y58.6155
G01 X17.6899 Y58.6179
G01 X17.6802 Y58.6189
G01 X17.6530 Y58.6201
G01 X7.7470 Y58.6201
G01 X7.7149 Y58.6185
G01 X7.6832 Y58.6138
G01 X7.6521 Y58.6060
G01 X7.6264 Y58.5970
G01 X7.6129 Y58.5912
G01 X7.5972 Y58.5837
G01 X7.5885 Y58.5791
G01 X7.5653 Y58.5649
G01 X7.5433 Y58.5489
G01 X7.5358 Y58.5427
G01 X7.5228 Y58.5310
G01 X7.5123 Y58.5208
G01 X7.4942 Y58.5005
G01 X7.4778 Y58.4788
G01 X7.4698 Y58.4664
G01 X7.4609 Y58.4515
G01 X7.4563 Y58.4428
G01 X7.4448 Y58.4182
G01 X7.4355 Y58.3926
G01 X7.4327 Y58.3832
G01 X7.4284 Y58.3664
G01 X7.4253 Y58.3520
G01 X7.4215 Y58.3251
G01 X7.4200 Y58.2979
G01 X7.4199 Y52.2701
G01 X1.3921 Y52.2700
G01 X1.3649 Y52.2685
G01 X1.3380 Y52.2647
G01 X1.3236 Y52.2616
G01 X1.3068 Y52.2573
G01 X1.2974 Y52.2545
G01 X1.2718 Y52.2452
G01 X1.2472 Y52.2337
G01 X1.2385 Y52.2291
G01 X1.2236 Y52.2202
G01 X1.2073 Y52.2093
G01 X1.1933 Y52.1989
G01 X1.1858 Y52.1927
G01 X1.1657 Y52.1743
G01 X1.1473 Y52.1542
G01 X1.1411 Y52.1467
G01 X1.1307 Y52.1327
G01 X1.1198 Y52.1164
G01 X1.1109 Y52.1015
G01 X1.1063 Y52.0928
G01 X1.0948 Y52.0682
G01 X1.0855 Y52.0426
G01 X1.0827 Y52.0332
G01 X1.0784 Y52.0164
G01 X1.0745 Y51.9971
G01 X1.0721 Y51.9799
G01 X1.0711 Y51.9702
G01 X1.0699 Y51.9430
G01 X1.0699 Y7.7470
G00 Z2.0000
G00 X15.9540 Y10.6589
G01 F80.00
G01 Z-0.2239
G01 F240.00
G01 X15.9349 Y10.2577
G01 X15.9631 Y10.0702
G01 X16.0599 Y10.1671
G01 X16.0584 Y10.1836
G01 X16.0500 Y10.3600
G01 X16.0584 Y10.5364
G01 X16.0599 Y10.5529
G01 X15.9540 Y10.6589
G00 Z2.0000
G00 X17.7571 Y12.2501
G01 F80.00
G01 Z-0.2239
G01 F240.00
G01 X17.7736 Y12.2516
G01 X17.9500 Y12.2600
G01 X18.1264 Y12.2516
G01 X18.1429 Y12.2501
G01 X18.2489 Y12.3560
G01 X17.8477 Y12.3751
G01 X17.6602 Y12.3469
G01 X17.7571 Y12.2501
G00 Z2.0000
G00 X19.8183 Y10.6999
G01 F80.00
G01 Z-0.2239
G01 F240.00
G01 X19.8409 Y10.5462
G01 X19.8500 Y10.3600
G01 X19.8409 Y10.1738
G01 X19.8183 Y10.0201
G01 X19.8500 Y10.0217
G01 X19.8817 Y10.0201
G01 X19.8591 Y10.1738
G01 X19.8500 Y10.3600
G01 X19.8591 Y10.5462
G01 X19.8817 Y10.6999
G01 X19.8500 Y10.6983
G01 X19.8183 Y10.6999
G00 Z2.0000
G00 X21.5571 Y12.2501
G01 F80.00
G01 Z-0.2239
G01 F240.00
G01 X21.5736 Y12.2516
G01 X21.7500 Y12.2600
G01 X21.9264 Y12.2516
G01 X21.9429 Y12.2501
G01 X22.0489 Y12.3560
G01 X21.6477 Y12.3751
G01 X21.4602 Y12.3469
G01 X21.5571 Y12.2501
G00 Z2.0000
G00 X21.4511 Y8.3640
G01 F80.00
G01 Z-0.2239
G01 F240.00
G01 X21.8523 Y8.3449
G01 X22.0398 Y8.3731
G01 X21.9429 Y8.4699
G01 X21.9264 Y8.4684
G01 X21.7500 Y8.4600
G01 X21.5736 Y8.4684
G01 X21.5571 Y8.4699
G01 X21.4511 Y8.3640
G00 Z2.0000
G00 X17.6511 Y8.3640
G01 F80.00
G01 Z-0.2239
G01 F240.00
G01 X18.0523 Y8.3449
G01 X18.2398 Y8.3731
G01 X18.1429 Y8.4699
G01 X18.1264 Y8.4684
G01 X17.9500 Y8.4600
G01 X17.7736 Y8.4684
G01 X17.7571 Y8.4699
G01 X17.6511 Y8.3640
G00 Z2.0000
G00 X25.9540 Y10.6589
G01 F80.00
G01 Z-0.2239
G01 F240.00
G01 X25.9349 Y10.2577
G01 X25.9631 Y10.0702
G01 X26.0599 Y10.1671
G01 X26.0584 Y10.1836
G01 X26.0500 Y10.3600
G01 X26.0584 Y10.5364
G01 X26.0599 Y10.5529
G01 X25.9540 Y10.6589
G00 Z2.0000
G00 X27.7571 Y12.2501
G01 F80.00
G01 Z-0.2239
G01 F240.00
G01 X27.7736 Y12.2516
G01 X27.9500 Y12.2600
G01 X28.1264 Y12.2516
G01 X28.1429 Y12.2501
G01 X28.2489 Y12.3560
G01 X27.8477 Y12.3751
G01 X27.6602 Y12.3469
G01 X27.7571 Y12.2501
G00 Z2.0000
G00 X29.8183 Y10.6999
G01 F80.00
G01 Z-0.2239
G01 F240.00
G01 X29.8409 Y10.5462
G01 X29.8500 Y10.3600
G01 X29.8409 Y10.1738
G01 X29.8183 Y10.0201
G01 X29.8500 Y10.0217
G01 X29.8817 Y10.0201
G01 X29.8591 Y10.1738
G01 X29.8500 Y10.3600
G01 X29.8591 Y10.5462
G01 X29.8817 Y10.6999
G01 X29.8500 Y10.6983
G01 X29.8183 Y10.6999
G00 Z2.0000
G00 X31.5571 Y12.2501
G01 F80.00
G01 Z-0.2239
G01 F240.00
G01 X31.5736 Y12.2516
G01 X31.7500 Y12.2600
G01 X31.9264 Y12.2516
G01 X31.9429 Y12.2501
G01 X32.0489 Y12.3560
G01 X31.6477 Y12.3751
G01 X31.4602 Y12.3469
G01 X31.5571 Y12.2501
G00 Z2.0000
G00 X33.6401 Y10.1671
G01 F80.00
G01 Z-0.2239
G01 F240.00
G01 X33.7460 Y10.0611
G01 X33.7651 Y10.4623
G01 X33.7369 Y10.6498
G01 X33.6401 Y10.5529
G01 X33.6416 Y10.5364
G01 X33.6500 Y10.3600
G01 X33.6416 Y10.1836
G01 X33.6401 Y10.1671
G00 Z2.0000
G00 X31.4511 Y8.3640
G01 F80.00
G01 Z-0.2239
G01 F240.00
G01 X31.8523 Y8.3449
G01 X32.0398 Y8.3731
G01 X31.9429 Y8.4699
G01 X31.9264 Y8.4684
G01 X31.7500 Y8.4600
G01 X31.5736 Y8.4684
G01 X31.5571 Y8.4699
G01 X31.4511 Y8.3640
G00 Z2.0000
G00 X27.6511 Y8.3640
G01 F80.00
G01 Z-0.2239
G01 F240.00
G01 X28.0523 Y8.3449
G01 X28.2398 Y8.3731
G01 X28.1429 Y8.4699
G01 X28.1264 Y8.4684
G01 X27.9500 Y8.4600
G01 X27.7736 Y8.4684
G01 X27.7571 Y8.4699
G01 X27.6511 Y8.3640
G00 Z2.0000
G00 X27.6511 Y20.8640
G01 F80.00
G01 Z-0.2239
G01 F240.00
G01 X28.0523 Y20.8449
G01 X28.2398 Y20.8731
G01 X28.1429 Y20.9699
G01 X28.1264 Y20.9684
G01 X27.9500 Y20.9600
G01 X27.7736 Y20.9684
G01 X27.7571 Y20.9699
G01 X27.6511 Y20.8640
G00 Z2.0000
G00 X25.9540 Y23.1589
G01 F80.00
G01 Z-0.2239
G01 F240.00
G01 X25.9349 Y22.7577
G01 X25.9631 Y22.5702
G01 X26.0599 Y22.6671
G01 X26.0584 Y22.6836
G01 X26.0500 Y22.8600
G01 X26.0584 Y23.0364
G01 X26.0599 Y23.0529
G01 X25.9540 Y23.1589
G00 Z2.0000
G00 X29.8183 Y23.1999
G01 F80.00
G01 Z-0.2239
G01 F240.00
G01 X29.8409 Y23.0462
G01 X29.8500 Y22.8600
G01 X29.8409 Y22.6738
G01 X29.8183 Y22.5201
G01 X29.8500 Y22.5217
G01 X29.8817 Y22.5201
G01 X29.8591 Y22.6738
G01 X29.8500 Y22.8600
G01 X29.8591 Y23.0462
G01 X29.8817 Y23.1999
G01 X29.8500 Y23.1983
G01 X29.8183 Y23.1999
G00 Z2.0000
G00 X31.4511 Y20.8640
G01 F80.00
G01 Z-0.2239
G01 F240.00
G01 X31.8523 Y20.8449
G01 X32.0398 Y20.8731
G01 X31.9429 Y20.9699
G01 X31.9264 Y20.9684
G01 X31.7500 Y20.9600
G01 X31.5736 Y20.9684
G01 X31.5571 Y20.9699
G01 X31.4511 Y20.8640
G00 Z2.0000
G00 X33.6401 Y22.6671
G01 F80.00
G01 Z-0.2239
G01 F240.00
G01 X33.7460 Y22.5611
G01 X33.7651 Y22.9623
G01 X33.7369 Y23.1498
G01 X33.6401 Y23.0529
G01 X33.6416 Y23.0364
G01 X33.6500 Y22.8600
G01 X33.6416 Y22.6836
G01 X33.6401 Y22.6671
G00 Z2.0000
G00 X32.4282 Y26.4196
G01 F80.00
G01 Z-0.2239
G01 F240.00
G01 X32.6049 Y26.2425
G01 X33.1479 Y26.5255
G01 X33.3634 Y26.6987
G01 X32.9806 Y26.6987
G01 X32.7870 Y26.5827
G01 X32.7741 Y26.5756
G01 X32.4991 Y26.4455
G01 X32.4854 Y26.4401
G01 X32.4282 Y26.4196
G00 Z2.0000
G00 X32.4713 Y32.3650
G01 F80.00
G01 Z-0.2239
G01 F240.00
G01 X32.4900 Y32.3582
G01 X32.5036 Y32.3524
G01 X32.7741 Y32.2244
G01 X32.7870 Y32.2173
G01 X32.9806 Y32.1013
G01 X33.3634 Y32.1013
G01 X33.1479 Y32.2745
G01 X32.5510 Y32.5856
G01 X32.4641 Y32.6110
G01 X32.4712 Y32.4649
G01 X32.4713 Y32.3650
G00 Z2.0000
G00 X24.9022 Y31.0651
G01 F80.00
G01 Z-0.2239
G01 F240.00
G01 X24.9372 Y31.1391
G01 X24.9540 Y31.1725
G01 X24.9724 Y31.2049
G01 X24.9965 Y31.2451
G01 X24.9762 Y31.2606
G01 X24.9617 Y31.2722
G01 X24.9475 Y31.2842
G01 X24.9245 Y31.3050
G01 X24.8977 Y31.3307
G01 X24.8847 Y31.3440
G01 X24.8638 Y31.3669
G01 X24.8397 Y31.3951
G01 X24.8281 Y31.4096
G01 X24.8095 Y31.4344
G01 X24.7882 Y31.4649
G01 X24.7781 Y31.4804
G01 X24.7614 Y31.5080
G01 X24.7418 Y31.4768
G01 X24.7205 Y31.4464
G01 X24.7019 Y31.4216
G01 X24.6797 Y31.3943
G01 X24.7062 Y31.3647
G01 X24.7299 Y31.3359
G01 X24.7850 Y31.2619
G01 X24.8065 Y31.2314
G01 X24.8264 Y31.1999
G01 X24.8737 Y31.1207
G01 X24.8912 Y31.0878
G01 X24.9022 Y31.0651
G00 Z2.0000
G00 X25.0747 Y29.5007
G01 F80.00
G01 Z-0.2239
G01 F240.00
G01 X25.0700 Y29.4000
G01 X25.0747 Y29.2993
G01 X25.0625 Y29.2496
G01 X25.0538 Y29.1913
G01 X25.0510 Y29.1325
G01 X25.0531 Y29.0835
G01 X25.0544 Y29.0688
G01 X25.0625 Y29.0155
G01 X25.0768 Y28.9584
G01 X25.0966 Y28.9029
G01 X25.1197 Y28.8538
G01 X25.1298 Y28.7854
G01 X25.1325 Y28.7709
G01 X25.2064 Y28.4758
G01 X25.2109 Y28.4618
G01 X25.3101 Y28.1846
G01 X25.3176 Y28.1664
G01 X25.4479 Y27.8915
G01 X25.6040 Y27.6305
G01 X25.6121 Y27.6181
G01 X25.7964 Y27.3699
G01 X26.0005 Y27.1444
G01 X26.0144 Y27.1305
G01 X26.2325 Y26.9328
G01 X26.2438 Y26.9233
G01 X26.4922 Y26.7393
G01 X26.7572 Y26.5802
G01 X26.7703 Y26.5734
G01 X27.0409 Y26.4455
G01 X27.0546 Y26.4401
G01 X27.2223 Y26.3800
G01 X27.0877 Y26.2454
G01 X27.0448 Y26.1981
G01 X26.9890 Y26.2144
G01 X26.3921 Y26.5255
G01 X25.8674 Y26.9471
G01 X25.7745 Y27.0580
G01 X25.7560 Y27.0777
G01 X25.7321 Y27.0989
G01 X25.7062 Y27.1177
G01 X25.6787 Y27.1339
G01 X25.6497 Y27.1474
G01 X25.6288 Y27.1549
G01 X25.6148 Y27.1592
G01 X25.5932 Y27.1644
G01 X25.5836 Y27.1663
G01 X25.5616 Y27.1694
G01 X25.5519 Y27.1702
G01 X25.5297 Y27.1712
G01 X25.5199 Y27.1711
G01 X25.4978 Y27.1699
G01 X25.4881 Y27.1689
G01 X25.4661 Y27.1655
G01 X25.4566 Y27.1635
G01 X25.4351 Y27.1580
G01 X25.4257 Y27.1551
G01 X25.4049 Y27.1475
G01 X25.3959 Y27.1437
G01 X25.3758 Y27.1342
G01 X25.3672 Y27.1295
G01 X25.3483 Y27.1180
G01 X25.3401 Y27.1126
G01 X25.3224 Y27.0993
G01 X25.3148 Y27.0930
G01 X25.2985 Y27.0781
G01 X25.2916 Y27.0711
G01 X25.2767 Y27.0547
G01 X25.2705 Y27.0471
G01 X25.2574 Y27.0292
G01 X25.2520 Y27.0211
G01 X25.2406 Y27.0020
G01 X25.2360 Y26.9934
G01 X25.2265 Y26.9733
G01 X25.2228 Y26.9643
G01 X25.2154 Y26.9434
G01 X25.2125 Y26.9340
G01 X25.2062 Y26.9077
G01 X25.2027 Y26.8858
G01 X25.2011 Y26.8712
G01 X25.1999 Y26.8442
G01 X25.1999 Y1.3970
G01 X25.2011 Y1.3698
G01 X25.2027 Y1.3552
G01 X25.2053 Y1.3380
G01 X25.2072 Y1.3284
G01 X25.2140 Y1.3021
G01 X25.2230 Y1.2764
G01 X25.2288 Y1.2629
G01 X25.2386 Y1.2428
G01 X25.2524 Y1.2194
G01 X25.2607 Y1.2073
G01 X25.2742 Y1.1895
G01 X25.2923 Y1.1692
G01 X25.3028 Y1.1590
G01 X25.3195 Y1.1442
G01 X25.3412 Y1.1278
G01 X25.3536 Y1.1198
G01 X25.3728 Y1.1086
G01 X25.3929 Y1.0988
G01 X25.4064 Y1.0930
G01 X25.4321 Y1.0840
G01 X25.4536 Y1.0784
G01 X25.4680 Y1.0753
G01 X25.4901 Y1.0721
G01 X25.5047 Y1.0708
G01 X25.5270 Y1.0699
G01 X43.0530 Y1.0699
G01 X43.0802 Y1.0711
G01 X43.0948 Y1.0727
G01 X43.1120 Y1.0753
G01 X43.1216 Y1.0772
G01 X43.1479 Y1.0840
G01 X43.1736 Y1.0930
G01 X43.1871 Y1.0988
G01 X43.2072 Y1.1086
G01 X43.2306 Y1.1224
G01 X43.2427 Y1.1307
G01 X43.2605 Y1.1442
G01 X43.2772 Y1.1590
G01 X43.2877 Y1.1692
G01 X43.3058 Y1.1895
G01 X43.3193 Y1.2073
G01 X43.3276 Y1.2194
G01 X43.3391 Y1.2385
G01 X43.3459 Y1.2516
G01 X43.3552 Y1.2718
G01 X43.3629 Y1.2927
G01 X43.3673 Y1.3068
G01 X43.3738 Y1.3332
G01 X43.3773 Y1.3552
G01 X43.3789 Y1.3698
G01 X43.3800 Y1.3921
G01 X43.3801 Y8.6899
G01 X49.4030 Y8.6899
G01 X49.4253 Y8.6908
G01 X49.4399 Y8.6921
G01 X49.4620 Y8.6953
G01 X49.4716 Y8.6972
G01 X49.4885 Y8.7014
G01 X49.5026 Y8.7055
G01 X49.5190 Y8.7113
G01 X49.5371 Y8.7188
G01 X49.5528 Y8.7263
G01 X49.5615 Y8.7309
G01 X49.5806 Y8.7424
G01 X49.5888 Y8.7478
G01 X49.6067 Y8.7611
G01 X49.6142 Y8.7673
G01 X49.6308 Y8.7823
G01 X49.6377 Y8.7892
G01 X49.6558 Y8.8095
G01 X49.6749 Y8.8353
G01 X49.6914 Y8.8628
G01 X49.7052 Y8.8918
G01 X49.7160 Y8.9221
G01 X49.7238 Y8.9532
G01 X49.7285 Y8.9849
G01 X49.7301 Y9.0170
G01 X49.7301 Y51.9430
G01 X49.7292 Y51.9653
G01 X49.7279 Y51.9799
G01 X49.7238 Y52.0068
G01 X49.7160 Y52.0379
G01 X49.7052 Y52.0682
G01 X49.6937 Y52.0928
G01 X49.6891 Y52.1015
G01 X49.6776 Y52.1206
G01 X49.6722 Y52.1288
G01 X49.6619 Y52.1427
G01 X49.6527 Y52.1542
G01 X49.6410 Y52.1672
G01 X49.6272 Y52.1810
G01 X49.6142 Y52.1927
G01 X49.6067 Y52.1989
G01 X49.5888 Y52.2122
G01 X49.5806 Y52.2176
G01 X49.5572 Y52.2314
G01 X49.5282 Y52.2452
G01 X49.4979 Y52.2560
G01 X49.4716 Y52.2628
G01 X49.4620 Y52.2647
G01 X49.4399 Y52.2679
G01 X49.4302 Y52.2689
G01 X49.4128 Y52.2698
G01 X43.3801 Y52.2701
G01 X43.3800 Y58.2979
G01 X43.3785 Y58.3251
G01 X43.3755 Y58.3471
G01 X43.3728 Y58.3616
G01 X43.3673 Y58.3832
G01 X43.3629 Y58.3973
G01 X43.3552 Y58.4182
G01 X43.3459 Y58.4384
G01 X43.3391 Y58.4515
G01 X43.3276 Y58.4706
G01 X43.3193 Y58.4827
G01 X43.3058 Y58.5005
G01 X43.2877 Y58.5208
G01 X43.2772 Y58.5310
G01 X43.2605 Y58.5458
G01 X43.2427 Y58.5593
G01 X43.2306 Y58.5676
G01 X43.2072 Y58.5814
G01 X43.1871 Y58.5912
G01 X43.1736 Y58.5970
G01 X43.1479 Y58.6060
G01 X43.1216 Y58.6128
G01 X43.1120 Y58.6147
G01 X43.0948 Y58.6173
G01 X43.0802 Y58.6189
G01 X43.0530 Y58.6201
G01 X33.1470 Y58.6201
G01 X33.1198 Y58.6189
G01 X33.1052 Y58.6173
G01 X33.0880 Y58.6147
G01 X33.0784 Y58.6128
G01 X33.0521 Y58.6060
G01 X33.0264 Y58.5970
G01 X33.0129 Y58.5912
G01 X32.9928 Y58.5814
G01 X32.9694 Y58.5676
G01 X32.9573 Y58.5593
G01 X32.9395 Y58.5458
G01 X32.9228 Y58.5310
G01 X32.9123 Y58.5208
G01 X32.8942 Y58.5005
G01 X32.8807 Y58.4827
G01 X32.8724 Y58.4706
G01 X32.8609 Y58.4515
G01 X32.8541 Y58.4384
G01 X32.8448 Y58.4182
G01 X32.8371 Y58.3973
G01 X32.8327 Y58.3832
G01 X32.8262 Y58.3568
G01 X32.8227 Y58.3348
G01 X32.8211 Y58.3202
G01 X32.8200 Y58.2979
G01 X32.8199 Y47.1901
G01 X25.5221 Y47.1900
G01 X25.4949 Y47.1885
G01 X25.4729 Y47.1855
G01 X25.4584 Y47.1828
G01 X25.4368 Y47.1773
G01 X25.4227 Y47.1729
G01 X25.4018 Y47.1652
G01 X25.3816 Y47.1559
G01 X25.3685 Y47.1491
G01 X25.3494 Y47.1376
G01 X25.3373 Y47.1293
G01 X25.3195 Y47.1158
G01 X25.2992 Y47.0977
G01 X25.2890 Y47.0872
G01 X25.2742 Y47.0705
G01 X25.2607 Y47.0527
G01 X25.2524 Y47.0406
G01 X25.2386 Y47.0172
G01 X25.2288 Y46.9971
G01 X25.2230 Y46.9836
G01 X25.2140 Y46.9579
G01 X25.2072 Y46.9316
G01 X25.2053 Y46.9220
G01 X25.2027 Y46.9048
G01 X25.2011 Y46.8902
G01 X25.1999 Y46.8630
G01 X25.1999 Y31.9558
G01 X25.2015 Y31.9239
G01 X25.2062 Y31.8923
G01 X25.2139 Y31.8613
G01 X25.2246 Y31.8312
G01 X25.2382 Y31.8023
G01 X25.2546 Y31.7748
G01 X25.2736 Y31.7491
G01 X25.2950 Y31.7253
G01 X25.3186 Y31.7038
G01 X25.3442 Y31.6847
G01 X25.3715 Y31.6681
G01 X25.4003 Y31.6543
G01 X25.4304 Y31.6434
G01 X25.4613 Y31.6354
G01 X25.4929 Y31.6306
G01 X25.5248 Y31.6288
G01 X25.5568 Y31.6301
G01 X25.5884 Y31.6346
G01 X25.6195 Y31.6421
G01 X25.6405 Y31.6492
G01 X25.6542 Y31.6545
G01 X25.6787 Y31.6661
G01 X25.7062 Y31.6823
G01 X25.7321 Y31.7011
G01 X25.7524 Y31.7189
G01 X25.7628 Y31.7293
G01 X25.7777 Y31.7457
G01 X25.8674 Y31.8529
G01 X26.3921 Y32.2745
G01 X26.9890 Y32.5856
G01 X27.0759 Y32.6110
G01 X27.0688 Y32.4649
G01 X27.0687 Y32.3650
G01 X27.0500 Y32.3582
G01 X27.0364 Y32.3524
G01 X26.7703 Y32.2266
G01 X26.7530 Y32.2173
G01 X26.4922 Y32.0607
G01 X26.2399 Y31.8736
G01 X26.0073 Y31.6627
G01 X25.8028 Y31.4375
G01 X25.7903 Y31.4223
G01 X25.6149 Y31.1859
G01 X25.6066 Y31.1737
G01 X25.4527 Y30.9170
G01 X25.4434 Y30.8997
G01 X25.3136 Y30.6246
G01 X25.2093 Y30.3336
G01 X25.2052 Y30.3195
G01 X25.1325 Y30.0291
G01 X25.1298 Y30.0146
G01 X25.1197 Y29.9462
G01 X25.0966 Y29.8971
G01 X25.0799 Y29.8510
G01 X25.0742 Y29.8322
G01 X25.0646 Y29.7941
G01 X25.0616 Y29.7797
G01 X25.0550 Y29.7360
G01 X25.0534 Y29.7214
G01 X25.0510 Y29.6724
G01 X25.0512 Y29.6577
G01 X25.0538 Y29.6087
G01 X25.0608 Y29.5601
G01 X25.0635 Y29.5456
G01 X25.0747 Y29.5007
G00 Z2.0000
G00 X24.7930 Y29.4729
G01 F80.00
G01 Z-0.2239
G01 F240.00
G01 X24.7906 Y29.4236
G01 X24.7900 Y29.4000
G01 X24.7906 Y29.3764
G01 X24.7930 Y29.3271
G01 X24.7879 Y29.3042
G01 X24.7857 Y29.2926
G01 X24.7765 Y29.2305
G01 X24.7742 Y29.2070
G01 X24.7715 Y29.1561
G01 X24.7710 Y29.1325
G01 X24.7715 Y29.1090
G01 X24.7742 Y29.0580
G01 X24.7765 Y29.0346
G01 X24.7838 Y28.9841
G01 X24.7879 Y28.9608
G01 X24.7930 Y28.9379
G01 X24.8026 Y28.8998
G01 X24.8056 Y28.8884
G01 X24.8124 Y28.8658
G01 X24.8295 Y28.8177
G01 X24.8379 Y28.7958
G01 X24.8488 Y28.7714
G01 X24.8547 Y28.7327
G01 X24.8569 Y28.7211
G01 X24.8620 Y28.6981
G01 X24.9336 Y28.4125
G01 X24.9398 Y28.3898
G01 X24.9472 Y28.3674
G01 X25.0464 Y28.0902
G01 X25.0549 Y28.0683
G01 X25.0644 Y28.0467
G01 X25.1903 Y27.7806
G01 X25.2009 Y27.7595
G01 X25.2125 Y27.7390
G01 X25.3639 Y27.4865
G01 X25.3765 Y27.4666
G01 X25.3976 Y27.4372
G01 X25.3702 Y27.4305
G01 X25.3477 Y27.4241
G01 X25.3254 Y27.4166
G01 X25.3028 Y27.4083
G01 X25.2811 Y27.3992
G01 X25.2488 Y27.3837
G01 X25.2281 Y27.3725
G01 X25.2074 Y27.3601
G01 X25.1876 Y27.3475
G01 X25.1685 Y27.3339
G01 X25.1493 Y27.3193
G01 X25.1312 Y27.3044
G01 X25.1133 Y27.2882
G01 X25.0963 Y27.2720
G01 X25.0719 Y27.2457
G01 X25.0566 Y27.2279
G01 X25.0422 Y27.2094
G01 X25.0214 Y27.1802
G01 X25.0089 Y27.1603
G01 X24.9967 Y27.1395
G01 X24.9856 Y27.1188
G01 X24.9752 Y27.0970
G01 X24.9658 Y27.0755
G01 X24.9574 Y27.0536
G01 X24.9494 Y27.0308
G01 X24.9426 Y27.0084
G01 X24.9366 Y26.9850
G01 X24.9315 Y26.9621
G01 X24.9275 Y26.9390
G01 X24.9228 Y26.9034
G01 X24.9211 Y26.8800
G01 X24.9201 Y26.8559
G01 X24.9199 Y1.3970
G01 X24.9205 Y1.3734
G01 X24.9218 Y1.3492
G01 X24.9229 Y1.3375
G01 X24.9257 Y1.3141
G01 X24.9294 Y1.2901
G01 X24.9340 Y1.2670
G01 X24.9398 Y1.2435
G01 X24.9461 Y1.2208
G01 X24.9535 Y1.1984
G01 X24.9618 Y1.1756
G01 X24.9661 Y1.1647
G01 X24.9757 Y1.1431
G01 X24.9916 Y1.1108
G01 X25.0032 Y1.0903
G01 X25.0158 Y1.0696
G01 X25.0289 Y1.0500
G01 X25.0358 Y1.0405
G01 X25.0577 Y1.0119
G01 X25.0731 Y0.9940
G01 X25.0895 Y0.9762
G01 X25.0977 Y0.9677
G01 X25.1148 Y0.9515
G01 X25.1419 Y0.9277
G01 X25.1605 Y0.9132
G01 X25.1800 Y0.8989
G01 X25.1996 Y0.8858
G01 X25.2096 Y0.8796
G01 X25.2408 Y0.8616
G01 X25.2731 Y0.8457
G01 X25.2947 Y0.8361
G01 X25.3056 Y0.8318
G01 X25.3284 Y0.8235
G01 X25.3508 Y0.8161
G01 X25.3856 Y0.8068
G01 X25.3970 Y0.8040
G01 X25.4201 Y0.7994
G01 X25.4558 Y0.7942
G01 X25.4675 Y0.7929
G01 X25.4910 Y0.7911
G01 X25.5270 Y0.7899
G01 X43.0530 Y0.7899
G01 X43.0766 Y0.7905
G01 X43.1008 Y0.7918
G01 X43.1125 Y0.7929
G01 X43.1359 Y0.7957
G01 X43.1599 Y0.7994
G01 X43.1830 Y0.8040
G01 X43.2065 Y0.8098
G01 X43.2292 Y0.8161
G01 X43.2516 Y0.8235
G01 X43.2744 Y0.8318
G01 X43.2853 Y0.8361
G01 X43.3069 Y0.8457
G01 X43.3392 Y0.8616
G01 X43.3597 Y0.8732
G01 X43.3804 Y0.8858
G01 X43.3903 Y0.8922
G01 X43.4095 Y0.9058
G01 X43.4381 Y0.9277
G01 X43.4652 Y0.9515
G01 X43.4823 Y0.9677
G01 X43.4905 Y0.9762
G01 X43.5069 Y0.9940
G01 X43.5223 Y1.0119
G01 X43.5442 Y1.0405
G01 X43.5578 Y1.0597
G01 X43.5642 Y1.0696
G01 X43.5827 Y1.1005
G01 X43.5938 Y1.1213
G01 X43.5990 Y1.1319
G01 X43.6139 Y1.1647
G01 X43.6265 Y1.1984
G01 X43.6339 Y1.2208
G01 X43.6372 Y1.2321
G01 X43.6460 Y1.2670
G01 X43.6506 Y1.2901
G01 X43.6524 Y1.3018
G01 X43.6571 Y1.3375
G01 X43.6595 Y1.3734
G01 X43.6601 Y1.3970
G01 X43.6601 Y8.4099
G01 X49.4030 Y8.4099
G01 X49.4266 Y8.4105
G01 X49.4625 Y8.4129
G01 X49.4982 Y8.4176
G01 X49.5214 Y8.4216
G01 X49.5444 Y8.4268
G01 X49.5792 Y8.4361
G01 X49.6133 Y8.4477
G01 X49.6353 Y8.4561
G01 X49.6569 Y8.4657
G01 X49.6787 Y8.4762
G01 X49.6995 Y8.4873
G01 X49.7304 Y8.5058
G01 X49.7500 Y8.5189
G01 X49.7695 Y8.5332
G01 X49.7881 Y8.5477
G01 X49.8152 Y8.5715
G01 X49.8323 Y8.5877
G01 X49.8485 Y8.6048
G01 X49.8647 Y8.6229
G01 X49.8796 Y8.6411
G01 X49.9011 Y8.6700
G01 X49.9142 Y8.6896
G01 X49.9327 Y8.7205
G01 X49.9438 Y8.7413
G01 X49.9592 Y8.7739
G01 X49.9682 Y8.7956
G01 X49.9765 Y8.8184
G01 X49.9839 Y8.8408
G01 X49.9932 Y8.8756
G01 X49.9984 Y8.8986
G01 X50.0024 Y8.9218
G01 X50.0071 Y8.9575
G01 X50.0095 Y8.9934
G01 X50.0101 Y9.0170
G01 X50.0101 Y51.9430
G01 X50.0089 Y51.9790
G01 X50.0082 Y51.9908
G01 X50.0058 Y52.0142
G01 X50.0024 Y52.0382
G01 X49.9984 Y52.0614
G01 X49.9932 Y52.0844
G01 X49.9839 Y52.1192
G01 X49.9723 Y52.1533
G01 X49.9639 Y52.1753
G01 X49.9543 Y52.1969
G01 X49.9438 Y52.2187
G01 X49.9327 Y52.2395
G01 X49.9204 Y52.2604
G01 X49.9078 Y52.2803
G01 X49.8942 Y52.2995
G01 X49.8796 Y52.3189
G01 X49.8647 Y52.3371
G01 X49.8405 Y52.3638
G01 X49.8238 Y52.3805
G01 X49.8060 Y52.3969
G01 X49.7881 Y52.4123
G01 X49.7595 Y52.4342
G01 X49.7403 Y52.4478
G01 X49.7204 Y52.4604
G01 X49.6892 Y52.4784
G01 X49.6681 Y52.4890
G01 X49.6461 Y52.4992
G01 X49.6244 Y52.5082
G01 X49.6016 Y52.5165
G01 X49.5792 Y52.5239
G01 X49.5565 Y52.5302
G01 X49.5330 Y52.5360
G01 X49.5099 Y52.5406
G01 X49.4742 Y52.5458
G01 X49.4508 Y52.5482
G01 X49.4266 Y52.5495
G01 X49.4030 Y52.5501
G01 X43.6601 Y52.5501
G01 X43.6601 Y58.2930
G01 X43.6595 Y58.3166
G01 X43.6571 Y58.3525
G01 X43.6524 Y58.3882
G01 X43.6506 Y58.3999
G01 X43.6460 Y58.4230
G01 X43.6372 Y58.4579
G01 X43.6304 Y58.4805
G01 X43.6265 Y58.4916
G01 X43.6139 Y58.5253
G01 X43.5990 Y58.5581
G01 X43.5938 Y58.5687
G01 X43.5827 Y58.5895
G01 X43.5642 Y58.6204
G01 X43.5578 Y58.6303
G01 X43.5442 Y58.6495
G01 X43.5223 Y58.6781
G01 X43.5069 Y58.6960
G01 X43.4905 Y58.7138
G01 X43.4823 Y58.7223
G01 X43.4652 Y58.7385
G01 X43.4381 Y58.7623
G01 X43.4095 Y58.7842
G01 X43.4000 Y58.7911
G01 X43.3804 Y58.8042
G01 X43.3597 Y58.8168
G01 X43.3392 Y58.8284
G01 X43.3069 Y58.8443
G01 X43.2853 Y58.8539
G01 X43.2744 Y58.8582
G01 X43.2516 Y58.8665
G01 X43.2292 Y58.8739
G01 X43.2065 Y58.8802
G01 X43.1830 Y58.8860
G01 X43.1599 Y58.8906
G01 X43.1359 Y58.8943
G01 X43.1125 Y58.8971
G01 X43.1008 Y58.8982
G01 X43.0766 Y58.8995
G01 X43.0530 Y58.9001
G01 X33.1470 Y58.9001
G01 X33.1234 Y58.8995
G01 X33.0992 Y58.8982
G01 X33.0875 Y58.8971
G01 X33.0641 Y58.8943
G01 X33.0401 Y58.8906
G01 X33.0170 Y58.8860
G01 X32.9935 Y58.8802
G01 X32.9708 Y58.8739
G01 X32.9484 Y58.8665
G01 X32.9256 Y58.8582
G01 X32.9147 Y58.8539
G01 X32.8931 Y58.8443
G01 X32.8608 Y58.8284
G01 X32.8403 Y58.8168
G01 X32.8196 Y58.8042
G01 X32.8097 Y58.7978
G01 X32.7905 Y58.7842
G01 X32.7619 Y58.7623
G01 X32.7348 Y58.7385
G01 X32.7177 Y58.7223
G01 X32.7095 Y58.7138
G01 X32.6931 Y58.6960
G01 X32.6777 Y58.6781
G01 X32.6558 Y58.6495
G01 X32.6489 Y58.6400
G01 X32.6358 Y58.6204
G01 X32.6173 Y58.5895
G01 X32.6062 Y58.5687
G01 X32.6010 Y58.5581
G01 X32.5861 Y58.5253
G01 X32.5735 Y58.4916
G01 X32.5696 Y58.4805
G01 X32.5628 Y58.4579
G01 X32.5568 Y58.4344
G01 X32.5516 Y58.4114
G01 X32.5457 Y58.3759
G01 X32.5429 Y58.3525
G01 X32.5418 Y58.3408
G01 X32.5401 Y58.3048
G01 X32.5399 Y47.4701
G01 X25.5270 Y47.4701
G01 X25.5034 Y47.4695
G01 X25.4675 Y47.4671
G01 X25.4318 Y47.4624
G01 X25.4086 Y47.4584
G01 X25.3970 Y47.4560
G01 X25.3621 Y47.4472
G01 X25.3395 Y47.4404
G01 X25.3284 Y47.4365
G01 X25.2947 Y47.4239
G01 X25.2619 Y47.4090
G01 X25.2513 Y47.4038
G01 X25.2305 Y47.3927
G01 X25.1996 Y47.3742
G01 X25.1897 Y47.3678
G01 X25.1705 Y47.3542
G01 X25.1419 Y47.3323
G01 X25.1240 Y47.3169
G01 X25.1062 Y47.3005
G01 X25.0895 Y47.2838
G01 X25.0815 Y47.2752
G01 X25.0577 Y47.2481
G01 X25.0358 Y47.2195
G01 X25.0222 Y47.2003
G01 X25.0158 Y47.1904
G01 X25.0032 Y47.1697
G01 X24.9916 Y47.1492
G01 X24.9757 Y47.1169
G01 X24.9661 Y47.0953
G01 X24.9618 Y47.0844
G01 X24.9535 Y47.0616
G01 X24.9461 Y47.0392
G01 X24.9398 Y47.0165
G01 X24.9340 Y46.9930
G01 X24.9294 Y46.9699
G01 X24.9257 Y46.9459
G01 X24.9242 Y46.9342
G01 X24.9218 Y46.9108
G01 X24.9205 Y46.8866
G01 X24.9199 Y46.8630
G01 X24.9201 Y31.9441
G01 X24.9211 Y31.9200
G01 X24.9228 Y31.8966
G01 X24.9275 Y31.8610
G01 X24.9315 Y31.8379
G01 X24.9366 Y31.8150
G01 X24.9426 Y31.7916
G01 X24.9494 Y31.7692
G01 X24.9574 Y31.7464
G01 X24.9658 Y31.7245
G01 X24.9752 Y31.7030
G01 X24.9856 Y31.6812
G01 X24.9967 Y31.6605
G01 X25.0089 Y31.6397
G01 X25.0214 Y31.6198
G01 X25.0349 Y31.6006
G01 X25.0566 Y31.5721
G01 X25.0802 Y31.5451
G01 X25.0963 Y31.5280
G01 X25.1133 Y31.5118
G01 X25.1312 Y31.4956
G01 X25.1493 Y31.4807
G01 X25.1685 Y31.4661
G01 X25.1876 Y31.4525
G01 X25.2074 Y31.4399
G01 X25.2281 Y31.4275
G01 X25.2488 Y31.4163
G01 X25.2811 Y31.4008
G01 X25.3028 Y31.3917
G01 X25.3254 Y31.3834
G01 X25.3477 Y31.3759
G01 X25.3702 Y31.3695
G01 X25.3976 Y31.3628
G01 X25.3765 Y31.3334
G01 X25.3639 Y31.3135
G01 X25.2125 Y31.0610
G01 X25.2009 Y31.0405
G01 X25.1903 Y31.0194
G01 X25.0644 Y30.7533
G01 X25.0549 Y30.7317
G01 X25.0464 Y30.7098
G01 X24.9434 Y30.4214
G01 X24.9398 Y30.4102
G01 X24.9336 Y30.3875
G01 X24.8620 Y30.1019
G01 X24.8569 Y30.0789
G01 X24.8547 Y30.0673
G01 X24.8488 Y30.0286
G01 X24.8426 Y30.0151
G01 X24.8336 Y29.9933
G01 X24.8162 Y29.9453
G01 X24.8088 Y29.9229
G01 X24.8026 Y29.9002
G01 X24.7903 Y29.8507
G01 X24.7857 Y29.8276
G01 X24.7838 Y29.8159
G01 X24.7765 Y29.7654
G01 X24.7742 Y29.7420
G01 X24.7711 Y29.6793
G01 X24.7711 Y29.6557
G01 X24.7742 Y29.5930
G01 X24.7765 Y29.5695
G01 X24.7857 Y29.5074
G01 X24.7879 Y29.4958
G01 X24.7930 Y29.4729
G00 Z2.0000
G00 X24.7614 Y27.2920
G01 F80.00
G01 Z-0.2239
G01 F240.00
G01 X24.7781 Y27.3196
G01 X24.7882 Y27.3351
G01 X24.8095 Y27.3656
G01 X24.8281 Y27.3904
G01 X24.8397 Y27.4049
G01 X24.8638 Y27.4331
G01 X24.8847 Y27.4560
G01 X24.8977 Y27.4693
G01 X24.9245 Y27.4950
G01 X24.9475 Y27.5158
G01 X24.9617 Y27.5278
G01 X24.9762 Y27.5394
G01 X24.9965 Y27.5549
G01 X24.9724 Y27.5951
G01 X24.9540 Y27.6275
G01 X24.9372 Y27.6609
G01 X24.9022 Y27.7349
G01 X24.8912 Y27.7122
G01 X24.8737 Y27.6793
G01 X24.8264 Y27.6001
G01 X24.8065 Y27.5686
G01 X24.7850 Y27.5381
G01 X24.7299 Y27.4641
G01 X24.7062 Y27.4353
G01 X24.6797 Y27.4057
G01 X24.7019 Y27.3784
G01 X24.7205 Y27.3536
G01 X24.7418 Y27.3232
G01 X24.7614 Y27.2920
G00 Z2.0000
G00 X19.8183 Y23.1999
G01 F80.00
G01 Z-0.2239
G01 F240.00
G01 X19.8409 Y23.0462
G01 X19.8500 Y22.8600
G01 X19.8409 Y22.6738
G01 X19.8183 Y22.5201
G01 X19.8500 Y22.5217
G01 X19.8817 Y22.5201
G01 X19.8591 Y22.6738
G01 X19.8500 Y22.8600
G01 X19.8591 Y23.0462
G01 X19.8817 Y23.1999
G01 X19.8500 Y23.1983
G01 X19.8183 Y23.1999
G00 Z2.0000
G00 X21.4511 Y20.8640
G01 F80.00
G01 Z-0.2239
G01 F240.00
G01 X21.8523 Y20.8449
G01 X22.0398 Y20.8731
G01 X21.9429 Y20.9699
G01 X21.9264 Y20.9684
G01 X21.7500 Y20.9600
G01 X21.5736 Y20.9684
G01 X21.5571 Y20.9699
G01 X21.4511 Y20.8640
G00 Z2.0000
G00 X17.6511 Y20.8640
G01 F80.00
G01 Z-0.2239
G01 F240.00
G01 X18.0523 Y20.8449
G01 X18.2398 Y20.8731
G01 X18.1429 Y20.9699
G01 X18.1264 Y20.9684
G01 X17.9500 Y20.9600
G01 X17.7736 Y20.9684
G01 X17.7571 Y20.9699
G01 X17.6511 Y20.8640
G00 Z2.0000
G00 X15.9540 Y23.1589
G01 F80.00
G01 Z-0.2239
G01 F240.00
G01 X15.9349 Y22.7577
G01 X15.9631 Y22.5702
G01 X16.0599 Y22.6671
G01 X16.0584 Y22.6836
G01 X16.0500 Y22.8600
G01 X16.0584 Y23.0364
G01 X16.0599 Y23.0529
G01 X15.9540 Y23.1589
G00 Z2.0000
G00 X16.1766 Y26.6987
G01 F80.00
G01 Z-0.2239
G01 F240.00
G01 X16.3921 Y26.5255
G01 X16.9283 Y26.2460
G01 X17.1044 Y26.4222
G01 X17.0546 Y26.4401
G01 X17.0409 Y26.4455
G01 X16.7659 Y26.5756
G01 X16.7530 Y26.5827
G01 X16.5594 Y26.6987
G01 X16.1766 Y26.6987
G00 Z2.0000
G00 X16.1766 Y32.1013
G01 F80.00
G01 Z-0.2239
G01 F240.00
G01 X16.5594 Y32.1013
G01 X16.7530 Y32.2173
G01 X16.7659 Y32.2244
G01 X17.0364 Y32.3524
G01 X17.0500 Y32.3582
G01 X17.0687 Y32.3650
G01 X17.0687 Y32.6089
G01 X16.9890 Y32.5856
G01 X16.3921 Y32.2745
G01 X16.1766 Y32.1013
G00 Z2.0000
G00 X24.7650 Y47.3168
G01 F80.00
G01 Z-0.2239
G01 F240.00
G01 X24.7507 Y47.3402
G01 X24.7406 Y47.3558
G01 X24.7300 Y47.3712
G01 X24.7117 Y47.3963
G01 X24.7004 Y47.4112
G01 X24.6767 Y47.4400
G01 X24.6433 Y47.4769
G01 X24.6302 Y47.4902
G01 X24.6032 Y47.5160
G01 X24.5800 Y47.5367
G01 X24.5657 Y47.5487
G01 X24.5512 Y47.5604
G01 X24.5263 Y47.5791
G01 X24.4958 Y47.6006
G01 X24.4802 Y47.6107
G01 X24.4375 Y47.6363
G01 X24.4046 Y47.6539
G01 X24.3878 Y47.6621
G01 X24.3596 Y47.6752
G01 X24.3425 Y47.6825
G01 X24.3077 Y47.6960
G01 X24.2783 Y47.7062
G01 X24.2426 Y47.7171
G01 X24.2245 Y47.7218
G01 X24.1943 Y47.7292
G01 X24.1761 Y47.7330
G01 X24.1577 Y47.7364
G01 X24.1270 Y47.7412
G01 X24.0899 Y47.7458
G01 X24.0714 Y47.7474
G01 X24.0403 Y47.7491
G01 X24.0030 Y47.7501
G01 X18.5458 Y47.7501
G01 X18.5401 Y58.2934
G01 X18.5391 Y58.3303
G01 X18.5374 Y58.3614
G01 X18.5337 Y58.3985
G01 X18.5294 Y58.4293
G01 X18.5230 Y58.4661
G01 X18.5148 Y58.5025
G01 X18.5071 Y58.5326
G01 X18.4962 Y58.5683
G01 X18.4860 Y58.5977
G01 X18.4725 Y58.6325
G01 X18.4574 Y58.6666
G01 X18.4439 Y58.6946
G01 X18.4353 Y58.7112
G01 X18.4169 Y58.7436
G01 X18.4007 Y58.7702
G01 X18.3800 Y58.8012
G01 X18.3617 Y58.8263
G01 X18.3387 Y58.8557
G01 X18.3143 Y58.8840
G01 X18.2933 Y58.9069
G01 X18.2669 Y58.9333
G01 X18.2440 Y58.9543
G01 X18.2157 Y58.9787
G01 X18.2012 Y58.9904
G01 X18.1763 Y59.0091
G01 X18.1458 Y59.0306
G01 X18.1143 Y59.0505
G01 X18.0875 Y59.0663
G01 X18.0546 Y59.0839
G01 X18.0266 Y59.0974
G01 X17.9925 Y59.1125
G01 X17.9577 Y59.1260
G01 X17.9283 Y59.1362
G01 X17.8926 Y59.1471
G01 X17.8625 Y59.1548
G01 X17.8261 Y59.1630
G01 X17.7893 Y59.1694
G01 X17.7585 Y59.1737
G01 X17.7399 Y59.1758
G01 X17.7214 Y59.1774
G01 X17.6903 Y59.1791
G01 X17.6530 Y59.1801
G01 X7.7470 Y59.1801
G01 X7.7097 Y59.1791
G01 X7.6786 Y59.1774
G01 X7.6601 Y59.1758
G01 X7.6415 Y59.1737
G01 X7.6107 Y59.1694
G01 X7.5739 Y59.1630
G01 X7.5375 Y59.1548
G01 X7.5074 Y59.1471
G01 X7.4895 Y59.1419
G01 X7.4541 Y59.1302
G01 X7.4249 Y59.1195
G01 X7.3904 Y59.1052
G01 X7.3734 Y59.0974
G01 X7.3454 Y59.0839
G01 X7.3125 Y59.0663
G01 X7.2857 Y59.0505
G01 X7.2542 Y59.0306
G01 X7.2388 Y59.0200
G01 X7.2137 Y59.0017
G01 X7.1988 Y58.9904
G01 X7.1700 Y58.9667
G01 X7.1468 Y58.9460
G01 X7.1198 Y58.9202
G01 X7.0940 Y58.8932
G01 X7.0733 Y58.8700
G01 X7.0496 Y58.8412
G01 X7.0383 Y58.8263
G01 X7.0200 Y58.8012
G01 X7.0094 Y58.7858
G01 X6.9895 Y58.7543
G01 X6.9737 Y58.7275
G01 X6.9561 Y58.6946
G01 X6.9426 Y58.6666
G01 X6.9348 Y58.6496
G01 X6.9205 Y58.6151
G01 X6.9098 Y58.5859
G01 X6.8981 Y58.5505
G01 X6.8929 Y58.5326
G01 X6.8852 Y58.5025
G01 X6.8770 Y58.4661
G01 X6.8736 Y58.4477
G01 X6.8688 Y58.4170
G01 X6.8642 Y58.3799
G01 X6.8626 Y58.3614
G01 X6.8609 Y58.3303
G01 X6.8599 Y58.2930
G01 X6.8599 Y52.8355
G01 X1.3962 Y52.8301
G01 X1.3597 Y52.8291
G01 X1.3286 Y52.8274
G01 X1.2915 Y52.8237
G01 X1.2730 Y52.8212
G01 X1.2423 Y52.8164
G01 X1.2239 Y52.8130
G01 X1.2057 Y52.8092
G01 X1.1755 Y52.8018
G01 X1.1395 Y52.7919
G01 X1.1217 Y52.7862
G01 X1.0749 Y52.7695
G01 X1.0404 Y52.7552
G01 X1.0234 Y52.7474
G01 X0.9954 Y52.7339
G01 X0.9788 Y52.7253
G01 X0.9625 Y52.7163
G01 X0.9357 Y52.7005
G01 X0.9042 Y52.6806
G01 X0.8888 Y52.6700
G01 X0.8488 Y52.6404
G01 X0.8200 Y52.6167
G01 X0.8060 Y52.6043
G01 X0.7831 Y52.5833
G01 X0.7698 Y52.5702
G01 X0.7567 Y52.5569
G01 X0.7357 Y52.5340
G01 X0.7233 Y52.5200
G01 X0.6996 Y52.4912
G01 X0.6700 Y52.4512
G01 X0.6594 Y52.4358
G01 X0.6395 Y52.4043
G01 X0.6237 Y52.3775
G01 X0.6147 Y52.3612
G01 X0.5979 Y52.3278
G01 X0.5848 Y52.2996
G01 X0.5775 Y52.2825
G01 X0.5640 Y52.2477
G01 X0.5538 Y52.2183
G01 X0.5429 Y52.1826
G01 X0.5352 Y52.1525
G01 X0.5270 Y52.1161
G01 X0.5236 Y52.0977
G01 X0.5188 Y52.0670
G01 X0.5142 Y52.0299
G01 X0.5126 Y52.0114
G01 X0.5109 Y51.9803
G01 X0.5099 Y51.9430
G01 X0.5099 Y7.7470
G01 X0.5109 Y7.7097
G01 X0.5126 Y7.6786
G01 X0.5142 Y7.6601
G01 X0.5163 Y7.6415
G01 X0.5206 Y7.6107
G01 X0.5270 Y7.5739
G01 X0.5352 Y7.5375
G01 X0.5429 Y7.5074
G01 X0.5481 Y7.4895
G01 X0.5598 Y7.4541
G01 X0.5705 Y7.4249
G01 X0.5775 Y7.4075
G01 X0.5926 Y7.3734
G01 X0.6061 Y7.3454
G01 X0.6237 Y7.3125
G01 X0.6395 Y7.2857
G01 X0.6594 Y7.2542
G01 X0.6700 Y7.2388
G01 X0.6883 Y7.2137
G01 X0.6996 Y7.1988
G01 X0.7233 Y7.1700
G01 X0.7440 Y7.1468
G01 X0.7698 Y7.1198
G01 X0.7968 Y7.0940
G01 X0.8200 Y7.0733
G01 X0.8343 Y7.0613
G01 X0.8637 Y7.0383
G01 X0.8888 Y7.0200
G01 X0.9042 Y7.0094
G01 X0.9357 Y6.9895
G01 X0.9625 Y6.9737
G01 X0.9954 Y6.9561
G01 X1.0234 Y6.9426
G01 X1.0404 Y6.9348
G01 X1.0749 Y6.9205
G01 X1.1041 Y6.9098
G01 X1.1395 Y6.8981
G01 X1.1574 Y6.8929
G01 X1.1875 Y6.8852
G01 X1.2239 Y6.8770
G01 X1.2423 Y6.8736
G01 X1.2730 Y6.8688
G01 X1.3101 Y6.8642
G01 X1.3286 Y6.8626
G01 X1.3597 Y6.8609
G01 X1.3970 Y6.8599
G01 X6.8545 Y6.8599
G01 X6.8599 Y1.3962
G01 X6.8602 Y1.3780
G01 X6.8615 Y1.3473
G01 X6.8642 Y1.3101
G01 X6.8663 Y1.2915
G01 X6.8706 Y1.2607
G01 X6.8770 Y1.2239
G01 X6.8852 Y1.1875
G01 X6.8929 Y1.1574
G01 X6.9038 Y1.1217
G01 X6.9140 Y1.0923
G01 X6.9275 Y1.0575
G01 X6.9426 Y1.0234
G01 X6.9561 Y0.9954
G01 X6.9737 Y0.9625
G01 X6.9895 Y0.9357
G01 X7.0094 Y0.9042
G01 X7.0309 Y0.8737
G01 X7.0496 Y0.8488
G01 X7.0613 Y0.8343
G01 X7.0857 Y0.8060
G01 X7.1067 Y0.7831
G01 X7.1331 Y0.7567
G01 X7.1560 Y0.7357
G01 X7.1843 Y0.7113
G01 X7.2137 Y0.6883
G01 X7.2388 Y0.6700
G01 X7.2698 Y0.6493
G01 X7.2964 Y0.6331
G01 X7.3288 Y0.6147
G01 X7.3454 Y0.6061
G01 X7.3734 Y0.5926
G01 X7.4075 Y0.5775
G01 X7.4423 Y0.5640
G01 X7.4717 Y0.5538
G01 X7.5074 Y0.5429
G01 X7.5375 Y0.5352
G01 X7.5739 Y0.5270
G01 X7.6107 Y0.5206
G01 X7.6415 Y0.5163
G01 X7.6786 Y0.5126
G01 X7.7097 Y0.5109
G01 X7.7470 Y0.5099
G01 X24.0217 Y0.5102
G01 X24.0527 Y0.5115
G01 X24.0899 Y0.5142
G01 X24.1085 Y0.5163
G01 X24.1393 Y0.5206
G01 X24.1761 Y0.5270
G01 X24.1943 Y0.5308
G01 X24.2426 Y0.5429
G01 X24.2605 Y0.5481
G01 X24.2959 Y0.5598
G01 X24.3251 Y0.5705
G01 X24.3425 Y0.5775
G01 X24.3596 Y0.5848
G01 X24.3878 Y0.5979
G01 X24.4046 Y0.6061
G01 X24.4375 Y0.6237
G01 X24.4802 Y0.6493
G01 X24.4958 Y0.6594
G01 X24.5263 Y0.6809
G01 X24.5512 Y0.6996
G01 X24.5657 Y0.7113
G01 X24.5940 Y0.7357
G01 X24.6169 Y0.7567
G01 X24.6433 Y0.7831
G01 X24.6560 Y0.7968
G01 X24.6767 Y0.8200
G01 X24.7004 Y0.8488
G01 X24.7191 Y0.8737
G01 X24.7406 Y0.9042
G01 X24.7507 Y0.9198
G01 X24.7650 Y0.9432
G01 X24.7793 Y0.9198
G01 X24.7894 Y0.9042
G01 X24.8109 Y0.8737
G01 X24.8296 Y0.8488
G01 X24.8533 Y0.8200
G01 X24.8740 Y0.7968
G01 X24.8867 Y0.7831
G01 X24.9131 Y0.7567
G01 X24.9360 Y0.7357
G01 X24.9643 Y0.7113
G01 X24.9788 Y0.6996
G01 X25.0037 Y0.6809
G01 X25.0188 Y0.6700
G01 X25.0498 Y0.6493
G01 X25.0925 Y0.6237
G01 X25.1254 Y0.6061
G01 X25.1422 Y0.5979
G01 X25.1704 Y0.5848
G01 X25.1875 Y0.5775
G01 X25.2049 Y0.5705
G01 X25.2341 Y0.5598
G01 X25.2517 Y0.5538
G01 X25.2874 Y0.5429
G01 X25.3175 Y0.5352
G01 X25.3539 Y0.5270
G01 X25.3723 Y0.5236
G01 X25.4030 Y0.5188
G01 X25.4215 Y0.5163
G01 X25.4586 Y0.5126
G01 X25.5083 Y0.5102
G01 X43.0530 Y0.5099
G01 X43.0903 Y0.5109
G01 X43.1214 Y0.5126
G01 X43.1399 Y0.5142
G01 X43.1585 Y0.5163
G01 X43.1893 Y0.5206
G01 X43.2261 Y0.5270
G01 X43.2625 Y0.5352
G01 X43.2926 Y0.5429
G01 X43.3105 Y0.5481
G01 X43.3459 Y0.5598
G01 X43.3751 Y0.5705
G01 X43.4096 Y0.5848
G01 X43.4266 Y0.5926
G01 X43.4546 Y0.6061
G01 X43.4875 Y0.6237
G01 X43.5143 Y0.6395
G01 X43.5458 Y0.6594
G01 X43.5763 Y0.6809
G01 X43.6012 Y0.6996
G01 X43.6300 Y0.7233
G01 X43.6532 Y0.7440
G01 X43.6669 Y0.7567
G01 X43.6933 Y0.7831
G01 X43.7143 Y0.8060
G01 X43.7387 Y0.8343
G01 X43.7504 Y0.8488
G01 X43.7691 Y0.8737
G01 X43.7906 Y0.9042
G01 X43.8007 Y0.9198
G01 X43.8169 Y0.9464
G01 X43.8353 Y0.9788
G01 X43.8521 Y1.0122
G01 X43.8652 Y1.0404
G01 X43.8795 Y1.0749
G01 X43.8860 Y1.0923
G01 X43.8962 Y1.1217
G01 X43.9019 Y1.1395
G01 X43.9118 Y1.1755
G01 X43.9192 Y1.2057
G01 X43.9264 Y1.2423
G01 X43.9294 Y1.2607
G01 X43.9337 Y1.2915
G01 X43.9374 Y1.3286
G01 X43.9391 Y1.3597
G01 X43.9401 Y1.3970
G01 X43.9401 Y8.1245
G01 X49.4038 Y8.1299
G01 X49.4220 Y8.1302
G01 X49.4527 Y8.1315
G01 X49.4714 Y8.1326
G01 X49.5085 Y8.1363
G01 X49.5393 Y8.1406
G01 X49.5761 Y8.1470
G01 X49.6125 Y8.1552
G01 X49.6426 Y8.1629
G01 X49.6605 Y8.1681
G01 X49.6959 Y8.1798
G01 X49.7251 Y8.1905
G01 X49.7596 Y8.2048
G01 X49.7878 Y8.2179
G01 X49.8212 Y8.2347
G01 X49.8536 Y8.2531
G01 X49.8802 Y8.2693
G01 X49.9112 Y8.2900
G01 X49.9363 Y8.3083
G01 X49.9657 Y8.3313
G01 X49.9800 Y8.3433
G01 X50.0032 Y8.3640
G01 X50.0302 Y8.3898
G01 X50.0560 Y8.4168
G01 X50.0767 Y8.4400
G01 X50.0887 Y8.4543
G01 X50.1117 Y8.4837
G01 X50.1300 Y8.5088
G01 X50.1507 Y8.5398
G01 X50.1669 Y8.5664
G01 X50.1853 Y8.5988
G01 X50.2021 Y8.6322
G01 X50.2152 Y8.6604
G01 X50.2295 Y8.6949
G01 X50.2402 Y8.7241
G01 X50.2519 Y8.7595
G01 X50.2571 Y8.7774
G01 X50.2648 Y8.8075
G01 X50.2730 Y8.8439
G01 X50.2794 Y8.8807
G01 X50.2837 Y8.9115
G01 X50.2874 Y8.9486
G01 X50.2885 Y8.9673
G01 X50.2898 Y8.9983
G01 X50.2901 Y9.0170
G01 X50.2901 Y51.9430
G01 X50.2891 Y51.9803
G01 X50.2874 Y52.0114
G01 X50.2858 Y52.0299
G01 X50.2837 Y52.0485
G01 X50.2794 Y52.0793
G01 X50.2730 Y52.1161
G01 X50.2648 Y52.1525
G01 X50.2571 Y52.1826
G01 X50.2519 Y52.2005
G01 X50.2402 Y52.2359
G01 X50.2295 Y52.2651
G01 X50.2152 Y52.2996
G01 X50.2074 Y52.3166
G01 X50.1939 Y52.3446
G01 X50.1763 Y52.3775
G01 X50.1605 Y52.4043
G01 X50.1406 Y52.4358
G01 X50.1300 Y52.4512
G01 X50.1117 Y52.4763
G01 X50.1004 Y52.4912
G01 X50.0767 Y52.5200
G01 X50.0560 Y52.5432
G01 X50.0302 Y52.5702
G01 X50.0032 Y52.5960
G01 X49.9800 Y52.6167
G01 X49.9512 Y52.6404
G01 X49.9363 Y52.6517
G01 X49.9112 Y52.6700
G01 X49.8958 Y52.6806
G01 X49.8643 Y52.7005
G01 X49.8375 Y52.7163
G01 X49.8046 Y52.7339
G01 X49.7766 Y52.7474
G01 X49.7425 Y52.7625
G01 X49.7251 Y52.7695
G01 X49.6959 Y52.7802
G01 X49.6605 Y52.7919
G01 X49.6426 Y52.7971
G01 X49.6125 Y52.8048
G01 X49.5943 Y52.8092
G01 X49.5577 Y52.8164
G01 X49.5270 Y52.8212
G01 X49.4899 Y52.8258
G01 X49.4714 Y52.8274
G01 X49.4403 Y52.8291
G01 X49.4030 Y52.8301
G01 X43.9455 Y52.8301
G01 X43.9401 Y58.2938
G01 X43.9398 Y58.3120
G01 X43.9385 Y58.3427
G01 X43.9358 Y58.3799
G01 X43.9312 Y58.4170
G01 X43.9264 Y58.4477
G01 X43.9192 Y58.4843
G01 X43.9148 Y58.5025
G01 X43.9071 Y58.5326
G01 X43.9019 Y58.5505
G01 X43.8902 Y58.5859
G01 X43.8795 Y58.6151
G01 X43.8725 Y58.6325
G01 X43.8574 Y58.6666
G01 X43.8439 Y58.6946
G01 X43.8263 Y58.7275
G01 X43.8105 Y58.7543
G01 X43.7906 Y58.7858
G01 X43.7800 Y58.8012
G01 X43.7617 Y58.8263
G01 X43.7504 Y58.8412
G01 X43.7267 Y58.8700
G01 X43.7060 Y58.8932
G01 X43.6802 Y58.9202
G01 X43.6532 Y58.9460
G01 X43.6300 Y58.9667
G01 X43.6012 Y58.9904
G01 X43.5863 Y59.0017
G01 X43.5612 Y59.0200
G01 X43.5458 Y59.0306
G01 X43.5143 Y59.0505
G01 X43.4875 Y59.0663
G01 X43.4546 Y59.0839
G01 X43.4266 Y59.0974
G01 X43.4096 Y59.1052
G01 X43.3751 Y59.1195
G01 X43.3459 Y59.1302
G01 X43.3105 Y59.1419
G01 X43.2926 Y59.1471
G01 X43.2625 Y59.1548
G01 X43.2261 Y59.1630
G01 X43.1893 Y59.1694
G01 X43.1585 Y59.1737
G01 X43.1399 Y59.1758
G01 X43.1214 Y59.1774
G01 X43.0903 Y59.1791
G01 X43.0530 Y59.1801
G01 X33.1470 Y59.1801
G01 X33.1097 Y59.1791
G01 X33.0786 Y59.1774
G01 X33.0601 Y59.1758
G01 X33.0415 Y59.1737
G01 X33.0107 Y59.1694
G01 X32.9739 Y59.1630
G01 X32.9375 Y59.1548
G01 X32.9074 Y59.1471
G01 X32.8717 Y59.1362
G01 X32.8423 Y59.1260
G01 X32.8075 Y59.1125
G01 X32.7734 Y59.0974
G01 X32.7454 Y59.0839
G01 X32.7125 Y59.0663
G01 X32.6857 Y59.0505
G01 X32.6542 Y59.0306
G01 X32.6237 Y59.0091
G01 X32.5988 Y58.9904
G01 X32.5843 Y58.9787
G01 X32.5560 Y58.9543
G01 X32.5331 Y58.9333
G01 X32.5067 Y58.9069
G01 X32.4857 Y58.8840
G01 X32.4613 Y58.8557
G01 X32.4383 Y58.8263
G01 X32.4200 Y58.8012
G01 X32.3993 Y58.7702
G01 X32.3831 Y58.7436
G01 X32.3647 Y58.7112
G01 X32.3561 Y58.6946
G01 X32.3426 Y58.6666
G01 X32.3275 Y58.6325
G01 X32.3140 Y58.5977
G01 X32.3038 Y58.5683
G01 X32.2929 Y58.5326
G01 X32.2852 Y58.5025
G01 X32.2770 Y58.4661
G01 X32.2706 Y58.4293
G01 X32.2663 Y58.3985
G01 X32.2626 Y58.3614
G01 X32.2609 Y58.3303
G01 X32.2599 Y58.2930
G01 X32.2599 Y47.7556
G01 X25.5264 Y47.7501
G01 X25.5080 Y47.7498
G01 X25.4773 Y47.7485
G01 X25.4586 Y47.7474
G01 X25.4215 Y47.7437
G01 X25.3723 Y47.7364
G01 X25.3539 Y47.7330
G01 X25.3175 Y47.7248
G01 X25.2874 Y47.7171
G01 X25.2695 Y47.7119
G01 X25.2517 Y47.7062
G01 X25.2223 Y47.6960
G01 X25.2049 Y47.6895
G01 X25.1704 Y47.6752
G01 X25.1422 Y47.6621
G01 X25.1088 Y47.6453
G01 X25.0925 Y47.6363
G01 X25.0657 Y47.6205
G01 X25.0342 Y47.6006
G01 X25.0188 Y47.5900
G01 X24.9788 Y47.5604
G01 X24.9500 Y47.5367
G01 X24.9360 Y47.5243
G01 X24.9131 Y47.5033
G01 X24.8998 Y47.4902
G01 X24.8867 Y47.4769
G01 X24.8657 Y47.4540
G01 X24.8533 Y47.4400
G01 X24.8296 Y47.4112
G01 X24.8109 Y47.3863
G01 X24.7894 Y47.3558
G01 X24.7793 Y47.3402
G01 X24.7650 Y47.3168
G00 Z2.0000
G00 X24.0697 Y51.4407
G01 F80.00
G01 Z-0.2239
G01 F240.00
G01 X24.0421 Y51.4101
G01 X24.0326 Y51.3988
G01 X23.9858 Y51.3358
G01 X23.9774 Y51.3237
G01 X23.9322 Y51.2478
G01 X23.8942 Y51.1681
G01 X23.8888 Y51.1544
G01 X23.8609 Y51.0758
G01 X23.8404 Y50.9949
G01 X23.8366 Y50.9757
G01 X23.8258 Y50.9029
G01 X23.8242 Y50.8882
G01 X23.8200 Y50.8000
G01 X23.8246 Y50.7069
G01 X23.8383 Y50.6147
G01 X23.8583 Y50.5337
G01 X23.8640 Y50.5149
G01 X23.8888 Y50.4456
G01 X23.8963 Y50.4275
G01 X23.9322 Y50.3522
G01 X23.9749 Y50.2805
G01 X23.9829 Y50.2682
G01 X24.0356 Y50.1973
G01 X24.0982 Y50.1282
G01 X24.1673 Y50.0656
G01 X24.2342 Y50.0158
G01 X24.2505 Y50.0049
G01 X24.3136 Y49.9670
G01 X24.3309 Y49.9578
G01 X24.4065 Y49.9223
G01 X24.4942 Y49.8909
G01 X24.5847 Y49.8683
G01 X24.6769 Y49.8546
G01 X24.7700 Y49.8500
G01 X24.8533 Y49.8539
G01 X24.8729 Y49.8558
G01 X24.9457 Y49.8666
G01 X24.9649 Y49.8704
G01 X25.0458 Y49.8909
G01 X25.1244 Y49.9188
G01 X25.1381 Y49.9242
G01 X25.2091 Y49.9578
G01 X25.2264 Y49.9670
G01 X25.2978 Y50.0101
G01 X25.3649 Y50.0596
G01 X25.3801 Y50.0721
G01 X25.4418 Y50.1282
G01 X25.4979 Y50.1899
G01 X25.5104 Y50.2051
G01 X25.5599 Y50.2722
G01 X25.6030 Y50.3436
G01 X25.6122 Y50.3609
G01 X25.6477 Y50.4365
G01 X25.6760 Y50.5149
G01 X25.6817 Y50.5337
G01 X25.7017 Y50.6147
G01 X25.7142 Y50.6971
G01 X25.7161 Y50.7167
G01 X25.7200 Y50.8000
G01 X25.7154 Y50.8931
G01 X25.7017 Y50.9853
G01 X25.6817 Y51.0663
G01 X25.6776 Y51.0804
G01 X25.6477 Y51.1635
G01 X25.6122 Y51.2391
G01 X25.6055 Y51.2521
G01 X25.5651 Y51.3195
G01 X25.5571 Y51.3318
G01 X25.5074 Y51.3988
G01 X25.4979 Y51.4101
G01 X25.4703 Y51.4407
G01 X25.4703 Y52.2400
G01 X26.1096 Y52.2401
G01 X26.1465 Y52.2419
G01 X26.1786 Y52.2462
G01 X26.1967 Y52.2496
G01 X26.2237 Y52.2560
G01 X26.2326 Y52.2585
G01 X26.2676 Y52.2704
G01 X26.2972 Y52.2833
G01 X26.3097 Y52.2893
G01 X26.3419 Y52.3074
G01 X26.3725 Y52.3282
G01 X26.3834 Y52.3366
G01 X26.4082 Y52.3574
G01 X26.4312 Y52.3802
G01 X26.4406 Y52.3903
G01 X26.4641 Y52.4188
G01 X26.4851 Y52.4492
G01 X26.4923 Y52.4611
G01 X26.5078 Y52.4894
G01 X26.5211 Y52.5189
G01 X26.5262 Y52.5318
G01 X26.5378 Y52.5669
G01 X26.5464 Y52.6028
G01 X26.5488 Y52.6164
G01 X26.5531 Y52.6485
G01 X26.5549 Y52.6854
G01 X26.5549 Y53.9946
G01 X26.5531 Y54.0315
G01 X26.5488 Y54.0636
G01 X26.5464 Y54.0772
G01 X26.5378 Y54.1131
G01 X26.5262 Y54.1482
G01 X26.5211 Y54.1611
G01 X26.5078 Y54.1906
G01 X26.4923 Y54.2189
G01 X26.4851 Y54.2308
G01 X26.4641 Y54.2612
G01 X26.4376 Y54.2932
G01 X26.4082 Y54.3226
G01 X26.3834 Y54.3434
G01 X26.3725 Y54.3518
G01 X26.3458 Y54.3701
G01 X26.3339 Y54.3773
G01 X26.3056 Y54.3928
G01 X26.2761 Y54.4061
G01 X26.2632 Y54.4112
G01 X26.2326 Y54.4215
G01 X26.2192 Y54.4251
G01 X26.1922 Y54.4314
G01 X26.1786 Y54.4338
G01 X26.1465 Y54.4381
G01 X26.1096 Y54.4399
G01 X25.4703 Y54.4400
G01 X25.4703 Y54.5882
G01 X25.5000 Y54.5897
G01 X25.5098 Y54.5907
G01 X25.6039 Y54.6047
G01 X25.6183 Y54.6077
G01 X25.7059 Y54.6297
G01 X25.7199 Y54.6342
G01 X25.8095 Y54.6664
G01 X25.9000 Y54.7091
G01 X25.9129 Y54.7162
G01 X25.9945 Y54.7653
G01 X26.0788 Y54.8279
G01 X26.1566 Y54.8984
G01 X26.2207 Y54.9688
G01 X26.2332 Y54.9839
G01 X26.2840 Y55.0525
G01 X26.2949 Y55.0688
G01 X26.3437 Y55.1506
G01 X26.3886 Y55.2455
G01 X26.4239 Y55.3444
G01 X26.4473 Y55.4367
G01 X26.4511 Y55.4559
G01 X26.4648 Y55.5501
G01 X26.4700 Y55.6550
G01 X26.4700 Y56.1050
G01 X26.4656 Y56.2001
G01 X26.4643 Y56.2148
G01 X26.4494 Y56.3137
G01 X26.4239 Y56.4156
G01 X26.3886 Y56.5145
G01 X26.3481 Y56.6006
G01 X26.3388 Y56.6179
G01 X26.2897 Y56.6995
G01 X26.2271 Y56.7838
G01 X26.1566 Y56.8616
G01 X26.0788 Y56.9321
G01 X25.9945 Y56.9947
G01 X25.9044 Y57.0487
G01 X25.8095 Y57.0936
G01 X25.7199 Y57.1258
G01 X25.7059 Y57.1303
G01 X25.6087 Y57.1544
G01 X25.5049 Y57.1698
G01 X25.4000 Y57.1750
G01 X25.2951 Y57.1698
G01 X25.1913 Y57.1544
G01 X25.0894 Y57.1289
G01 X24.9905 Y57.0936
G01 X24.8956 Y57.0487
G01 X24.8055 Y56.9947
G01 X24.7212 Y56.9321
G01 X24.6434 Y56.8616
G01 X24.5729 Y56.7838
G01 X24.5103 Y56.6995
G01 X24.4563 Y56.6094
G01 X24.4114 Y56.5145
G01 X24.3792 Y56.4249
G01 X24.3747 Y56.4109
G01 X24.3506 Y56.3137
G01 X24.3364 Y56.2196
G01 X24.3347 Y56.2050
G01 X24.3300 Y56.1050
G01 X24.3300 Y55.8003
G01 X24.2714 Y55.7416
G01 X24.2287 Y55.6942
G01 X24.1878 Y55.6390
G01 X24.1524 Y55.5801
G01 X24.1231 Y55.5180
G01 X24.0999 Y55.4533
G01 X24.0832 Y55.3866
G01 X24.0743 Y55.3284
G01 X24.0724 Y55.3088
G01 X24.0697 Y55.2500
G01 X24.0697 Y51.4407
G00 Z2.0000
G00 X26.6379 Y51.7482
G01 F80.00
G01 Z-0.2239
G01 F240.00
G01 X26.5967 Y51.7461
G01 X26.5820 Y51.7449
G01 X26.5043 Y51.7334
G01 X26.4899 Y51.7307
G01 X26.4042 Y51.7091
G01 X26.3256 Y51.6812
G01 X26.3119 Y51.6758
G01 X26.2322 Y51.6378
G01 X26.1522 Y51.5899
G01 X26.0773 Y51.5344
G01 X26.0154 Y51.4785
G01 X26.0048 Y51.4682
G01 X25.9456 Y51.4027
G01 X25.8901 Y51.3278
G01 X25.8422 Y51.2478
G01 X25.8023 Y51.1635
G01 X25.7709 Y51.0758
G01 X25.7483 Y50.9853
G01 X25.7346 Y50.8931
G01 X25.7302 Y50.8098
G01 X25.7301 Y50.7951
G01 X25.7346 Y50.7069
G01 X25.7483 Y50.6147
G01 X25.7709 Y50.5242
G01 X25.8023 Y50.4365
G01 X25.8422 Y50.3522
G01 X25.8901 Y50.2722
G01 X25.9456 Y50.1973
G01 X26.0082 Y50.1282
G01 X26.0773 Y50.0656
G01 X26.1522 Y50.0101
G01 X26.2322 Y49.9622
G01 X26.3165 Y49.9223
G01 X26.4042 Y49.8909
G01 X26.4947 Y49.8683
G01 X26.5869 Y49.8546
G01 X26.6702 Y49.8502
G01 X26.6849 Y49.8501
G01 X26.7731 Y49.8546
G01 X26.8653 Y49.8683
G01 X26.9558 Y49.8909
G01 X27.0435 Y49.9223
G01 X27.1278 Y49.9622
G01 X27.2078 Y50.0101
G01 X27.2827 Y50.0656
G01 X27.3446 Y50.1215
G01 X27.3552 Y50.1318
G01 X27.4144 Y50.1973
G01 X27.4699 Y50.2722
G01 X27.5178 Y50.3522
G01 X27.5558 Y50.4319
G01 X27.5612 Y50.4456
G01 X27.5891 Y50.5242
G01 X27.6107 Y50.6099
G01 X27.6134 Y50.6243
G01 X27.6249 Y50.7020
G01 X27.6261 Y50.7167
G01 X27.6282 Y50.7579
G01 X28.4352 Y51.5648
G01 X28.4749 Y51.6083
G01 X28.4873 Y51.6235
G01 X28.5222 Y51.6710
G01 X28.5576 Y51.7299
G01 X28.5869 Y51.7920
G01 X28.6070 Y51.8474
G01 X28.6115 Y51.8614
G01 X28.6268 Y51.9234
G01 X28.6357 Y51.9816
G01 X28.6376 Y52.0012
G01 X28.6403 Y52.0600
G01 X28.6403 Y54.5923
G01 X28.6526 Y54.5947
G01 X28.6812 Y54.6018
G01 X28.6999 Y54.6075
G01 X28.7277 Y54.6174
G01 X28.7367 Y54.6212
G01 X28.7634 Y54.6337
G01 X28.7764 Y54.6405
G01 X28.8100 Y54.6608
G01 X28.8455 Y54.6871
G01 X28.8782 Y54.7168
G01 X28.9047 Y54.7458
G01 X28.9139 Y54.7573
G01 X28.9314 Y54.7809
G01 X28.9368 Y54.7891
G01 X28.9520 Y54.8143
G01 X28.9613 Y54.8316
G01 X28.9738 Y54.8583
G01 X28.9793 Y54.8720
G01 X28.9906 Y54.9044
G01 X29.0014 Y54.9472
G01 X29.0078 Y54.9909
G01 X29.0099 Y55.0301
G01 X29.0100 Y56.7250
G01 X29.0086 Y56.7593
G01 X29.0073 Y56.7740
G01 X29.0014 Y56.8128
G01 X28.9932 Y56.8462
G01 X28.9891 Y56.8603
G01 X28.9757 Y56.8972
G01 X28.9591 Y56.9328
G01 X28.9520 Y56.9457
G01 X28.9342 Y56.9750
G01 X28.9139 Y57.0027
G01 X28.9047 Y57.0142
G01 X28.8782 Y57.0432
G01 X28.8492 Y57.0697
G01 X28.8377 Y57.0789
G01 X28.8100 Y57.0992
G01 X28.7764 Y57.1195
G01 X28.7634 Y57.1263
G01 X28.7367 Y57.1388
G01 X28.7277 Y57.1426
G01 X28.6906 Y57.1556
G01 X28.6478 Y57.1664
G01 X28.6041 Y57.1728
G01 X28.5649 Y57.1749
G01 X27.3200 Y57.1750
G01 X27.2808 Y57.1733
G01 X27.2661 Y57.1716
G01 X27.2322 Y57.1664
G01 X27.1988 Y57.1582
G01 X27.1847 Y57.1541
G01 X27.1478 Y57.1407
G01 X27.1122 Y57.1241
G01 X27.0993 Y57.1170
G01 X27.0700 Y57.0992
G01 X27.0384 Y57.0759
G01 X27.0308 Y57.0697
G01 X27.0089 Y57.0500
G01 X26.9984 Y57.0397
G01 X26.9721 Y57.0105
G01 X26.9515 Y56.9830
G01 X26.9432 Y56.9709
G01 X26.9231 Y56.9371
G01 X26.9082 Y56.9062
G01 X26.9024 Y56.8927
G01 X26.8894 Y56.8556
G01 X26.8786 Y56.8128
G01 X26.8722 Y56.7691
G01 X26.8701 Y56.7299
G01 X26.8700 Y55.0350
G01 X26.8717 Y54.9958
G01 X26.8734 Y54.9811
G01 X26.8777 Y54.9520
G01 X26.8797 Y54.9424
G01 X26.8868 Y54.9138
G01 X26.8925 Y54.8951
G01 X26.9024 Y54.8673
G01 X26.9062 Y54.8583
G01 X26.9231 Y54.8229
G01 X26.9458 Y54.7850
G01 X26.9721 Y54.7495
G01 X26.9950 Y54.7239
G01 X27.0089 Y54.7100
G01 X27.0308 Y54.6903
G01 X27.0423 Y54.6811
G01 X27.0700 Y54.6608
G01 X27.1079 Y54.6381
G01 X27.1478 Y54.6193
G01 X27.1801 Y54.6075
G01 X27.1988 Y54.6018
G01 X27.2274 Y54.5947
G01 X27.2397 Y54.5923
G01 X27.2397 Y52.3501
G01 X26.6379 Y51.7482
G00 Z2.0000
G00 X26.5903 Y55.0181
G01 F80.00
G01 Z-0.2239
G01 F240.00
G01 X26.5790 Y54.9981
G01 X26.5351 Y54.9249
G01 X26.5225 Y54.9050
G01 X26.5089 Y54.8857
G01 X26.4581 Y54.8171
G01 X26.4436 Y54.7986
G01 X26.4360 Y54.7896
G01 X26.3708 Y54.7175
G01 X26.3546 Y54.7004
G01 X26.3355 Y54.6824
G01 X26.3583 Y54.6746
G01 X26.3790 Y54.6666
G01 X26.4204 Y54.6483
G01 X26.4304 Y54.6435
G01 X26.4500 Y54.6331
G01 X26.4798 Y54.6164
G01 X26.4987 Y54.6047
G01 X26.5269 Y54.5855
G01 X26.5449 Y54.5726
G01 X26.5623 Y54.5588
G01 X26.5885 Y54.5369
G01 X26.5968 Y54.5295
G01 X26.6128 Y54.5142
G01 X26.6369 Y54.4899
G01 X26.6519 Y54.4735
G01 X26.6738 Y54.4473
G01 X26.6876 Y54.4299
G01 X26.7005 Y54.4119
G01 X26.7136 Y54.3929
G01 X26.7197 Y54.3837
G01 X26.7314 Y54.3648
G01 X26.7481 Y54.3350
G01 X26.7585 Y54.3154
G01 X26.7679 Y54.2953
G01 X26.7816 Y54.2640
G01 X26.7857 Y54.2537
G01 X26.7932 Y54.2329
G01 X26.8006 Y54.2110
G01 X26.8071 Y54.1898
G01 X26.8127 Y54.1683
G01 X26.8204 Y54.1350
G01 X26.8226 Y54.1241
G01 X26.8261 Y54.1023
G01 X26.8293 Y54.0794
G01 X26.8319 Y54.0574
G01 X26.8334 Y54.0352
G01 X26.8345 Y54.0122
G01 X26.8350 Y53.9900
G01 X26.8350 Y52.6900
G01 X26.8345 Y52.6678
G01 X26.8334 Y52.6448
G01 X26.8328 Y52.6337
G01 X26.8307 Y52.6116
G01 X26.8261 Y52.5777
G01 X26.8226 Y52.5559
G01 X26.8180 Y52.5342
G01 X26.8127 Y52.5117
G01 X26.8100 Y52.5009
G01 X26.8040 Y52.4796
G01 X26.7896 Y52.4367
G01 X26.7816 Y52.4160
G01 X26.7772 Y52.4058
G01 X26.7679 Y52.3847
G01 X26.7585 Y52.3646
G01 X26.7481 Y52.3450
G01 X26.7369 Y52.3248
G01 X26.7257 Y52.3057
G01 X26.7136 Y52.2871
G01 X26.7005 Y52.2681
G01 X26.6876 Y52.2501
G01 X26.6808 Y52.2413
G01 X26.6519 Y52.2065
G01 X26.6369 Y52.1901
G01 X26.6292 Y52.1822
G01 X26.6128 Y52.1658
G01 X26.5968 Y52.1505
G01 X26.5801 Y52.1360
G01 X26.5623 Y52.1212
G01 X26.5537 Y52.1142
G01 X26.5360 Y52.1009
G01 X26.4987 Y52.0753
G01 X26.4798 Y52.0636
G01 X26.4403 Y52.0416
G01 X26.4204 Y52.0317
G01 X26.3790 Y52.0134
G01 X26.3583 Y52.0054
G01 X26.3154 Y51.9910
G01 X26.2941 Y51.9850
G01 X26.2500 Y51.9746
G01 X26.2282 Y51.9705
G01 X26.1834 Y51.9643
G01 X26.1724 Y51.9631
G01 X26.1502 Y51.9616
G01 X26.1272 Y51.9605
G01 X26.1050 Y51.9600
G01 X25.7503 Y51.9600
G01 X25.7503 Y51.6044
G01 X25.7940 Y51.6527
G01 X25.8103 Y51.6697
G01 X25.8273 Y51.6860
G01 X25.8819 Y51.7354
G01 X25.8997 Y51.7508
G01 X25.9183 Y51.7653
G01 X25.9774 Y51.8091
G01 X25.9966 Y51.8227
G01 X26.0166 Y51.8353
G01 X26.0797 Y51.8732
G01 X26.1002 Y51.8848
G01 X26.1212 Y51.8954
G01 X26.1878 Y51.9268
G01 X26.2093 Y51.9364
G01 X26.2313 Y51.9449
G01 X26.3117 Y51.9735
G01 X26.3229 Y51.9770
G01 X26.3457 Y51.9833
G01 X26.4285 Y52.0039
G01 X26.4516 Y52.0085
G01 X26.5112 Y52.0175
G01 X26.9597 Y52.4660
G01 X26.9597 Y54.4003
G01 X26.9343 Y54.4154
G01 X26.9144 Y54.4280
G01 X26.8952 Y54.4416
G01 X26.8755 Y54.4562
G01 X26.8661 Y54.4633
G01 X26.8479 Y54.4783
G01 X26.8209 Y54.5026
G01 X26.8038 Y54.5188
G01 X26.7876 Y54.5359
G01 X26.7711 Y54.5541
G01 X26.7557 Y54.5719
G01 X26.7483 Y54.5811
G01 X26.7266 Y54.6102
G01 X26.7130 Y54.6294
G01 X26.7004 Y54.6493
G01 X26.6878 Y54.6704
G01 X26.6819 Y54.6806
G01 X26.6708 Y54.7013
G01 X26.6551 Y54.7341
G01 X26.6456 Y54.7556
G01 X26.6371 Y54.7776
G01 X26.6288 Y54.8007
G01 X26.6214 Y54.8231
G01 X26.6182 Y54.8344
G01 X26.6065 Y54.8811
G01 X26.6040 Y54.8926
G01 X26.6000 Y54.9158
G01 X26.5964 Y54.9401
G01 X26.5935 Y54.9634
G01 X26.5918 Y54.9869
G01 X26.5903 Y55.0181
G00 Z2.0000
G00 X21.7052 Y53.9998
G01 F80.00
G01 Z-0.2239
G01 F240.00
G01 X21.7050 Y52.6900
G01 X21.7065 Y52.6531
G01 X21.7080 Y52.6393
G01 X21.7127 Y52.6073
G01 X21.7210 Y52.5713
G01 X21.7249 Y52.5580
G01 X21.7338 Y52.5318
G01 X21.7371 Y52.5232
G01 X21.7483 Y52.4978
G01 X21.7565 Y52.4812
G01 X21.7700 Y52.4571
G01 X21.7774 Y52.4454
G01 X21.7959 Y52.4188
G01 X21.8224 Y52.3868
G01 X21.8518 Y52.3574
G01 X21.8838 Y52.3309
G01 X21.9181 Y52.3074
G01 X21.9544 Y52.2872
G01 X21.9924 Y52.2704
G01 X22.0230 Y52.2599
G01 X22.0408 Y52.2549
G01 X22.0678 Y52.2486
G01 X22.0814 Y52.2462
G01 X22.1089 Y52.2424
G01 X22.1181 Y52.2415
G01 X22.1458 Y52.2402
G01 X22.1597 Y52.2400
G01 X22.1597 Y51.7500
G01 X22.1002 Y51.7498
G01 X22.0807 Y51.7478
G01 X22.0662 Y51.7451
G01 X22.0473 Y51.7399
G01 X22.0380 Y51.7366
G01 X22.0245 Y51.7308
G01 X22.0072 Y51.7215
G01 X21.9909 Y51.7106
G01 X21.9831 Y51.7046
G01 X21.9721 Y51.6948
G01 X21.9586 Y51.6806
G01 X21.9465 Y51.6652
G01 X21.9360 Y51.6486
G01 X21.9272 Y51.6310
G01 X21.9201 Y51.6127
G01 X21.9172 Y51.6033
G01 X21.9138 Y51.5890
G01 X21.9110 Y51.5696
G01 X21.9100 Y51.5500
G01 X21.9100 Y50.0500
G01 X21.9102 Y50.0402
G01 X21.9115 Y50.0255
G01 X21.9149 Y50.0062
G01 X21.9172 Y49.9967
G01 X21.9217 Y49.9826
G01 X21.9292 Y49.9645
G01 X21.9360 Y49.9514
G01 X21.9410 Y49.9430
G01 X21.9494 Y49.9309
G01 X21.9586 Y49.9194
G01 X21.9686 Y49.9086
G01 X21.9794 Y49.8986
G01 X21.9870 Y49.8923
G01 X21.9989 Y49.8837
G01 X22.0114 Y49.8760
G01 X22.0245 Y49.8692
G01 X22.0335 Y49.8652
G01 X22.0473 Y49.8601
G01 X22.0614 Y49.8560
G01 X22.0710 Y49.8538
G01 X22.0855 Y49.8515
G01 X22.1002 Y49.8502
G01 X23.6100 Y49.8500
G01 X23.6247 Y49.8505
G01 X23.6345 Y49.8515
G01 X23.6538 Y49.8549
G01 X23.6727 Y49.8601
G01 X23.6865 Y49.8652
G01 X23.6955 Y49.8692
G01 X23.7086 Y49.8760
G01 X23.7211 Y49.8837
G01 X23.7330 Y49.8923
G01 X23.7406 Y49.8986
G01 X23.7479 Y49.9052
G01 X23.7582 Y49.9157
G01 X23.7677 Y49.9270
G01 X23.7763 Y49.9389
G01 X23.7815 Y49.9472
G01 X23.7886 Y49.9601
G01 X23.7928 Y49.9690
G01 X23.7983 Y49.9826
G01 X23.8014 Y49.9919
G01 X23.8051 Y50.0062
G01 X23.8078 Y50.0207
G01 X23.8095 Y50.0353
G01 X23.8100 Y50.0500
G01 X23.8099 Y51.5549
G01 X23.8090 Y51.5696
G01 X23.8078 Y51.5793
G01 X23.8040 Y51.5986
G01 X23.8014 Y51.6081
G01 X23.7966 Y51.6220
G01 X23.7886 Y51.6399
G01 X23.7840 Y51.6486
G01 X23.7763 Y51.6611
G01 X23.7646 Y51.6769
G01 X23.7514 Y51.6914
G01 X23.7443 Y51.6982
G01 X23.7330 Y51.7077
G01 X23.7252 Y51.7135
G01 X23.7128 Y51.7215
G01 X23.6955 Y51.7308
G01 X23.6774 Y51.7383
G01 X23.6586 Y51.7440
G01 X23.6393 Y51.7478
G01 X23.6198 Y51.7498
G01 X23.5603 Y51.7500
G01 X23.5603 Y54.8470
G01 X23.6166 Y54.8984
G01 X23.6807 Y54.9688
G01 X23.6932 Y54.9839
G01 X23.7497 Y55.0605
G01 X23.8037 Y55.1506
G01 X23.8446 Y55.2366
G01 X23.8521 Y55.2547
G01 X23.8839 Y55.3444
G01 X23.9094 Y55.4463
G01 X23.9236 Y55.5404
G01 X23.9256 Y55.5599
G01 X23.9300 Y55.6550
G01 X23.9298 Y56.1148
G01 X23.9248 Y56.2099
G01 X23.9111 Y56.3041
G01 X23.9073 Y56.3233
G01 X23.8839 Y56.4156
G01 X23.8521 Y56.5053
G01 X23.8446 Y56.5234
G01 X23.8037 Y56.6094
G01 X23.7549 Y56.6912
G01 X23.7440 Y56.7075
G01 X23.6871 Y56.7838
G01 X23.6234 Y56.8545
G01 X23.6095 Y56.8684
G01 X23.5388 Y56.9321
G01 X23.4625 Y56.9890
G01 X23.4462 Y56.9999
G01 X23.3644 Y57.0487
G01 X23.2695 Y57.0936
G01 X23.1706 Y57.1289
G01 X23.0687 Y57.1544
G01 X22.9649 Y57.1698
G01 X22.8600 Y57.1750
G01 X22.7551 Y57.1698
G01 X22.6513 Y57.1544
G01 X22.5494 Y57.1289
G01 X22.4505 Y57.0936
G01 X22.3556 Y57.0487
G01 X22.2655 Y56.9947
G01 X22.1812 Y56.9321
G01 X22.1034 Y56.8616
G01 X22.0329 Y56.7838
G01 X21.9703 Y56.6995
G01 X21.9163 Y56.6094
G01 X21.8714 Y56.5145
G01 X21.8361 Y56.4156
G01 X21.8106 Y56.3137
G01 X21.7957 Y56.2148
G01 X21.7944 Y56.2001
G01 X21.7900 Y56.1050
G01 X21.7900 Y55.6550
G01 X21.7944 Y55.5599
G01 X21.7957 Y55.5452
G01 X21.8106 Y55.4463
G01 X21.8361 Y55.3444
G01 X21.8714 Y55.2455
G01 X21.9163 Y55.1506
G01 X21.9703 Y55.0605
G01 X22.0329 Y54.9762
G01 X22.1034 Y54.8984
G01 X22.1597 Y54.8470
G01 X22.1597 Y54.4400
G01 X22.1452 Y54.4398
G01 X22.1109 Y54.4378
G01 X22.0672 Y54.4314
G01 X22.0244 Y54.4206
G01 X21.9828 Y54.4057
G01 X21.9429 Y54.3869
G01 X21.9050 Y54.3642
G01 X21.8695 Y54.3379
G01 X21.8403 Y54.3116
G01 X21.8300 Y54.3011
G01 X21.8071 Y54.2755
G01 X21.7808 Y54.2400
G01 X21.7581 Y54.2021
G01 X21.7412 Y54.1667
G01 X21.7357 Y54.1530
G01 X21.7244 Y54.1206
G01 X21.7147 Y54.0826
G01 X21.7120 Y54.0681
G01 X21.7077 Y54.0390
G01 X21.7067 Y54.0292
G01 X21.7052 Y53.9998
G00 Z2.0000
G00 X21.4256 Y54.0136
G01 F80.00
G01 Z-0.2239
G01 F240.00
G01 X21.4250 Y53.9900
G01 X21.4250 Y52.6900
G01 X21.4255 Y52.6678
G01 X21.4266 Y52.6448
G01 X21.4281 Y52.6226
G01 X21.4293 Y52.6116
G01 X21.4355 Y52.5668
G01 X21.4396 Y52.5450
G01 X21.4420 Y52.5342
G01 X21.4473 Y52.5117
G01 X21.4529 Y52.4902
G01 X21.4594 Y52.4690
G01 X21.4704 Y52.4367
G01 X21.4784 Y52.4160
G01 X21.4828 Y52.4058
G01 X21.4921 Y52.3847
G01 X21.5015 Y52.3646
G01 X21.5119 Y52.3450
G01 X21.5231 Y52.3248
G01 X21.5343 Y52.3057
G01 X21.5403 Y52.2963
G01 X21.5595 Y52.2681
G01 X21.5724 Y52.2501
G01 X21.5862 Y52.2327
G01 X21.6010 Y52.2149
G01 X21.6155 Y52.1982
G01 X21.6231 Y52.1901
G01 X21.6472 Y52.1658
G01 X21.6632 Y52.1505
G01 X21.6799 Y52.1360
G01 X21.6977 Y52.1212
G01 X21.7063 Y52.1142
G01 X21.7240 Y52.1009
G01 X21.7613 Y52.0753
G01 X21.7707 Y52.0693
G01 X21.7898 Y52.0581
G01 X21.8100 Y52.0469
G01 X21.8296 Y52.0365
G01 X21.8497 Y52.0271
G01 X21.8797 Y52.0140
G01 X21.8797 Y51.9711
G01 X21.8532 Y51.9555
G01 X21.8336 Y51.9424
G01 X21.8241 Y51.9355
G01 X21.8147 Y51.9284
G01 X21.7965 Y51.9135
G01 X21.7877 Y51.9057
G01 X21.7706 Y51.8894
G01 X21.7624 Y51.8810
G01 X21.7465 Y51.8635
G01 X21.7390 Y51.8545
G01 X21.7245 Y51.8359
G01 X21.7109 Y51.8167
G01 X21.7045 Y51.8068
G01 X21.6924 Y51.7866
G01 X21.6813 Y51.7658
G01 X21.6761 Y51.7552
G01 X21.6665 Y51.7337
G01 X21.6622 Y51.7227
G01 X21.6542 Y51.7006
G01 X21.6474 Y51.6780
G01 X21.6444 Y51.6666
G01 X21.6392 Y51.6436
G01 X21.6352 Y51.6204
G01 X21.6336 Y51.6088
G01 X21.6313 Y51.5853
G01 X21.6301 Y51.5618
G01 X21.6300 Y50.0500
G01 X21.6306 Y50.0264
G01 X21.6323 Y50.0030
G01 X21.6352 Y49.9796
G01 X21.6392 Y49.9564
G01 X21.6444 Y49.9334
G01 X21.6507 Y49.9107
G01 X21.6581 Y49.8883
G01 X21.6665 Y49.8663
G01 X21.6761 Y49.8448
G01 X21.6867 Y49.8237
G01 X21.6924 Y49.8134
G01 X21.7045 Y49.7932
G01 X21.7176 Y49.7736
G01 X21.7316 Y49.7547
G01 X21.7465 Y49.7365
G01 X21.7624 Y49.7190
G01 X21.7790 Y49.7024
G01 X21.7965 Y49.6865
G01 X21.8147 Y49.6716
G01 X21.8336 Y49.6576
G01 X21.8433 Y49.6509
G01 X21.8632 Y49.6383
G01 X21.8734 Y49.6324
G01 X21.8942 Y49.6213
G01 X21.9048 Y49.6161
G01 X21.9155 Y49.6112
G01 X21.9373 Y49.6022
G01 X21.9483 Y49.5981
G01 X21.9707 Y49.5907
G01 X21.9820 Y49.5874
G01 X22.0048 Y49.5817
G01 X22.0164 Y49.5792
G01 X22.0396 Y49.5752
G01 X22.0630 Y49.5723
G01 X22.0864 Y49.5706
G01 X22.1100 Y49.5700
G01 X23.6100 Y49.5700
G01 X23.6336 Y49.5706
G01 X23.6453 Y49.5713
G01 X23.6688 Y49.5736
G01 X23.6804 Y49.5752
G01 X23.7036 Y49.5792
G01 X23.7266 Y49.5844
G01 X23.7380 Y49.5874
G01 X23.7606 Y49.5942
G01 X23.7717 Y49.5981
G01 X23.7937 Y49.6065
G01 X23.8152 Y49.6161
G01 X23.8258 Y49.6213
G01 X23.8466 Y49.6324
G01 X23.8668 Y49.6445
G01 X23.8767 Y49.6509
G01 X23.8959 Y49.6645
G01 X23.9145 Y49.6790
G01 X23.9323 Y49.6943
G01 X23.9410 Y49.7024
G01 X23.9576 Y49.7190
G01 X23.9735 Y49.7365
G01 X23.9810 Y49.7455
G01 X23.9955 Y49.7641
G01 X24.0091 Y49.7833
G01 X24.0155 Y49.7932
G01 X24.0303 Y49.8183
G01 X24.0769 Y49.7840
G01 X24.0965 Y49.7709
G01 X24.1697 Y49.7268
G01 X24.1799 Y49.7209
G01 X24.2006 Y49.7098
G01 X24.2778 Y49.6732
G01 X24.2993 Y49.6636
G01 X24.3213 Y49.6551
G01 X24.3906 Y49.6304
G01 X24.4129 Y49.6230
G01 X24.4243 Y49.6197
G01 X24.5071 Y49.5988
G01 X24.5300 Y49.5936
G01 X24.5533 Y49.5896
G01 X24.6261 Y49.5788
G01 X24.6494 Y49.5759
G01 X24.6729 Y49.5742
G01 X24.7464 Y49.5706
G01 X24.7700 Y49.5700
G01 X24.7936 Y49.5706
G01 X24.8671 Y49.5742
G01 X24.8906 Y49.5759
G01 X24.9139 Y49.5788
G01 X24.9867 Y49.5896
G01 X25.0100 Y49.5936
G01 X25.0329 Y49.5988
G01 X25.1043 Y49.6167
G01 X25.1271 Y49.6230
G01 X25.1494 Y49.6304
G01 X25.2187 Y49.6551
G01 X25.2407 Y49.6636
G01 X25.2622 Y49.6732
G01 X25.3288 Y49.7046
G01 X25.3498 Y49.7152
G01 X25.3703 Y49.7268
G01 X25.4334 Y49.7647
G01 X25.4534 Y49.7773
G01 X25.4726 Y49.7909
G01 X25.5317 Y49.8347
G01 X25.5503 Y49.8492
G01 X25.5681 Y49.8646
G01 X25.6227 Y49.9140
G01 X25.6397 Y49.9303
G01 X25.6560 Y49.9473
G01 X25.7054 Y50.0019
G01 X25.7250 Y50.0249
G01 X25.7446 Y50.0019
G01 X25.7940 Y49.9473
G01 X25.8103 Y49.9303
G01 X25.8273 Y49.9140
G01 X25.8819 Y49.8646
G01 X25.8997 Y49.8492
G01 X25.9183 Y49.8347
G01 X25.9774 Y49.7909
G01 X25.9966 Y49.7773
G01 X26.0166 Y49.7647
G01 X26.0797 Y49.7268
G01 X26.1002 Y49.7152
G01 X26.1212 Y49.7046
G01 X26.1878 Y49.6732
G01 X26.2093 Y49.6636
G01 X26.2313 Y49.6551
G01 X26.3117 Y49.6265
G01 X26.3343 Y49.6197
G01 X26.3457 Y49.6167
G01 X26.4171 Y49.5988
G01 X26.4400 Y49.5936
G01 X26.4633 Y49.5896
G01 X26.5361 Y49.5788
G01 X26.5594 Y49.5759
G01 X26.5829 Y49.5742
G01 X26.6564 Y49.5706
G01 X26.6800 Y49.5700
G01 X26.7036 Y49.5706
G01 X26.7771 Y49.5742
G01 X26.8006 Y49.5759
G01 X26.8239 Y49.5788
G01 X26.8967 Y49.5896
G01 X26.9084 Y49.5915
G01 X26.9315 Y49.5961
G01 X27.0143 Y49.6167
G01 X27.0371 Y49.6230
G01 X27.0594 Y49.6304
G01 X27.1398 Y49.6593
G01 X27.1615 Y49.6683
G01 X27.1722 Y49.6732
G01 X27.2388 Y49.7046
G01 X27.2598 Y49.7152
G01 X27.2803 Y49.7268
G01 X27.3434 Y49.7647
G01 X27.3634 Y49.7773
G01 X27.3826 Y49.7909
G01 X27.4417 Y49.8347
G01 X27.4603 Y49.8492
G01 X27.4781 Y49.8646
G01 X27.5327 Y49.9140
G01 X27.5497 Y49.9303
G01 X27.5660 Y49.9473
G01 X27.6154 Y50.0019
G01 X27.6308 Y50.0197
G01 X27.6453 Y50.0383
G01 X27.6891 Y50.0974
G01 X27.7027 Y50.1166
G01 X27.7153 Y50.1366
G01 X27.7532 Y50.1997
G01 X27.7648 Y50.2202
G01 X27.7754 Y50.2412
G01 X27.8117 Y50.3185
G01 X27.8207 Y50.3402
G01 X27.8249 Y50.3513
G01 X27.8496 Y50.4206
G01 X27.8535 Y50.4317
G01 X27.8603 Y50.4543
G01 X27.8812 Y50.5371
G01 X27.8864 Y50.5600
G01 X27.8904 Y50.5833
G01 X27.8975 Y50.6312
G01 X28.6331 Y51.3669
G01 X28.6494 Y51.3839
G01 X28.6902 Y51.4291
G01 X28.6977 Y51.4381
G01 X28.7122 Y51.4567
G01 X28.7415 Y51.4961
G01 X28.7550 Y51.5154
G01 X28.7677 Y51.5353
G01 X28.7929 Y51.5774
G01 X28.8045 Y51.5979
G01 X28.8151 Y51.6190
G01 X28.8361 Y51.6633
G01 X28.8456 Y51.6849
G01 X28.8541 Y51.7069
G01 X28.8707 Y51.7531
G01 X28.8780 Y51.7754
G01 X28.8813 Y51.7868
G01 X28.8963 Y51.8458
G01 X28.9014 Y51.8688
G01 X28.9054 Y51.8920
G01 X28.9126 Y51.9405
G01 X28.9142 Y51.9522
G01 X28.9165 Y51.9757
G01 X28.9201 Y52.0482
G01 X28.9202 Y54.4003
G01 X28.9457 Y54.4154
G01 X28.9656 Y54.4280
G01 X28.9848 Y54.4416
G01 X29.0045 Y54.4562
G01 X29.0139 Y54.4633
G01 X29.0321 Y54.4783
G01 X29.0678 Y54.5106
G01 X29.0844 Y54.5272
G01 X29.0924 Y54.5359
G01 X29.1089 Y54.5541
G01 X29.1243 Y54.5719
G01 X29.1388 Y54.5905
G01 X29.1534 Y54.6102
G01 X29.1603 Y54.6197
G01 X29.1734 Y54.6393
G01 X29.1981 Y54.6806
G01 X29.2038 Y54.6909
G01 X29.2144 Y54.7119
G01 X29.2249 Y54.7341
G01 X29.2344 Y54.7556
G01 X29.2429 Y54.7776
G01 X29.2550 Y54.8119
G01 X29.2618 Y54.8344
G01 X29.2649 Y54.8458
G01 X29.2708 Y54.8696
G01 X29.2760 Y54.8926
G01 X29.2800 Y54.9158
G01 X29.2836 Y54.9401
G01 X29.2852 Y54.9517
G01 X29.2875 Y54.9752
G01 X29.2894 Y55.0114
G01 X29.2900 Y55.0350
G01 X29.2899 Y56.7368
G01 X29.2882 Y56.7731
G01 X29.2865 Y56.7966
G01 X29.2836 Y56.8199
G01 X29.2800 Y56.8442
G01 X29.2760 Y56.8674
G01 X29.2708 Y56.8904
G01 X29.2649 Y56.9142
G01 X29.2586 Y56.9369
G01 X29.2512 Y56.9593
G01 X29.2388 Y56.9934
G01 X29.2344 Y57.0044
G01 X29.2249 Y57.0259
G01 X29.2144 Y57.0481
G01 X29.2038 Y57.0691
G01 X29.1922 Y57.0896
G01 X29.1796 Y57.1107
G01 X29.1670 Y57.1306
G01 X29.1603 Y57.1403
G01 X29.1388 Y57.1695
G01 X29.1243 Y57.1881
G01 X29.1089 Y57.2059
G01 X29.0924 Y57.2241
G01 X29.0762 Y57.2412
G01 X29.0678 Y57.2494
G01 X29.0321 Y57.2817
G01 X29.0139 Y57.2967
G01 X29.0045 Y57.3038
G01 X28.9848 Y57.3184
G01 X28.9656 Y57.3320
G01 X28.9457 Y57.3446
G01 X28.9246 Y57.3572
G01 X28.9041 Y57.3688
G01 X28.8937 Y57.3742
G01 X28.8609 Y57.3899
G01 X28.8394 Y57.3994
G01 X28.8174 Y57.4079
G01 X28.7943 Y57.4162
G01 X28.7719 Y57.4236
G01 X28.7606 Y57.4268
G01 X28.7139 Y57.4385
G01 X28.6908 Y57.4431
G01 X28.6792 Y57.4450
G01 X28.6549 Y57.4486
G01 X28.6316 Y57.4515
G01 X28.6081 Y57.4532
G01 X28.5836 Y57.4544
G01 X28.5600 Y57.4550
G01 X27.3200 Y57.4550
G01 X27.2964 Y57.4544
G01 X27.2719 Y57.4532
G01 X27.2484 Y57.4515
G01 X27.2251 Y57.4486
G01 X27.2008 Y57.4450
G01 X27.1776 Y57.4410
G01 X27.1546 Y57.4358
G01 X27.1308 Y57.4299
G01 X27.1081 Y57.4236
G01 X27.0857 Y57.4162
G01 X27.0626 Y57.4079
G01 X27.0406 Y57.3994
G01 X27.0191 Y57.3899
G01 X26.9863 Y57.3742
G01 X26.9656 Y57.3631
G01 X26.9243 Y57.3384
G01 X26.9047 Y57.3253
G01 X26.8755 Y57.3038
G01 X26.8569 Y57.2893
G01 X26.8479 Y57.2817
G01 X26.8209 Y57.2574
G01 X26.8038 Y57.2412
G01 X26.7876 Y57.2241
G01 X26.7633 Y57.1971
G01 X26.7483 Y57.1789
G01 X26.7197 Y57.1403
G01 X26.7066 Y57.1207
G01 X26.6878 Y57.0896
G01 X26.6762 Y57.0691
G01 X26.6656 Y57.0481
G01 X26.6551 Y57.0259
G01 X26.6456 Y57.0044
G01 X26.6371 Y56.9824
G01 X26.6288 Y56.9593
G01 X26.6214 Y56.9369
G01 X26.6151 Y56.9142
G01 X26.6092 Y56.8904
G01 X26.6040 Y56.8674
G01 X26.6000 Y56.8442
G01 X26.5964 Y56.8199
G01 X26.5935 Y56.7966
G01 X26.5918 Y56.7731
G01 X26.5903 Y56.7419
G01 X26.5790 Y56.7619
G01 X26.5351 Y56.8351
G01 X26.5225 Y56.8550
G01 X26.5089 Y56.8743
G01 X26.4581 Y56.9429
G01 X26.4436 Y56.9614
G01 X26.4282 Y56.9793
G01 X26.3708 Y57.0425
G01 X26.3546 Y57.0596
G01 X26.3375 Y57.0758
G01 X26.2743 Y57.1332
G01 X26.2564 Y57.1486
G01 X26.2379 Y57.1631
G01 X26.1693 Y57.2139
G01 X26.1500 Y57.2275
G01 X26.1301 Y57.2401
G01 X26.0569 Y57.2840
G01 X26.0364 Y57.2956
G01 X26.0153 Y57.3062
G01 X25.9382 Y57.3427
G01 X25.9166 Y57.3522
G01 X25.8946 Y57.3607
G01 X25.8143 Y57.3895
G01 X25.7919 Y57.3969
G01 X25.7692 Y57.4032
G01 X25.6864 Y57.4239
G01 X25.6634 Y57.4291
G01 X25.6402 Y57.4331
G01 X25.5557 Y57.4456
G01 X25.5323 Y57.4485
G01 X25.5088 Y57.4502
G01 X25.4236 Y57.4544
G01 X25.4000 Y57.4550
G01 X25.3764 Y57.4544
G01 X25.2794 Y57.4495
G01 X25.2677 Y57.4485
G01 X25.2443 Y57.4456
G01 X25.1598 Y57.4331
G01 X25.1366 Y57.4291
G01 X25.1136 Y57.4239
G01 X25.0308 Y57.4032
G01 X25.0081 Y57.3969
G01 X24.9857 Y57.3895
G01 X24.9054 Y57.3607
G01 X24.8834 Y57.3522
G01 X24.8618 Y57.3427
G01 X24.7847 Y57.3062
G01 X24.7636 Y57.2956
G01 X24.7431 Y57.2840
G01 X24.6699 Y57.2401
G01 X24.6500 Y57.2275
G01 X24.6307 Y57.2139
G01 X24.5528 Y57.1559
G01 X24.5346 Y57.1410
G01 X24.5257 Y57.1332
G01 X24.4625 Y57.0758
G01 X24.4454 Y57.0596
G01 X24.4292 Y57.0425
G01 X24.3718 Y56.9793
G01 X24.3564 Y56.9614
G01 X24.3419 Y56.9429
G01 X24.2842 Y56.8647
G01 X24.2711 Y56.8451
G01 X24.2649 Y56.8351
G01 X24.2210 Y56.7619
G01 X24.2094 Y56.7414
G01 X24.2040 Y56.7309
G01 X24.1574 Y56.6325
G01 X24.1484 Y56.6107
G01 X24.1300 Y56.5597
G01 X24.1116 Y56.6107
G01 X24.1026 Y56.6325
G01 X24.0560 Y56.7309
G01 X24.0506 Y56.7414
G01 X24.0390 Y56.7619
G01 X23.9889 Y56.8451
G01 X23.9758 Y56.8647
G01 X23.9689 Y56.8743
G01 X23.9181 Y56.9429
G01 X23.9036 Y56.9614
G01 X23.8882 Y56.9793
G01 X23.8228 Y57.0512
G01 X23.8146 Y57.0596
G01 X23.7975 Y57.0758
G01 X23.7343 Y57.1332
G01 X23.7164 Y57.1486
G01 X23.6979 Y57.1631
G01 X23.6293 Y57.2139
G01 X23.6100 Y57.2275
G01 X23.5901 Y57.2401
G01 X23.5169 Y57.2840
G01 X23.4964 Y57.2956
G01 X23.4753 Y57.3062
G01 X23.3875 Y57.3476
G01 X23.3657 Y57.3566
G01 X23.3546 Y57.3607
G01 X23.2743 Y57.3895
G01 X23.2519 Y57.3969
G01 X23.2292 Y57.4032
G01 X23.1464 Y57.4239
G01 X23.1234 Y57.4291
G01 X23.1002 Y57.4331
G01 X23.0157 Y57.4456
G01 X22.9923 Y57.4485
G01 X22.9688 Y57.4502
G01 X22.8836 Y57.4544
G01 X22.8600 Y57.4550
G01 X22.8364 Y57.4544
G01 X22.7512 Y57.4502
G01 X22.7277 Y57.4485
G01 X22.7043 Y57.4456
G01 X22.6198 Y57.4331
G01 X22.5966 Y57.4291
G01 X22.5736 Y57.4239
G01 X22.4908 Y57.4032
G01 X22.4681 Y57.3969
G01 X22.4457 Y57.3895
G01 X22.3543 Y57.3566
G01 X22.3325 Y57.3476
G01 X22.3218 Y57.3427
G01 X22.2447 Y57.3062
G01 X22.2236 Y57.2956
G01 X22.2031 Y57.2840
G01 X22.1299 Y57.2401
G01 X22.1100 Y57.2275
G01 X22.1003 Y57.2208
G01 X22.0128 Y57.1559
G01 X22.0036 Y57.1486
G01 X21.9857 Y57.1332
G01 X21.9225 Y57.0758
G01 X21.9054 Y57.0596
G01 X21.8892 Y57.0425
G01 X21.8318 Y56.9793
G01 X21.8164 Y56.9614
G01 X21.8019 Y56.9429
G01 X21.7511 Y56.8743
G01 X21.7375 Y56.8550
G01 X21.7249 Y56.8351
G01 X21.6810 Y56.7619
G01 X21.6694 Y56.7414
G01 X21.6588 Y56.7203
G01 X21.6223 Y56.6432
G01 X21.6128 Y56.6216
G01 X21.6043 Y56.5996
G01 X21.5755 Y56.5193
G01 X21.5717 Y56.5081
G01 X21.5648 Y56.4856
G01 X21.5384 Y56.3799
G01 X21.5359 Y56.3684
G01 X21.5319 Y56.3452
G01 X21.5194 Y56.2607
G01 X21.5165 Y56.2373
G01 X21.5148 Y56.2138
G01 X21.5101 Y56.1168
G01 X21.5101 Y55.6432
G01 X21.5148 Y55.5462
G01 X21.5165 Y55.5227
G01 X21.5194 Y55.4993
G01 X21.5338 Y55.4032
G01 X21.5359 Y55.3916
G01 X21.5411 Y55.3686
G01 X21.5618 Y55.2858
G01 X21.5681 Y55.2631
G01 X21.5755 Y55.2407
G01 X21.6043 Y55.1604
G01 X21.6128 Y55.1384
G01 X21.6223 Y55.1168
G01 X21.6588 Y55.0397
G01 X21.6694 Y55.0186
G01 X21.6810 Y54.9981
G01 X21.7249 Y54.9249
G01 X21.7375 Y54.9050
G01 X21.7511 Y54.8857
G01 X21.8019 Y54.8171
G01 X21.8164 Y54.7986
G01 X21.8318 Y54.7807
G01 X21.8797 Y54.7279
G01 X21.8797 Y54.6661
G01 X21.8541 Y54.6549
G01 X21.8213 Y54.6392
G01 X21.8109 Y54.6338
G01 X21.7904 Y54.6222
G01 X21.7593 Y54.6034
G01 X21.7397 Y54.5903
G01 X21.7105 Y54.5688
G01 X21.6919 Y54.5543
G01 X21.6741 Y54.5389
G01 X21.6472 Y54.5144
G01 X21.6388 Y54.5062
G01 X21.6226 Y54.4891
G01 X21.6061 Y54.4709
G01 X21.5907 Y54.4531
G01 X21.5762 Y54.4345
G01 X21.5547 Y54.4053
G01 X21.5416 Y54.3857
G01 X21.5228 Y54.3546
G01 X21.5112 Y54.3341
G01 X21.5058 Y54.3237
G01 X21.4901 Y54.2909
G01 X21.4806 Y54.2694
G01 X21.4721 Y54.2474
G01 X21.4600 Y54.2131
G01 X21.4532 Y54.1906
G01 X21.4501 Y54.1792
G01 X21.4415 Y54.1439
G01 X21.4369 Y54.1208
G01 X21.4314 Y54.0849
G01 X21.4285 Y54.0616
G01 X21.4268 Y54.0381
G01 X21.4256 Y54.0136
G00 Z2.0000
G00 X21.1459 Y54.0273
G01 F80.00
G01 Z-0.2239
G01 F240.00
G01 X21.1450 Y53.9900
G01 X21.1450 Y52.6900
G01 X21.1458 Y52.6549
G01 X21.1479 Y52.6143
G01 X21.1493 Y52.5968
G01 X21.1534 Y52.5619
G01 X21.1592 Y52.5217
G01 X21.1656 Y52.4872
G01 X21.1789 Y52.4305
G01 X21.1886 Y52.3968
G01 X21.2013 Y52.3582
G01 X21.2132 Y52.3251
G01 X21.2266 Y52.2927
G01 X21.2432 Y52.2556
G01 X21.2589 Y52.2242
G01 X21.2785 Y52.1886
G01 X21.2963 Y52.1583
G01 X21.3057 Y52.1435
G01 X21.3285 Y52.1098
G01 X21.3490 Y52.0813
G01 X21.3708 Y52.0538
G01 X21.3969 Y52.0227
G01 X21.4086 Y52.0096
G01 X21.4328 Y51.9842
G01 X21.4653 Y51.9523
G01 X21.4487 Y51.9246
G01 X21.4397 Y51.9083
G01 X21.4311 Y51.8917
G01 X21.4152 Y51.8580
G01 X21.4009 Y51.8235
G01 X21.3944 Y51.8060
G01 X21.3827 Y51.7706
G01 X21.3728 Y51.7347
G01 X21.3646 Y51.6983
G01 X21.3612 Y51.6799
G01 X21.3557 Y51.6430
G01 X21.3537 Y51.6245
G01 X21.3509 Y51.5873
G01 X21.3500 Y51.5500
G01 X21.3500 Y50.0500
G01 X21.3509 Y50.0127
G01 X21.3537 Y49.9755
G01 X21.3582 Y49.9385
G01 X21.3646 Y49.9017
G01 X21.3728 Y49.8653
G01 X21.3827 Y49.8294
G01 X21.3944 Y49.7940
G01 X21.4009 Y49.7765
G01 X21.4152 Y49.7420
G01 X21.4311 Y49.7083
G01 X21.4487 Y49.6754
G01 X21.4679 Y49.6434
G01 X21.4886 Y49.6124
G01 X21.5109 Y49.5824
G01 X21.5345 Y49.5536
G01 X21.5596 Y49.5259
G01 X21.5859 Y49.4996
G01 X21.6136 Y49.4745
G01 X21.6424 Y49.4509
G01 X21.6573 Y49.4396
G01 X21.6878 Y49.4181
G01 X21.7193 Y49.3981
G01 X21.7517 Y49.3797
G01 X21.7851 Y49.3630
G01 X21.8020 Y49.3552
G01 X21.8192 Y49.3479
G01 X21.8540 Y49.3344
G01 X21.8716 Y49.3284
G01 X21.9073 Y49.3175
G01 X21.9435 Y49.3085
G01 X21.9617 Y49.3046
G01 X21.9985 Y49.2982
G01 X22.0170 Y49.2957
G01 X22.0541 Y49.2921
G01 X22.0727 Y49.2909
G01 X22.1100 Y49.2900
G01 X23.6100 Y49.2900
G01 X23.6287 Y49.2902
G01 X23.6659 Y49.2921
G01 X23.6845 Y49.2937
G01 X23.7215 Y49.2982
G01 X23.7399 Y49.3012
G01 X23.7765 Y49.3085
G01 X23.8127 Y49.3175
G01 X23.8306 Y49.3227
G01 X23.8484 Y49.3284
G01 X23.8835 Y49.3409
G01 X23.9180 Y49.3552
G01 X23.9349 Y49.3630
G01 X23.9517 Y49.3711
G01 X23.9846 Y49.3887
G01 X24.0007 Y49.3981
G01 X24.0322 Y49.4181
G01 X24.0627 Y49.4396
G01 X24.0834 Y49.4555
G01 X24.1580 Y49.4201
G01 X24.1921 Y49.4049
G01 X24.2270 Y49.3915
G01 X24.2963 Y49.3667
G01 X24.3139 Y49.3607
G01 X24.3496 Y49.3498
G01 X24.4572 Y49.3229
G01 X24.4938 Y49.3156
G01 X24.5122 Y49.3126
G01 X24.5850 Y49.3018
G01 X24.6220 Y49.2973
G01 X24.6592 Y49.2945
G01 X24.7513 Y49.2902
G01 X24.7887 Y49.2902
G01 X24.8073 Y49.2909
G01 X24.8808 Y49.2945
G01 X24.9180 Y49.2973
G01 X24.9550 Y49.3018
G01 X25.0278 Y49.3126
G01 X25.0646 Y49.3190
G01 X25.1010 Y49.3272
G01 X25.1724 Y49.3451
G01 X25.2083 Y49.3550
G01 X25.2437 Y49.3667
G01 X25.3130 Y49.3915
G01 X25.3479 Y49.4049
G01 X25.3820 Y49.4201
G01 X25.4653 Y49.4597
G01 X25.4982 Y49.4773
G01 X25.5774 Y49.5245
G01 X25.6089 Y49.5445
G01 X25.6394 Y49.5660
G01 X25.6985 Y49.6098
G01 X25.7250 Y49.6304
G01 X25.7515 Y49.6098
G01 X25.8257 Y49.5550
G01 X25.8411 Y49.5445
G01 X25.8726 Y49.5245
G01 X25.9357 Y49.4867
G01 X25.9682 Y49.4683
G01 X26.0015 Y49.4515
G01 X26.0850 Y49.4123
G01 X26.1021 Y49.4049
G01 X26.1370 Y49.3915
G01 X26.2063 Y49.3667
G01 X26.2417 Y49.3550
G01 X26.2776 Y49.3451
G01 X26.3672 Y49.3229
G01 X26.4038 Y49.3156
G01 X26.4222 Y49.3126
G01 X26.4950 Y49.3018
G01 X26.5320 Y49.2973
G01 X26.5692 Y49.2945
G01 X26.6427 Y49.2909
G01 X26.6613 Y49.2902
G01 X26.6987 Y49.2902
G01 X26.7908 Y49.2945
G01 X26.8280 Y49.2973
G01 X26.8650 Y49.3018
G01 X26.9562 Y49.3156
G01 X26.9928 Y49.3229
G01 X27.0110 Y49.3272
G01 X27.0824 Y49.3451
G01 X27.1183 Y49.3550
G01 X27.1537 Y49.3667
G01 X27.2230 Y49.3915
G01 X27.2405 Y49.3980
G01 X27.2750 Y49.4123
G01 X27.3585 Y49.4515
G01 X27.3918 Y49.4683
G01 X27.4243 Y49.4867
G01 X27.4874 Y49.5245
G01 X27.5189 Y49.5445
G01 X27.5343 Y49.5550
G01 X27.6085 Y49.6098
G01 X27.6379 Y49.6328
G01 X27.6662 Y49.6571
G01 X27.7207 Y49.7065
G01 X27.7344 Y49.7192
G01 X27.7608 Y49.7456
G01 X27.8229 Y49.8138
G01 X27.8472 Y49.8421
G01 X27.8702 Y49.8715
G01 X27.9140 Y49.9306
G01 X27.9250 Y49.9457
G01 X27.9457 Y49.9767
G01 X28.0027 Y50.0718
G01 X28.0117 Y50.0882
G01 X28.0285 Y50.1215
G01 X28.0599 Y50.1880
G01 X28.0751 Y50.2221
G01 X28.0885 Y50.2570
G01 X28.1133 Y50.3263
G01 X28.1193 Y50.3439
G01 X28.1302 Y50.3796
G01 X28.1528 Y50.4690
G01 X28.1592 Y50.4969
G01 X28.8311 Y51.1689
G01 X28.8569 Y51.1959
G01 X28.8898 Y51.2323
G01 X28.9142 Y51.2605
G01 X28.9371 Y51.2899
G01 X28.9664 Y51.3293
G01 X28.9879 Y51.3598
G01 X29.0078 Y51.3914
G01 X29.0331 Y51.4335
G01 X29.0514 Y51.4659
G01 X29.0682 Y51.4992
G01 X29.0892 Y51.5436
G01 X29.1043 Y51.5777
G01 X29.1177 Y51.6125
G01 X29.1343 Y51.6587
G01 X29.1460 Y51.6942
G01 X29.1559 Y51.7301
G01 X29.1722 Y51.7959
G01 X29.1794 Y51.8325
G01 X29.1824 Y51.8509
G01 X29.1896 Y51.8995
G01 X29.1942 Y51.9365
G01 X29.1969 Y51.9737
G01 X29.2000 Y52.0413
G01 X29.2002 Y54.2539
G01 X29.2290 Y54.2786
G01 X29.2608 Y54.3078
G01 X29.2742 Y54.3208
G01 X29.2999 Y54.3478
G01 X29.3287 Y54.3800
G01 X29.3407 Y54.3943
G01 X29.3524 Y54.4088
G01 X29.3783 Y54.4434
G01 X29.3998 Y54.4739
G01 X29.4100 Y54.4895
G01 X29.4324 Y54.5264
G01 X29.4507 Y54.5589
G01 X29.4675 Y54.5922
G01 X29.4858 Y54.6313
G01 X29.4931 Y54.6485
G01 X29.5000 Y54.6658
G01 X29.5148 Y54.7064
G01 X29.5265 Y54.7418
G01 X29.5365 Y54.7778
G01 X29.5467 Y54.8197
G01 X29.5506 Y54.8380
G01 X29.5540 Y54.8563
G01 X29.5606 Y54.8990
G01 X29.5651 Y54.9360
G01 X29.5667 Y54.9546
G01 X29.5691 Y54.9977
G01 X29.5700 Y55.0350
G01 X29.5698 Y56.7437
G01 X29.5679 Y56.7868
G01 X29.5651 Y56.8240
G01 X29.5606 Y56.8610
G01 X29.5540 Y56.9037
G01 X29.5506 Y56.9220
G01 X29.5424 Y56.9584
G01 X29.5317 Y57.0003
G01 X29.5209 Y57.0360
G01 X29.5065 Y57.0767
G01 X29.5000 Y57.0942
G01 X29.4858 Y57.1287
G01 X29.4675 Y57.1678
G01 X29.4507 Y57.2011
G01 X29.4324 Y57.2336
G01 X29.4100 Y57.2705
G01 X29.3892 Y57.3015
G01 X29.3783 Y57.3166
G01 X29.3524 Y57.3512
G01 X29.3287 Y57.3800
G01 X29.2999 Y57.4122
G01 X29.2742 Y57.4392
G01 X29.2472 Y57.4649
G01 X29.2150 Y57.4937
G01 X29.1862 Y57.5174
G01 X29.1713 Y57.5287
G01 X29.1365 Y57.5542
G01 X29.1211 Y57.5648
G01 X29.0896 Y57.5847
G01 X29.0525 Y57.6067
G01 X29.0196 Y57.6243
G01 X29.0028 Y57.6325
G01 X28.9637 Y57.6508
G01 X28.9292 Y57.6650
G01 X28.8886 Y57.6798
G01 X28.8532 Y57.6915
G01 X28.8172 Y57.7015
G01 X28.7753 Y57.7117
G01 X28.7387 Y57.7190
G01 X28.6960 Y57.7256
G01 X28.6775 Y57.7281
G01 X28.6404 Y57.7317
G01 X28.5973 Y57.7341
G01 X28.5600 Y57.7350
G01 X27.3200 Y57.7350
G01 X27.3013 Y57.7348
G01 X27.2582 Y57.7329
G01 X27.2210 Y57.7301
G01 X27.1840 Y57.7256
G01 X27.1413 Y57.7190
G01 X27.1230 Y57.7156
G01 X27.1047 Y57.7117
G01 X27.0628 Y57.7015
G01 X27.0268 Y57.6915
G01 X26.9914 Y57.6798
G01 X26.9508 Y57.6650
G01 X26.9335 Y57.6581
G01 X26.9163 Y57.6508
G01 X26.8772 Y57.6325
G01 X26.8439 Y57.6157
G01 X26.8114 Y57.5974
G01 X26.7745 Y57.5750
G01 X26.7435 Y57.5542
G01 X26.6938 Y57.5174
G01 X26.6650 Y57.4937
G01 X26.6192 Y57.4522
G01 X26.5928 Y57.4258
G01 X26.5513 Y57.3800
G01 X26.5276 Y57.3512
G01 X26.4966 Y57.3096
G01 X26.4483 Y57.3530
G01 X26.4195 Y57.3767
G01 X26.3210 Y57.4497
G01 X26.3056 Y57.4603
G01 X26.2741 Y57.4803
G01 X26.1847 Y57.5335
G01 X26.1518 Y57.5511
G01 X26.1351 Y57.5593
G01 X26.0579 Y57.5958
G01 X26.0238 Y57.6109
G01 X25.9890 Y57.6243
G01 X25.8909 Y57.6592
G01 X25.8552 Y57.6700
G01 X25.8372 Y57.6748
G01 X25.7544 Y57.6955
G01 X25.7180 Y57.7037
G01 X25.6812 Y57.7101
G01 X25.5968 Y57.7226
G01 X25.5598 Y57.7272
G01 X25.5226 Y57.7299
G01 X25.4373 Y57.7341
G01 X25.4000 Y57.7350
G01 X25.3627 Y57.7341
G01 X25.2774 Y57.7299
G01 X25.2588 Y57.7288
G01 X25.2217 Y57.7251
G01 X25.1188 Y57.7101
G01 X25.0820 Y57.7037
G01 X25.0456 Y57.6955
G01 X24.9628 Y57.6748
G01 X24.9268 Y57.6648
G01 X24.8914 Y57.6531
G01 X24.8110 Y57.6243
G01 X24.7762 Y57.6109
G01 X24.7421 Y57.5958
G01 X24.6649 Y57.5593
G01 X24.6316 Y57.5425
G01 X24.5992 Y57.5241
G01 X24.5259 Y57.4803
G01 X24.4944 Y57.4603
G01 X24.4639 Y57.4388
G01 X24.3953 Y57.3880
G01 X24.3659 Y57.3650
G01 X24.3377 Y57.3406
G01 X24.2744 Y57.2833
G01 X24.2474 Y57.2576
G01 X24.2217 Y57.2306
G01 X24.1644 Y57.1673
G01 X24.1520 Y57.1533
G01 X24.1300 Y57.1266
G01 X24.1080 Y57.1533
G01 X24.0383 Y57.2306
G01 X24.0126 Y57.2576
G01 X23.9856 Y57.2833
G01 X23.9223 Y57.3406
G01 X23.8941 Y57.3650
G01 X23.8647 Y57.3880
G01 X23.7961 Y57.4388
G01 X23.7656 Y57.4603
G01 X23.7341 Y57.4803
G01 X23.6608 Y57.5241
G01 X23.6284 Y57.5425
G01 X23.5951 Y57.5593
G01 X23.5179 Y57.5958
G01 X23.4838 Y57.6109
G01 X23.4490 Y57.6243
G01 X23.3509 Y57.6592
G01 X23.3152 Y57.6700
G01 X23.2144 Y57.6955
G01 X23.1780 Y57.7037
G01 X23.1412 Y57.7101
G01 X23.0383 Y57.7251
G01 X23.0012 Y57.7288
G01 X22.8973 Y57.7341
G01 X22.8600 Y57.7350
G01 X22.8227 Y57.7341
