(G-CODE GENERATED BY FLATCAM v8.994 - www.flatcam.org - Version Date: 2020/11/7)

(Name: zvire-vetrnik-control-B_Cu.gbr_iso_combined_cnc)
(Type: G-code from Geometry)
(Units: MM)

(Created on Sobota, 04 února 2023 at 20:31)

(This preprocessor is the default preprocessor used by FlatCAM.)
(It is made to work with MACH3 compatible motion controllers.)

(TOOL DIAMETER: 0.399 mm)
(Feedrate_XY: 240.0 mm/min)
(Feedrate_Z: 80.0 mm/min)
(Feedrate rapids 1500.0 mm/min)

(Z_Cut: -0.1017 mm)
(Z_Move: 2.0 mm)
(Z Start: None mm)
(Z End: 5.0 mm)
(X,Y End: None mm)
(Steps per circle: 64)
(Preprocessor Geometry: default)

(X range:    1.1152 ...   98.3897  mm)
(Y range:    1.5785 ...   75.6298  mm)

(Spindle Speed: 10000.0 RPM)
G21
G90
G94

G01 F240.00

M5
G00 Z15.0000
G00 X0.0000 Y0.0000
T2
M6    
(MSG, Change to Tool Dia = 0.3990)
M0
G00 Z15.0000

M03 S10000.0
G4 P1.0
G01 F240.00
G00 X3.8198 Y4.8593
G01 F80.00
G01 Z-0.1017
G01 F240.00
G01 X3.8002 Y4.8593
G01 X3.7169 Y4.8552
G01 X3.6974 Y4.8532
G01 X3.6053 Y4.8393
G01 X3.5148 Y4.8169
G01 X3.4960 Y4.8112
G01 X3.4084 Y4.7796
G01 X3.3153 Y4.7356
G01 X3.2269 Y4.6826
G01 X3.1519 Y4.6273
G01 X3.1368 Y4.6149
G01 X3.0679 Y4.5521
G01 X2.9987 Y4.4758
G01 X2.9374 Y4.3931
G01 X2.8844 Y4.3047
G01 X2.8404 Y4.2116
G01 X2.8057 Y4.1147
G01 X2.7807 Y4.0147
G01 X2.7668 Y3.9226
G01 X2.7648 Y3.9031
G01 X2.7605 Y3.8100
G01 X2.7656 Y3.7071
G01 X2.7807 Y3.6053
G01 X2.8057 Y3.5053
G01 X2.8404 Y3.4084
G01 X2.8844 Y3.3153
G01 X2.9374 Y3.2269
G01 X2.9987 Y3.1442
G01 X3.0679 Y3.0679
G01 X3.1442 Y2.9987
G01 X3.2269 Y2.9374
G01 X3.3153 Y2.8844
G01 X3.4084 Y2.8404
G01 X3.5053 Y2.8057
G01 X3.6053 Y2.7807
G01 X3.7023 Y2.7661
G01 X3.7169 Y2.7648
G01 X3.8100 Y2.7605
G01 X3.9031 Y2.7648
G01 X3.9226 Y2.7668
G01 X4.0147 Y2.7807
G01 X4.1052 Y2.8031
G01 X4.1240 Y2.8088
G01 X4.2071 Y2.8386
G01 X4.2206 Y2.8444
G01 X4.3047 Y2.8844
G01 X4.3848 Y2.9321
G01 X4.3971 Y2.9401
G01 X4.4681 Y2.9927
G01 X4.4795 Y3.0019
G01 X4.5486 Y3.0645
G01 X4.5589 Y3.0750
G01 X4.5908 Y3.1102
G01 X5.5692 Y3.1102
G01 X5.6011 Y3.0750
G01 X5.6114 Y3.0645
G01 X5.6805 Y3.0019
G01 X5.6919 Y2.9927
G01 X5.7629 Y2.9401
G01 X5.7752 Y2.9321
G01 X5.8553 Y2.8844
G01 X5.9439 Y2.8423
G01 X5.9575 Y2.8369
G01 X6.0453 Y2.8057
G01 X6.1453 Y2.7807
G01 X6.2471 Y2.7656
G01 X6.3500 Y2.7605
G01 X6.4529 Y2.7656
G01 X6.5547 Y2.7807
G01 X6.6547 Y2.8057
G01 X6.7425 Y2.8369
G01 X6.7561 Y2.8423
G01 X6.8447 Y2.8844
G01 X6.9248 Y2.9321
G01 X6.9371 Y2.9401
G01 X7.0081 Y2.9927
G01 X7.0195 Y3.0019
G01 X7.0886 Y3.0645
G01 X7.0989 Y3.0750
G01 X7.1308 Y3.1102
G01 X8.1092 Y3.1102
G01 X8.1411 Y3.0750
G01 X8.1514 Y3.0645
G01 X8.2205 Y3.0019
G01 X8.2319 Y2.9927
G01 X8.3029 Y2.9401
G01 X8.3152 Y2.9321
G01 X8.3953 Y2.8844
G01 X8.4839 Y2.8423
G01 X8.4975 Y2.8369
G01 X8.5853 Y2.8057
G01 X8.6853 Y2.7807
G01 X8.7871 Y2.7656
G01 X8.8900 Y2.7605
G01 X8.9929 Y2.7656
G01 X9.0947 Y2.7807
G01 X9.1947 Y2.8057
G01 X9.2825 Y2.8369
G01 X9.2961 Y2.8423
G01 X9.3847 Y2.8844
G01 X9.4648 Y2.9321
G01 X9.4771 Y2.9401
G01 X9.5481 Y2.9927
G01 X9.5595 Y3.0019
G01 X9.6286 Y3.0645
G01 X9.6389 Y3.0750
G01 X9.6708 Y3.1102
G01 X10.6492 Y3.1102
G01 X10.6811 Y3.0750
G01 X10.6914 Y3.0645
G01 X10.7605 Y3.0019
G01 X10.7719 Y2.9927
G01 X10.8429 Y2.9401
G01 X10.8552 Y2.9321
G01 X10.9353 Y2.8844
G01 X11.0194 Y2.8444
G01 X11.0329 Y2.8386
G01 X11.1160 Y2.8088
G01 X11.1348 Y2.8031
G01 X11.2253 Y2.7807
G01 X11.3174 Y2.7668
G01 X11.3369 Y2.7648
G01 X11.4300 Y2.7605
G01 X11.5329 Y2.7656
G01 X11.6347 Y2.7807
G01 X11.7347 Y2.8057
G01 X11.8316 Y2.8404
G01 X11.9160 Y2.8800
G01 X11.9333 Y2.8893
G01 X12.0048 Y2.9321
G01 X12.0211 Y2.9430
G01 X12.0958 Y2.9987
G01 X12.1721 Y3.0679
G01 X12.2413 Y3.1442
G01 X12.2970 Y3.2189
G01 X12.3079 Y3.2352
G01 X12.3507 Y3.3067
G01 X12.3600 Y3.3240
G01 X12.3996 Y3.4084
G01 X12.4343 Y3.5053
G01 X12.4593 Y3.6053
G01 X12.4739 Y3.7023
G01 X12.4752 Y3.7169
G01 X12.4795 Y3.8100
G01 X12.4744 Y3.9129
G01 X12.4593 Y4.0147
G01 X12.4343 Y4.1147
G01 X12.3996 Y4.2116
G01 X12.3556 Y4.3047
G01 X12.3026 Y4.3931
G01 X12.2413 Y4.4758
G01 X12.1721 Y4.5521
G01 X12.0958 Y4.6213
G01 X12.0131 Y4.6826
G01 X11.9247 Y4.7356
G01 X11.8316 Y4.7796
G01 X11.7347 Y4.8143
G01 X11.6347 Y4.8393
G01 X11.5377 Y4.8539
G01 X11.5231 Y4.8552
G01 X11.4300 Y4.8595
G01 X11.3369 Y4.8552
G01 X11.3174 Y4.8532
G01 X11.2253 Y4.8393
G01 X11.1348 Y4.8169
G01 X11.1160 Y4.8112
G01 X11.0329 Y4.7814
G01 X11.0194 Y4.7756
G01 X10.9353 Y4.7356
G01 X10.8552 Y4.6879
G01 X10.8429 Y4.6799
G01 X10.7719 Y4.6273
G01 X10.7605 Y4.6181
G01 X10.6914 Y4.5555
G01 X10.6811 Y4.5450
G01 X10.6492 Y4.5098
G01 X9.6708 Y4.5098
G01 X9.6389 Y4.5450
G01 X9.6286 Y4.5555
G01 X9.5595 Y4.6181
G01 X9.5481 Y4.6273
G01 X9.4771 Y4.6799
G01 X9.4648 Y4.6879
G01 X9.3847 Y4.7356
G01 X9.2961 Y4.7777
G01 X9.2825 Y4.7831
G01 X9.1947 Y4.8143
G01 X9.0947 Y4.8393
G01 X8.9929 Y4.8544
G01 X8.8900 Y4.8595
G01 X8.7871 Y4.8544
G01 X8.6853 Y4.8393
G01 X8.5853 Y4.8143
G01 X8.4975 Y4.7831
G01 X8.4839 Y4.7777
G01 X8.3953 Y4.7356
G01 X8.3152 Y4.6879
G01 X8.3029 Y4.6799
G01 X8.2319 Y4.6273
G01 X8.2205 Y4.6181
G01 X8.1514 Y4.5555
G01 X8.1411 Y4.5450
G01 X8.1092 Y4.5098
G01 X7.1308 Y4.5098
G01 X7.0989 Y4.5450
G01 X7.0886 Y4.5555
G01 X7.0195 Y4.6181
G01 X7.0081 Y4.6273
G01 X6.9371 Y4.6799
G01 X6.9248 Y4.6879
G01 X6.8447 Y4.7356
G01 X6.7561 Y4.7777
G01 X6.7425 Y4.7831
G01 X6.6547 Y4.8143
G01 X6.5547 Y4.8393
G01 X6.4529 Y4.8544
G01 X6.3500 Y4.8595
G01 X6.2471 Y4.8544
G01 X6.1453 Y4.8393
G01 X6.0453 Y4.8143
G01 X5.9575 Y4.7831
G01 X5.9439 Y4.7777
G01 X5.8553 Y4.7356
G01 X5.7752 Y4.6879
G01 X5.7629 Y4.6799
G01 X5.6919 Y4.6273
G01 X5.6805 Y4.6181
G01 X5.6114 Y4.5555
G01 X5.6011 Y4.5450
G01 X5.5692 Y4.5098
G01 X4.5908 Y4.5098
G01 X4.5589 Y4.5450
G01 X4.5486 Y4.5555
G01 X4.4795 Y4.6181
G01 X4.4681 Y4.6273
G01 X4.3971 Y4.6799
G01 X4.3848 Y4.6879
G01 X4.3047 Y4.7356
G01 X4.2161 Y4.7777
G01 X4.2025 Y4.7831
G01 X4.1147 Y4.8143
G01 X4.0147 Y4.8393
G01 X3.9129 Y4.8544
G01 X3.8198 Y4.8593
G00 Z2.0000
G00 X2.9600 Y7.3995
G01 F80.00
G01 Z-0.1017
G01 F240.00
G01 X2.9404 Y7.3985
G01 X2.9211 Y7.3957
G01 X2.9021 Y7.3909
G01 X2.8837 Y7.3843
G01 X2.8660 Y7.3759
G01 X2.8492 Y7.3659
G01 X2.8334 Y7.3542
G01 X2.8189 Y7.3411
G01 X2.8058 Y7.3266
G01 X2.7941 Y7.3108
G01 X2.7841 Y7.2940
G01 X2.7757 Y7.2763
G01 X2.7691 Y7.2579
G01 X2.7643 Y7.2389
G01 X2.7615 Y7.2196
G01 X2.7605 Y7.2000
G01 X2.7605 Y5.5000
G01 X2.7615 Y5.4804
G01 X2.7643 Y5.4611
G01 X2.7677 Y5.4468
G01 X2.7722 Y5.4328
G01 X2.7797 Y5.4147
G01 X2.7864 Y5.4017
G01 X2.7969 Y5.3851
G01 X2.8058 Y5.3734
G01 X2.8189 Y5.3589
G01 X2.8297 Y5.3489
G01 X2.8412 Y5.3398
G01 X2.8533 Y5.3315
G01 X2.8703 Y5.3218
G01 X2.8837 Y5.3157
G01 X2.9021 Y5.3091
G01 X2.9163 Y5.3053
G01 X2.9356 Y5.3020
G01 X2.9453 Y5.3010
G01 X2.9600 Y5.3005
G01 X4.6600 Y5.3005
G01 X4.6747 Y5.3010
G01 X4.6941 Y5.3034
G01 X4.7085 Y5.3065
G01 X4.7179 Y5.3091
G01 X4.7272 Y5.3122
G01 X4.7408 Y5.3176
G01 X4.7540 Y5.3241
G01 X4.7626 Y5.3289
G01 X4.7708 Y5.3341
G01 X4.7827 Y5.3427
G01 X4.7940 Y5.3522
G01 X4.8011 Y5.3589
G01 X4.8078 Y5.3660
G01 X4.8173 Y5.3773
G01 X4.8285 Y5.3933
G01 X4.8359 Y5.4060
G01 X4.8403 Y5.4147
G01 X4.8478 Y5.4328
G01 X4.8523 Y5.4468
G01 X4.8566 Y5.4659
G01 X4.8590 Y5.4853
G01 X4.8595 Y5.5000
G01 X4.8595 Y5.6502
G01 X5.5692 Y5.6502
G01 X5.6011 Y5.6150
G01 X5.6114 Y5.6045
G01 X5.6805 Y5.5419
G01 X5.6919 Y5.5327
G01 X5.7629 Y5.4801
G01 X5.7752 Y5.4721
G01 X5.8553 Y5.4244
G01 X5.9439 Y5.3823
G01 X5.9575 Y5.3769
G01 X6.0453 Y5.3457
G01 X6.1453 Y5.3207
G01 X6.2471 Y5.3056
G01 X6.3500 Y5.3005
G01 X6.4529 Y5.3056
G01 X6.5547 Y5.3207
G01 X6.6547 Y5.3457
G01 X6.7425 Y5.3769
G01 X6.7561 Y5.3823
G01 X6.8447 Y5.4244
G01 X6.9248 Y5.4721
G01 X6.9371 Y5.4801
G01 X7.0081 Y5.5327
G01 X7.0195 Y5.5419
G01 X7.0886 Y5.6045
G01 X7.0989 Y5.6150
G01 X7.1308 Y5.6502
G01 X8.1092 Y5.6502
G01 X8.1411 Y5.6150
G01 X8.1514 Y5.6045
G01 X8.2205 Y5.5419
G01 X8.2319 Y5.5327
G01 X8.3029 Y5.4801
G01 X8.3152 Y5.4721
G01 X8.3953 Y5.4244
G01 X8.4839 Y5.3823
G01 X8.4975 Y5.3769
G01 X8.5853 Y5.3457
G01 X8.6853 Y5.3207
G01 X8.7871 Y5.3056
G01 X8.8900 Y5.3005
G01 X8.9929 Y5.3056
G01 X9.0947 Y5.3207
G01 X9.1947 Y5.3457
G01 X9.2825 Y5.3769
G01 X9.2961 Y5.3823
G01 X9.3847 Y5.4244
G01 X9.4648 Y5.4721
G01 X9.4771 Y5.4801
G01 X9.5481 Y5.5327
G01 X9.5595 Y5.5419
G01 X9.6286 Y5.6045
G01 X9.6389 Y5.6150
G01 X9.6708 Y5.6502
G01 X10.6492 Y5.6502
G01 X10.6811 Y5.6150
G01 X10.6914 Y5.6045
G01 X10.7605 Y5.5419
G01 X10.7719 Y5.5327
G01 X10.8429 Y5.4801
G01 X10.8552 Y5.4721
G01 X10.9353 Y5.4244
G01 X11.0194 Y5.3844
G01 X11.0329 Y5.3786
G01 X11.1160 Y5.3488
G01 X11.1348 Y5.3431
G01 X11.2253 Y5.3207
G01 X11.3174 Y5.3068
G01 X11.3369 Y5.3048
G01 X11.4300 Y5.3005
G01 X11.5329 Y5.3056
G01 X11.6347 Y5.3207
G01 X11.7347 Y5.3457
G01 X11.8316 Y5.3804
G01 X11.9160 Y5.4200
G01 X11.9333 Y5.4293
G01 X12.0048 Y5.4721
G01 X12.0211 Y5.4830
G01 X12.0958 Y5.5387
G01 X12.1721 Y5.6079
G01 X12.2413 Y5.6842
G01 X12.2970 Y5.7589
G01 X12.3079 Y5.7752
G01 X12.3507 Y5.8467
G01 X12.3600 Y5.8640
G01 X12.3996 Y5.9484
G01 X12.4343 Y6.0453
G01 X12.4593 Y6.1453
G01 X12.4739 Y6.2423
G01 X12.4752 Y6.2569
G01 X12.4795 Y6.3500
G01 X12.4744 Y6.4529
G01 X12.4593 Y6.5547
G01 X12.4343 Y6.6547
G01 X12.3996 Y6.7516
G01 X12.3556 Y6.8447
G01 X12.3026 Y6.9331
G01 X12.2413 Y7.0158
G01 X12.1721 Y7.0921
G01 X12.0958 Y7.1613
G01 X12.0131 Y7.2226
G01 X11.9247 Y7.2756
G01 X11.8316 Y7.3196
G01 X11.7347 Y7.3543
G01 X11.6347 Y7.3793
G01 X11.5377 Y7.3939
G01 X11.5231 Y7.3952
G01 X11.4300 Y7.3995
G01 X11.3369 Y7.3952
G01 X11.3174 Y7.3932
G01 X11.2253 Y7.3793
G01 X11.1348 Y7.3569
G01 X11.1160 Y7.3512
G01 X11.0329 Y7.3214
G01 X11.0194 Y7.3156
G01 X10.9353 Y7.2756
G01 X10.8552 Y7.2279
G01 X10.8429 Y7.2199
G01 X10.7719 Y7.1673
G01 X10.7605 Y7.1581
G01 X10.6914 Y7.0955
G01 X10.6811 Y7.0850
G01 X10.6492 Y7.0498
G01 X9.6708 Y7.0498
G01 X9.6389 Y7.0850
G01 X9.6286 Y7.0955
G01 X9.5595 Y7.1581
G01 X9.5481 Y7.1673
G01 X9.4771 Y7.2199
G01 X9.4648 Y7.2279
G01 X9.3847 Y7.2756
G01 X9.2961 Y7.3177
G01 X9.2825 Y7.3231
G01 X9.1947 Y7.3543
G01 X9.0947 Y7.3793
G01 X8.9929 Y7.3944
G01 X8.8900 Y7.3995
G01 X8.7871 Y7.3944
G01 X8.6853 Y7.3793
G01 X8.5853 Y7.3543
G01 X8.4975 Y7.3231
G01 X8.4839 Y7.3177
G01 X8.3953 Y7.2756
G01 X8.3152 Y7.2279
G01 X8.3029 Y7.2199
G01 X8.2319 Y7.1673
G01 X8.2205 Y7.1581
G01 X8.1514 Y7.0955
G01 X8.1411 Y7.0850
G01 X8.1092 Y7.0498
G01 X7.1308 Y7.0498
G01 X7.0989 Y7.0850
G01 X7.0886 Y7.0955
G01 X7.0195 Y7.1581
G01 X7.0081 Y7.1673
G01 X6.9371 Y7.2199
G01 X6.9248 Y7.2279
G01 X6.8447 Y7.2756
G01 X6.7561 Y7.3177
G01 X6.7425 Y7.3231
G01 X6.6547 Y7.3543
G01 X6.5547 Y7.3793
G01 X6.4529 Y7.3944
G01 X6.3500 Y7.3995
G01 X6.2471 Y7.3944
G01 X6.1453 Y7.3793
G01 X6.0453 Y7.3543
G01 X5.9575 Y7.3231
G01 X5.9439 Y7.3177
G01 X5.8553 Y7.2756
G01 X5.7752 Y7.2279
G01 X5.7629 Y7.2199
G01 X5.6919 Y7.1673
G01 X5.6805 Y7.1581
G01 X5.6114 Y7.0955
G01 X5.6011 Y7.0850
G01 X5.5692 Y7.0498
G01 X4.8595 Y7.0498
G01 X4.8595 Y7.2000
G01 X4.8590 Y7.2147
G01 X4.8573 Y7.2293
G01 X4.8535 Y7.2485
G01 X4.8478 Y7.2672
G01 X4.8403 Y7.2853
G01 X4.8336 Y7.2983
G01 X4.8285 Y7.3067
G01 X4.8173 Y7.3227
G01 X4.8078 Y7.3340
G01 X4.8011 Y7.3411
G01 X4.7903 Y7.3511
G01 X4.7827 Y7.3573
G01 X4.7708 Y7.3659
G01 X4.7626 Y7.3711
G01 X4.7497 Y7.3782
G01 X4.7408 Y7.3824
G01 X4.7272 Y7.3878
G01 X4.7179 Y7.3909
G01 X4.7085 Y7.3935
G01 X4.6941 Y7.3966
G01 X4.6747 Y7.3990
G01 X4.6600 Y7.3995
G01 X2.9600 Y7.3995
G00 Z2.0000
G00 X9.4602 Y14.1170
G01 F80.00
G01 Z-0.1017
G01 F240.00
G01 X9.4605 Y12.6902
G01 X9.4632 Y12.6363
G01 X9.4648 Y12.6217
G01 X9.4737 Y12.5635
G01 X9.4878 Y12.5063
G01 X9.4935 Y12.4876
G01 X9.5135 Y12.4322
G01 X9.5429 Y12.3701
G01 X9.5729 Y12.3195
G01 X9.5838 Y12.3032
G01 X9.6191 Y12.2561
G01 X9.6618 Y12.2087
G01 X10.9387 Y10.9318
G01 X10.9861 Y10.8891
G01 X11.0332 Y10.8538
G01 X11.0495 Y10.8429
G01 X11.1001 Y10.8129
G01 X11.1533 Y10.7875
G01 X11.1714 Y10.7800
G01 X11.2269 Y10.7604
G01 X11.2935 Y10.7437
G01 X11.3614 Y10.7336
G01 X11.4300 Y10.7302
G01 X25.7914 Y10.7302
G01 X25.8502 Y10.7329
G01 X25.8697 Y10.7348
G01 X25.9279 Y10.7437
G01 X25.9851 Y10.7578
G01 X26.0038 Y10.7635
G01 X26.0591 Y10.7835
G01 X26.1125 Y10.8085
G01 X26.1297 Y10.8177
G01 X26.1801 Y10.8482
G01 X26.2276 Y10.8831
G01 X26.2427 Y10.8955
G01 X26.2862 Y10.9352
G01 X30.3398 Y14.9889
G01 X30.3859 Y15.0397
G01 X30.4268 Y15.0949
G01 X30.4621 Y15.1538
G01 X30.4875 Y15.2069
G01 X30.4933 Y15.2204
G01 X30.5146 Y15.2805
G01 X30.5313 Y15.3471
G01 X30.5414 Y15.4151
G01 X30.5448 Y15.4837
G01 X30.5448 Y25.6901
G01 X32.7300 Y27.8753
G01 X38.2764 Y27.8753
G01 X39.2365 Y26.9152
G01 X39.2874 Y26.8691
G01 X39.3425 Y26.8282
G01 X39.3929 Y26.7977
G01 X39.4102 Y26.7885
G01 X39.4590 Y26.7654
G01 X39.4726 Y26.7600
G01 X39.5281 Y26.7404
G01 X39.5948 Y26.7237
G01 X39.6627 Y26.7136
G01 X39.7264 Y26.7103
G01 X49.0000 Y26.7102
G01 X49.0637 Y26.7132
G01 X49.0783 Y26.7148
G01 X49.1269 Y26.7220
G01 X49.1461 Y26.7258
G01 X49.2031 Y26.7404
G01 X49.2678 Y26.7635
G01 X49.3211 Y26.7885
G01 X49.3384 Y26.7977
G01 X49.3888 Y26.8282
G01 X49.4401 Y26.8660
G01 X49.4513 Y26.8755
G01 X49.4948 Y26.9152
G01 X50.0248 Y27.4452
G01 X50.0678 Y27.4923
G01 X50.0769 Y27.5038
G01 X50.1118 Y27.5512
G01 X50.1423 Y27.6016
G01 X50.1515 Y27.6189
G01 X50.1746 Y27.6677
G01 X50.1800 Y27.6814
G01 X50.1996 Y27.7369
G01 X50.2163 Y27.8035
G01 X50.2264 Y27.8714
G01 X50.2295 Y27.9302
G01 X50.2298 Y30.9692
G01 X50.2650 Y31.0011
G01 X50.2755 Y31.0114
G01 X50.3381 Y31.0805
G01 X50.3473 Y31.0919
G01 X50.3999 Y31.1629
G01 X50.4079 Y31.1752
G01 X50.4556 Y31.2553
G01 X50.4977 Y31.3439
G01 X50.5031 Y31.3575
G01 X50.5343 Y31.4453
G01 X50.5593 Y31.5453
G01 X50.5744 Y31.6471
G01 X50.5794 Y31.7451
G01 X50.5793 Y31.7598
G01 X50.5744 Y31.8529
G01 X50.5593 Y31.9547
G01 X50.5343 Y32.0547
G01 X50.5031 Y32.1425
G01 X50.4977 Y32.1561
G01 X50.4556 Y32.2447
G01 X50.4079 Y32.3248
G01 X50.3999 Y32.3371
G01 X50.3473 Y32.4081
G01 X50.3381 Y32.4195
G01 X50.2755 Y32.4886
G01 X50.2650 Y32.4989
G01 X50.2298 Y32.5308
G01 X50.2298 Y37.3192
G01 X50.2650 Y37.3511
G01 X50.2755 Y37.3614
G01 X50.3349 Y37.4268
G01 X50.3443 Y37.4380
G01 X50.4026 Y37.5169
G01 X50.4532 Y37.6010
G01 X50.4600 Y37.6140
G01 X50.4996 Y37.6984
G01 X50.5312 Y37.7860
G01 X50.5369 Y37.8048
G01 X50.5572 Y37.8857
G01 X50.5602 Y37.9001
G01 X50.5744 Y37.9971
G01 X50.5795 Y38.1000
G01 X50.5744 Y38.2029
G01 X50.5610 Y38.2951
G01 X50.5572 Y38.3143
G01 X50.5369 Y38.3952
G01 X50.5312 Y38.4140
G01 X50.4996 Y38.5016
G01 X50.4600 Y38.5860
G01 X50.4507 Y38.6033
G01 X50.4026 Y38.6831
G01 X50.3473 Y38.7581
G01 X50.3349 Y38.7732
G01 X50.2721 Y38.8421
G01 X50.1958 Y38.9113
G01 X50.1211 Y38.9670
G01 X50.1048 Y38.9779
G01 X50.0333 Y39.0207
G01 X50.0160 Y39.0300
G01 X49.9316 Y39.0696
G01 X49.8347 Y39.1043
G01 X49.7347 Y39.1293
G01 X49.6426 Y39.1432
G01 X49.6231 Y39.1452
G01 X49.5398 Y39.1493
G01 X49.5202 Y39.1493
G01 X49.4271 Y39.1444
G01 X49.3349 Y39.1310
G01 X49.3157 Y39.1272
G01 X49.2348 Y39.1069
G01 X49.2160 Y39.1012
G01 X49.1284 Y39.0696
G01 X49.0353 Y39.0256
G01 X48.9552 Y38.9779
G01 X48.9389 Y38.9670
G01 X48.8642 Y38.9113
G01 X48.7879 Y38.8421
G01 X48.7187 Y38.7658
G01 X48.6630 Y38.6911
G01 X48.6521 Y38.6748
G01 X48.6044 Y38.5947
G01 X48.5604 Y38.5016
G01 X48.5288 Y38.4140
G01 X48.5231 Y38.3952
G01 X48.5028 Y38.3143
G01 X48.4998 Y38.2999
G01 X48.4868 Y38.2126
G01 X48.4848 Y38.1931
G01 X48.4805 Y38.1000
G01 X48.4848 Y38.0069
G01 X48.4868 Y37.9874
G01 X48.5007 Y37.8953
G01 X48.5231 Y37.8048
G01 X48.5272 Y37.7907
G01 X48.5604 Y37.6984
G01 X48.6000 Y37.6140
G01 X48.6093 Y37.5967
G01 X48.6547 Y37.5210
G01 X48.6630 Y37.5089
G01 X48.7127 Y37.4419
G01 X48.7219 Y37.4305
G01 X48.7845 Y37.3614
G01 X48.7950 Y37.3511
G01 X48.8302 Y37.3192
G01 X48.8302 Y32.5308
G01 X48.7950 Y32.4989
G01 X48.7845 Y32.4886
G01 X48.7219 Y32.4195
G01 X48.7127 Y32.4081
G01 X48.6601 Y32.3371
G01 X48.6521 Y32.3248
G01 X48.6044 Y32.2447
G01 X48.5623 Y32.1561
G01 X48.5569 Y32.1425
G01 X48.5257 Y32.0547
G01 X48.5007 Y31.9547
G01 X48.4856 Y31.8529
G01 X48.4806 Y31.7549
G01 X48.4807 Y31.7402
G01 X48.4856 Y31.6471
G01 X48.5007 Y31.5453
G01 X48.5257 Y31.4453
G01 X48.5569 Y31.3575
G01 X48.5623 Y31.3439
G01 X48.6044 Y31.2553
G01 X48.6521 Y31.1752
G01 X48.6601 Y31.1629
G01 X48.7127 Y31.0919
G01 X48.7219 Y31.0805
G01 X48.7845 Y31.0114
G01 X48.7950 Y31.0011
G01 X48.8302 Y30.9692
G01 X48.8302 Y28.2298
G01 X48.7102 Y28.1097
G01 X40.0211 Y28.1097
G01 X39.0611 Y29.0698
G01 X39.0139 Y29.1128
G01 X39.0025 Y29.1220
G01 X38.9630 Y29.1512
G01 X38.9467 Y29.1621
G01 X38.8961 Y29.1921
G01 X38.8430 Y29.2175
G01 X38.8249 Y29.2250
G01 X38.7694 Y29.2446
G01 X38.7123 Y29.2592
G01 X38.6931 Y29.2630
G01 X38.6348 Y29.2714
G01 X38.5663 Y29.2748
G01 X32.4401 Y29.2748
G01 X32.3764 Y29.2718
G01 X32.3618 Y29.2702
G01 X32.3036 Y29.2613
G01 X32.2464 Y29.2473
G01 X32.2323 Y29.2432
G01 X32.1815 Y29.2250
G01 X32.1634 Y29.2175
G01 X32.1103 Y29.1922
G01 X32.0515 Y29.1569
G01 X31.9961 Y29.1159
G01 X31.9524 Y29.0766
G01 X29.3468 Y26.4712
G01 X29.3041 Y26.4238
G01 X29.2633 Y26.3688
G01 X29.2278 Y26.3096
G01 X29.1986 Y26.2477
G01 X29.1754 Y26.1831
G01 X29.1587 Y26.1164
G01 X29.1486 Y26.0484
G01 X29.1453 Y25.9848
G01 X29.1453 Y15.7735
G01 X25.5015 Y12.1298
G01 X11.7198 Y12.1298
G01 X10.8598 Y12.9898
G01 X10.8598 Y14.1170
G01 X10.8775 Y14.1202
G01 X10.9155 Y14.1299
G01 X10.9525 Y14.1429
G01 X10.9660 Y14.1487
G01 X10.9969 Y14.1636
G01 X11.0306 Y14.1836
G01 X11.0427 Y14.1919
G01 X11.0663 Y14.2095
G01 X11.0739 Y14.2157
G01 X11.1028 Y14.2422
G01 X11.1261 Y14.2674
G01 X11.1355 Y14.2787
G01 X11.1587 Y14.3103
G01 X11.1791 Y14.3438
G01 X11.1858 Y14.3569
G01 X11.2003 Y14.3880
G01 X11.2151 Y14.4295
G01 X11.2248 Y14.4675
G01 X11.2275 Y14.4820
G01 X11.2323 Y14.5159
G01 X11.2344 Y14.5551
G01 X11.2345 Y15.3600
G01 X11.2323 Y15.4041
G01 X11.2259 Y15.4477
G01 X11.2151 Y15.4905
G01 X11.2038 Y15.5229
G01 X11.1984 Y15.5365
G01 X11.1837 Y15.5675
G01 X11.1791 Y15.5762
G01 X11.1640 Y15.6015
G01 X11.1531 Y15.6177
G01 X11.1355 Y15.6413
G01 X11.1261 Y15.6526
G01 X11.1028 Y15.6778
G01 X11.0702 Y15.7075
G01 X11.0347 Y15.7337
G01 X10.9969 Y15.7564
G01 X10.9570 Y15.7753
G01 X10.9155 Y15.7901
G01 X10.8727 Y15.8009
G01 X10.8339 Y15.8068
G01 X10.8193 Y15.8081
G01 X10.7850 Y15.8095
G01 X9.5350 Y15.8095
G01 X9.4909 Y15.8073
G01 X9.4473 Y15.8009
G01 X9.4045 Y15.7901
G01 X9.3630 Y15.7753
G01 X9.3231 Y15.7564
G01 X9.2853 Y15.7337
G01 X9.2498 Y15.7075
G01 X9.2172 Y15.6778
G01 X9.1875 Y15.6452
G01 X9.1640 Y15.6138
G01 X9.1560 Y15.6015
G01 X9.1386 Y15.5719
G01 X9.1197 Y15.5320
G01 X9.1049 Y15.4905
G01 X9.0963 Y15.4572
G01 X9.0925 Y15.4380
G01 X9.0882 Y15.4089
G01 X9.0872 Y15.3992
G01 X9.0855 Y15.3600
G01 X9.0855 Y14.5600
G01 X9.0877 Y14.5159
G01 X9.0932 Y14.4771
G01 X9.0952 Y14.4675
G01 X9.1022 Y14.4390
G01 X9.1079 Y14.4202
G01 X9.1197 Y14.3880
G01 X9.1386 Y14.3481
G01 X9.1586 Y14.3144
G01 X9.1669 Y14.3023
G01 X9.1875 Y14.2748
G01 X9.2172 Y14.2422
G01 X9.2498 Y14.2125
G01 X9.2773 Y14.1919
G01 X9.2935 Y14.1810
G01 X9.3188 Y14.1659
G01 X9.3275 Y14.1613
G01 X9.3630 Y14.1447
G01 X9.3998 Y14.1313
G01 X9.4092 Y14.1285
G01 X9.4378 Y14.1213
G01 X9.4473 Y14.1191
G01 X9.4602 Y14.1170
G00 Z2.0000
G00 X13.2987 Y14.1129
G01 F80.00
G01 Z-0.1017
G01 F240.00
G01 X13.3035 Y14.0976
G01 X13.3235 Y14.0422
G01 X13.3485 Y13.9889
G01 X13.3577 Y13.9716
G01 X13.3882 Y13.9212
G01 X13.4231 Y13.8738
G01 X13.4355 Y13.8587
G01 X13.4752 Y13.8152
G01 X14.3752 Y12.9152
G01 X14.4187 Y12.8755
G01 X14.4338 Y12.8631
G01 X14.4812 Y12.8282
G01 X14.5402 Y12.7929
G01 X14.6022 Y12.7635
G01 X14.6669 Y12.7404
G01 X14.7335 Y12.7237
G01 X14.7917 Y12.7148
G01 X14.8112 Y12.7129
G01 X14.8700 Y12.7102
G01 X17.6114 Y12.7102
G01 X17.6799 Y12.7136
G01 X17.7382 Y12.7220
G01 X17.7527 Y12.7247
G01 X17.8145 Y12.7404
G01 X17.8700 Y12.7600
G01 X17.8881 Y12.7675
G01 X17.9412 Y12.7929
G01 X17.9918 Y12.8229
G01 X18.0081 Y12.8338
G01 X18.0553 Y12.8691
G01 X18.0991 Y12.9084
G01 X19.8148 Y14.6238
G01 X19.8426 Y14.6542
G01 X19.8553 Y14.6597
G01 X19.8683 Y14.6664
G01 X19.8808 Y14.6741
G01 X19.8927 Y14.6827
G01 X19.9003 Y14.6889
G01 X19.9111 Y14.6989
G01 X19.9211 Y14.7097
G01 X19.9302 Y14.7212
G01 X19.9411 Y14.7374
G01 X19.9503 Y14.7547
G01 X19.9578 Y14.7728
G01 X19.9609 Y14.7821
G01 X19.9647 Y14.7963
G01 X19.9673 Y14.8107
G01 X19.9690 Y14.8253
G01 X19.9694 Y14.8351
G01 X19.9695 Y14.8586
G01 X19.9896 Y14.9155
G01 X20.0042 Y14.9726
G01 X20.0072 Y14.9869
G01 X20.0164 Y15.0501
G01 X20.0197 Y15.1137
G01 X20.0197 Y15.2449
G01 X20.0164 Y15.3086
G01 X20.0080 Y15.3669
G01 X20.0042 Y15.3861
G01 X19.9896 Y15.4431
G01 X19.9695 Y15.5000
G01 X19.9694 Y15.6449
G01 X19.9680 Y15.6644
G01 X19.9647 Y15.6837
G01 X19.9623 Y15.6932
G01 X19.9578 Y15.7072
G01 X19.9543 Y15.7163
G01 X19.9482 Y15.7297
G01 X19.9411 Y15.7426
G01 X19.9359 Y15.7508
G01 X19.9242 Y15.7666
G01 X19.9178 Y15.7740
G01 X19.9076 Y15.7845
G01 X19.9003 Y15.7911
G01 X19.8888 Y15.8002
G01 X19.8726 Y15.8111
G01 X19.8640 Y15.8159
G01 X19.8508 Y15.8224
G01 X19.8372 Y15.8278
G01 X19.8232 Y15.8323
G01 X19.8089 Y15.8357
G01 X19.7896 Y15.8385
G01 X19.7700 Y15.8395
G01 X19.6797 Y15.8395
G01 X19.6541 Y15.8548
G01 X19.6455 Y15.8594
G01 X19.5923 Y15.8846
G01 X19.5786 Y15.8900
G01 X19.5278 Y15.9081
G01 X19.5137 Y15.9122
G01 X19.4565 Y15.9263
G01 X19.3886 Y15.9364
G01 X19.3298 Y15.9395
G01 X19.3102 Y15.9395
G01 X19.2514 Y15.9364
G01 X19.1835 Y15.9263
G01 X19.1169 Y15.9096
G01 X19.0568 Y15.8883
G01 X19.0433 Y15.8825
G01 X18.9945 Y15.8594
G01 X18.9859 Y15.8548
G01 X18.9603 Y15.8395
G01 X18.8651 Y15.8394
G01 X18.8504 Y15.8385
G01 X18.8407 Y15.8373
G01 X18.8215 Y15.8335
G01 X18.8028 Y15.8278
G01 X18.7847 Y15.8203
G01 X18.7674 Y15.8111
G01 X18.7551 Y15.8031
G01 X18.7397 Y15.7911
G01 X18.7255 Y15.7776
G01 X18.7127 Y15.7627
G01 X18.7015 Y15.7467
G01 X18.6941 Y15.7340
G01 X18.6857 Y15.7163
G01 X18.6806 Y15.7026
G01 X18.6765 Y15.6885
G01 X18.6734 Y15.6741
G01 X18.6715 Y15.6596
G01 X18.6707 Y15.6498
G01 X18.6705 Y15.5000
G01 X18.6535 Y15.4524
G01 X18.6486 Y15.4368
G01 X17.3215 Y14.1097
G01 X15.1599 Y14.1097
G01 X14.9649 Y14.3047
G01 X14.9740 Y14.3185
G01 X14.9914 Y14.3481
G01 X15.0084 Y14.3835
G01 X15.0138 Y14.3971
G01 X15.0251 Y14.4295
G01 X15.0348 Y14.4675
G01 X15.0368 Y14.4771
G01 X15.0411 Y14.5062
G01 X15.0428 Y14.5208
G01 X15.0445 Y14.5600
G01 X15.0445 Y15.3600
G01 X15.0431 Y15.3943
G01 X15.0418 Y15.4089
G01 X15.0368 Y15.4429
G01 X15.0337 Y15.4572
G01 X15.0265 Y15.4858
G01 X15.0221 Y15.4998
G01 X15.0103 Y15.5320
G01 X14.9937 Y15.5675
G01 X14.9866 Y15.5804
G01 X14.9687 Y15.6097
G01 X14.9455 Y15.6413
G01 X14.9361 Y15.6526
G01 X14.9163 Y15.6743
G01 X14.9093 Y15.6813
G01 X14.8876 Y15.7011
G01 X14.8763 Y15.7105
G01 X14.8527 Y15.7281
G01 X14.8365 Y15.7390
G01 X14.8069 Y15.7564
G01 X14.7670 Y15.7753
G01 X14.7255 Y15.7901
G01 X14.6922 Y15.7987
G01 X14.6779 Y15.8018
G01 X14.6488 Y15.8061
G01 X14.6293 Y15.8081
G01 X14.5950 Y15.8095
G01 X13.3450 Y15.8095
G01 X13.3009 Y15.8073
G01 X13.2670 Y15.8025
G01 X13.2525 Y15.7998
G01 X13.2145 Y15.7901
G01 X13.1821 Y15.7788
G01 X13.1685 Y15.7734
G01 X13.1331 Y15.7564
G01 X13.0994 Y15.7364
G01 X13.0873 Y15.7281
G01 X13.0598 Y15.7075
G01 X13.0342 Y15.6846
G01 X13.0237 Y15.6743
G01 X12.9975 Y15.6452
G01 X12.9740 Y15.6138
G01 X12.9660 Y15.6015
G01 X12.9486 Y15.5719
G01 X12.9316 Y15.5365
G01 X12.9279 Y15.5275
G01 X12.9179 Y15.4998
G01 X12.9135 Y15.4858
G01 X12.9041 Y15.4477
G01 X12.8989 Y15.4138
G01 X12.8972 Y15.3992
G01 X12.8956 Y15.3649
G01 X12.8956 Y14.5551
G01 X12.8977 Y14.5159
G01 X12.9041 Y14.4723
G01 X12.9149 Y14.4295
G01 X12.9297 Y14.3880
G01 X12.9486 Y14.3481
G01 X12.9713 Y14.3103
G01 X12.9975 Y14.2748
G01 X13.0204 Y14.2492
G01 X13.0342 Y14.2354
G01 X13.0561 Y14.2157
G01 X13.0676 Y14.2065
G01 X13.0912 Y14.1890
G01 X13.0994 Y14.1836
G01 X13.1246 Y14.1684
G01 X13.1375 Y14.1613
G01 X13.1730 Y14.1447
G01 X13.2145 Y14.1299
G01 X13.2573 Y14.1191
G01 X13.2987 Y14.1129
G00 Z2.0000
G00 X12.4205 Y20.2303
G01 F80.00
G01 Z-0.1017
G01 F240.00
G01 X12.4207 Y20.1302
G01 X12.4227 Y20.1107
G01 X12.4265 Y20.0915
G01 X12.4291 Y20.0821
G01 X12.4339 Y20.0682
G01 X12.4397 Y20.0547
G01 X12.4441 Y20.0460
G01 X12.4515 Y20.0333
G01 X12.4598 Y20.0212
G01 X12.4689 Y20.0097
G01 X12.4755 Y20.0024
G01 X12.4824 Y19.9955
G01 X12.4934 Y19.9858
G01 X12.5051 Y19.9769
G01 X12.5133 Y19.9715
G01 X12.5260 Y19.9641
G01 X12.5392 Y19.9576
G01 X12.5482 Y19.9539
G01 X12.5621 Y19.9491
G01 X12.5811 Y19.9443
G01 X12.5907 Y19.9427
G01 X12.6053 Y19.9410
G01 X12.6200 Y19.9405
G01 X12.6799 Y19.9405
G01 X12.8952 Y19.7252
G01 X12.8955 Y17.6600
G01 X12.8977 Y17.6159
G01 X12.9032 Y17.5771
G01 X12.9063 Y17.5628
G01 X12.9149 Y17.5295
G01 X12.9262 Y17.4971
G01 X12.9316 Y17.4835
G01 X12.9486 Y17.4481
G01 X12.9713 Y17.4103
G01 X12.9975 Y17.3748
G01 X13.0237 Y17.3457
G01 X13.0342 Y17.3354
G01 X13.0598 Y17.3125
G01 X13.0873 Y17.2919
G01 X13.0994 Y17.2836
G01 X13.1331 Y17.2636
G01 X13.1730 Y17.2447
G01 X13.2098 Y17.2313
G01 X13.2240 Y17.2272
G01 X13.2573 Y17.2191
G01 X13.2912 Y17.2139
G01 X13.3058 Y17.2122
G01 X13.3401 Y17.2106
G01 X14.6048 Y17.2107
G01 X14.6342 Y17.2122
G01 X14.6439 Y17.2132
G01 X14.6730 Y17.2175
G01 X14.6875 Y17.2202
G01 X14.7160 Y17.2272
G01 X14.7302 Y17.2313
G01 X14.7625 Y17.2429
G01 X14.7760 Y17.2487
G01 X14.8025 Y17.2613
G01 X14.8112 Y17.2659
G01 X14.8406 Y17.2836
G01 X14.8527 Y17.2919
G01 X14.8763 Y17.3095
G01 X14.8876 Y17.3189
G01 X14.9128 Y17.3422
G01 X14.9296 Y17.3602
G01 X15.5504 Y17.3602
G01 X15.5637 Y17.3457
G01 X15.5707 Y17.3387
G01 X15.5924 Y17.3189
G01 X15.6037 Y17.3095
G01 X15.6353 Y17.2863
G01 X15.6646 Y17.2684
G01 X15.6775 Y17.2613
G01 X15.7130 Y17.2447
G01 X15.7545 Y17.2299
G01 X15.7973 Y17.2191
G01 X15.8409 Y17.2127
G01 X15.8850 Y17.2105
G01 X17.1448 Y17.2107
G01 X17.1791 Y17.2127
G01 X17.2130 Y17.2175
G01 X17.2275 Y17.2202
G01 X17.2655 Y17.2299
G01 X17.3025 Y17.2429
G01 X17.3160 Y17.2487
G01 X17.3469 Y17.2636
G01 X17.3765 Y17.2810
G01 X17.3888 Y17.2890
G01 X17.4202 Y17.3125
G01 X17.4493 Y17.3387
G01 X17.4596 Y17.3492
G01 X17.4825 Y17.3748
G01 X17.5031 Y17.4023
G01 X17.5114 Y17.4144
G01 X17.5314 Y17.4481
G01 X17.5503 Y17.4880
G01 X17.5637 Y17.5248
G01 X17.5678 Y17.5390
G01 X17.5759 Y17.5723
G01 X17.5811 Y17.6062
G01 X17.5828 Y17.6208
G01 X17.5843 Y17.6502
G01 X17.5845 Y18.4600
G01 X17.5823 Y18.5041
G01 X17.5775 Y18.5380
G01 X17.5748 Y18.5525
G01 X17.5651 Y18.5905
G01 X17.5538 Y18.6229
G01 X17.5484 Y18.6365
G01 X17.5314 Y18.6719
G01 X17.5140 Y18.7015
G01 X17.5060 Y18.7138
G01 X17.4855 Y18.7413
G01 X17.4761 Y18.7526
G01 X17.4528 Y18.7778
G01 X17.4239 Y18.8043
G01 X17.4124 Y18.8135
G01 X17.3847 Y18.8337
G01 X17.3554 Y18.8516
G01 X17.3425 Y18.8587
G01 X17.3115 Y18.8734
G01 X17.2979 Y18.8788
G01 X17.2655 Y18.8901
G01 X17.2227 Y18.9009
G01 X17.1791 Y18.9073
G01 X17.1399 Y18.9094
G01 X15.8752 Y18.9093
G01 X15.8458 Y18.9078
G01 X15.8361 Y18.9068
G01 X15.8070 Y18.9025
G01 X15.7925 Y18.8998
G01 X15.7640 Y18.8928
G01 X15.7498 Y18.8887
G01 X15.7175 Y18.8771
G01 X15.7040 Y18.8713
G01 X15.6775 Y18.8587
G01 X15.6688 Y18.8541
G01 X15.6394 Y18.8364
G01 X15.6273 Y18.8281
G01 X15.6037 Y18.8105
G01 X15.5924 Y18.8011
G01 X15.5672 Y18.7778
G01 X15.5504 Y18.7598
G01 X14.9296 Y18.7598
G01 X14.9163 Y18.7743
G01 X14.9093 Y18.7813
G01 X14.8876 Y18.8011
G01 X14.8763 Y18.8105
G01 X14.8447 Y18.8337
G01 X14.8112 Y18.8541
G01 X14.8025 Y18.8587
G01 X14.7760 Y18.8713
G01 X14.7579 Y18.8788
G01 X14.7255 Y18.8901
G01 X14.6875 Y18.8998
G01 X14.6730 Y18.9025
G01 X14.6391 Y18.9073
G01 X14.5999 Y18.9094
G01 X14.2948 Y18.9095
G01 X14.2947 Y20.0199
G01 X14.2914 Y20.0836
G01 X14.2830 Y20.1419
G01 X14.2792 Y20.1611
G01 X14.2672 Y20.2087
G01 X14.2631 Y20.2228
G01 X14.2415 Y20.2828
G01 X14.2121 Y20.3449
G01 X14.1768 Y20.4038
G01 X14.1419 Y20.4512
G01 X14.1328 Y20.4627
G01 X14.0898 Y20.5098
G01 X13.6195 Y20.9801
G01 X13.6194 Y21.0449
G01 X13.6180 Y21.0644
G01 X13.6157 Y21.0789
G01 X13.6123 Y21.0932
G01 X13.6078 Y21.1072
G01 X13.6024 Y21.1208
G01 X13.5936 Y21.1383
G01 X13.5859 Y21.1508
G01 X13.5742 Y21.1666
G01 X13.5645 Y21.1776
G01 X13.5540 Y21.1878
G01 X13.5427 Y21.1973
G01 X13.5308 Y21.2059
G01 X13.5140 Y21.2159
G01 X13.4963 Y21.2243
G01 X13.4826 Y21.2294
G01 X13.4637 Y21.2347
G01 X13.4493 Y21.2373
G01 X13.4396 Y21.2385
G01 X13.4249 Y21.2394
G01 X13.2800 Y21.2395
G01 X13.2231 Y21.2596
G01 X13.1565 Y21.2763
G01 X13.0886 Y21.2864
G01 X13.0298 Y21.2895
G01 X13.0151 Y21.2897
G01 X12.9514 Y21.2864
G01 X12.8835 Y21.2763
G01 X12.8169 Y21.2596
G01 X12.7600 Y21.2395
G01 X12.6151 Y21.2394
G01 X12.5956 Y21.2380
G01 X12.5811 Y21.2357
G01 X12.5668 Y21.2323
G01 X12.5574 Y21.2294
G01 X12.5437 Y21.2243
G01 X12.5303 Y21.2182
G01 X12.5174 Y21.2111
G01 X12.5051 Y21.2031
G01 X12.4973 Y21.1973
G01 X12.4860 Y21.1878
G01 X12.4789 Y21.1811
G01 X12.4689 Y21.1703
G01 X12.4598 Y21.1588
G01 X12.4515 Y21.1467
G01 X12.4464 Y21.1383
G01 X12.4397 Y21.1253
G01 X12.4339 Y21.1118
G01 X12.4291 Y21.0979
G01 X12.4253 Y21.0837
G01 X12.4234 Y21.0741
G01 X12.4215 Y21.0596
G01 X12.4207 Y21.0498
G01 X12.4205 Y20.9497
G01 X12.4052 Y20.9241
G01 X12.4006 Y20.9155
G01 X12.3754 Y20.8623
G01 X12.3700 Y20.8486
G01 X12.3519 Y20.7978
G01 X12.3478 Y20.7837
G01 X12.3337 Y20.7265
G01 X12.3248 Y20.6683
G01 X12.3232 Y20.6537
G01 X12.3202 Y20.5900
G01 X12.3229 Y20.5312
G01 X12.3248 Y20.5117
G01 X12.3320 Y20.4631
G01 X12.3347 Y20.4487
G01 X12.3504 Y20.3869
G01 X12.3717 Y20.3268
G01 X12.3775 Y20.3133
G01 X12.4006 Y20.2645
G01 X12.4052 Y20.2559
G01 X12.4205 Y20.2303
G00 Z2.0000
G00 X8.5102 Y19.0100
G01 F80.00
G01 Z-0.1017
G01 F240.00
G01 X8.5129 Y18.9512
G01 X8.5148 Y18.9317
G01 X8.5237 Y18.8735
G01 X8.5404 Y18.8069
G01 X8.5635 Y18.7422
G01 X8.5885 Y18.6889
G01 X8.5977 Y18.6716
G01 X8.6282 Y18.6212
G01 X8.6691 Y18.5661
G01 X8.7118 Y18.5187
G01 X9.0855 Y18.1449
G01 X9.0856 Y17.6551
G01 X9.0872 Y17.6208
G01 X9.0889 Y17.6062
G01 X9.0941 Y17.5723
G01 X9.1022 Y17.5390
G01 X9.1063 Y17.5248
G01 X9.1179 Y17.4925
G01 X9.1237 Y17.4790
G01 X9.1363 Y17.4525
G01 X9.1434 Y17.4396
G01 X9.1613 Y17.4103
G01 X9.1845 Y17.3787
G01 X9.1939 Y17.3674
G01 X9.2172 Y17.3422
G01 X9.2461 Y17.3157
G01 X9.2576 Y17.3065
G01 X9.2812 Y17.2890
G01 X9.2894 Y17.2836
G01 X9.3146 Y17.2684
G01 X9.3275 Y17.2613
G01 X9.3630 Y17.2447
G01 X9.3952 Y17.2329
G01 X9.4092 Y17.2285
G01 X9.4473 Y17.2191
G01 X9.4812 Y17.2139
G01 X9.4958 Y17.2122
G01 X9.5301 Y17.2106
G01 X10.7850 Y17.2105
G01 X10.8291 Y17.2127
G01 X10.8679 Y17.2182
G01 X10.8822 Y17.2213
G01 X10.9155 Y17.2299
G01 X10.9479 Y17.2412
G01 X10.9615 Y17.2466
G01 X10.9969 Y17.2636
G01 X11.0347 Y17.2863
G01 X11.0702 Y17.3125
G01 X11.0993 Y17.3387
G01 X11.1096 Y17.3492
G01 X11.1325 Y17.3748
G01 X11.1531 Y17.4023
G01 X11.1614 Y17.4144
G01 X11.1766 Y17.4396
G01 X11.1837 Y17.4525
G01 X11.2003 Y17.4880
G01 X11.2151 Y17.5295
G01 X11.2259 Y17.5723
G01 X11.2318 Y17.6111
G01 X11.2331 Y17.6257
G01 X11.2345 Y17.6600
G01 X11.2344 Y18.4649
G01 X11.2323 Y18.5041
G01 X11.2275 Y18.5380
G01 X11.2248 Y18.5525
G01 X11.2151 Y18.5905
G01 X11.2003 Y18.6320
G01 X11.1858 Y18.6631
G01 X11.1791 Y18.6762
G01 X11.1587 Y18.7097
G01 X11.1325 Y18.7452
G01 X11.1028 Y18.7778
G01 X11.0702 Y18.8075
G01 X11.0347 Y18.8337
G01 X10.9969 Y18.8564
G01 X10.9570 Y18.8753
G01 X10.9155 Y18.8901
G01 X10.8775 Y18.8998
G01 X10.8630 Y18.9025
G01 X10.8291 Y18.9073
G01 X10.7899 Y18.9094
G01 X10.3001 Y18.9095
G01 X9.9098 Y19.2998
G01 X9.9098 Y20.5900
G01 X9.9064 Y20.6586
G01 X9.8963 Y20.7265
G01 X9.8822 Y20.7837
G01 X9.8781 Y20.7978
G01 X9.8600 Y20.8486
G01 X9.8546 Y20.8623
G01 X9.8294 Y20.9155
G01 X9.8248 Y20.9241
G01 X9.8095 Y20.9497
G01 X9.8095 Y21.0400
G01 X9.8090 Y21.0547
G01 X9.8080 Y21.0644
G01 X9.8057 Y21.0789
G01 X9.8023 Y21.0932
G01 X9.7978 Y21.1072
G01 X9.7903 Y21.1253
G01 X9.7811 Y21.1426
G01 X9.7702 Y21.1588
G01 X9.7611 Y21.1703
G01 X9.7476 Y21.1845
G01 X9.7327 Y21.1973
G01 X9.7208 Y21.2059
G01 X9.7040 Y21.2159
G01 X9.6863 Y21.2243
G01 X9.6679 Y21.2309
G01 X9.6489 Y21.2357
G01 X9.6296 Y21.2385
G01 X9.6100 Y21.2395
G01 X9.4700 Y21.2395
G01 X9.4131 Y21.2596
G01 X9.3561 Y21.2742
G01 X9.3369 Y21.2780
G01 X9.2835 Y21.2858
G01 X9.2688 Y21.2871
G01 X9.2100 Y21.2898
G01 X9.1463 Y21.2868
G01 X9.1317 Y21.2852
G01 X9.0831 Y21.2780
G01 X9.0639 Y21.2742
G01 X9.0069 Y21.2596
G01 X8.9500 Y21.2395
G01 X8.8002 Y21.2393
G01 X8.7856 Y21.2380
G01 X8.7759 Y21.2366
G01 X8.7663 Y21.2347
G01 X8.7521 Y21.2309
G01 X8.7337 Y21.2243
G01 X8.7160 Y21.2159
G01 X8.6992 Y21.2059
G01 X8.6834 Y21.1942
G01 X8.6689 Y21.1811
G01 X8.6558 Y21.1666
G01 X8.6441 Y21.1508
G01 X8.6341 Y21.1340
G01 X8.6257 Y21.1163
G01 X8.6191 Y21.0979
G01 X8.6153 Y21.0837
G01 X8.6120 Y21.0644
G01 X8.6106 Y21.0449
G01 X8.6105 Y20.9497
G01 X8.5952 Y20.9241
G01 X8.5906 Y20.9155
G01 X8.5654 Y20.8623
G01 X8.5600 Y20.8486
G01 X8.5419 Y20.7978
G01 X8.5378 Y20.7837
G01 X8.5237 Y20.7265
G01 X8.5148 Y20.6683
G01 X8.5129 Y20.6488
G01 X8.5102 Y20.5900
G01 X8.5102 Y19.0100
G00 Z2.0000
G00 X6.6002 Y18.1000
G01 F80.00
G01 Z-0.1017
G01 F240.00
G01 X6.6036 Y18.0314
G01 X6.6137 Y17.9635
G01 X6.6304 Y17.8969
G01 X6.6535 Y17.8322
G01 X6.6829 Y17.7701
G01 X6.7182 Y17.7112
G01 X6.7591 Y17.6561
G01 X6.7985 Y17.6123
G01 X8.3987 Y16.0118
G01 X8.4461 Y15.9691
G01 X8.5012 Y15.9282
G01 X8.5601 Y15.8929
G01 X8.6133 Y15.8675
G01 X8.6314 Y15.8600
G01 X8.6869 Y15.8404
G01 X8.7535 Y15.8237
G01 X8.8214 Y15.8136
G01 X8.8900 Y15.8102
G01 X15.8102 Y15.8102
G01 X15.8102 Y15.8030
G01 X15.7973 Y15.8009
G01 X15.7878 Y15.7987
G01 X15.7592 Y15.7915
G01 X15.7498 Y15.7887
G01 X15.7130 Y15.7753
G01 X15.6731 Y15.7564
G01 X15.6394 Y15.7364
G01 X15.6273 Y15.7281
G01 X15.5998 Y15.7075
G01 X15.5672 Y15.6778
G01 X15.5375 Y15.6452
G01 X15.5169 Y15.6177
G01 X15.5086 Y15.6056
G01 X15.4886 Y15.5719
G01 X15.4697 Y15.5320
G01 X15.4579 Y15.4998
G01 X15.4535 Y15.4858
G01 X15.4463 Y15.4572
G01 X15.4425 Y15.4380
G01 X15.4377 Y15.4041
G01 X15.4355 Y15.3600
G01 X15.4355 Y14.5600
G01 X15.4377 Y14.5159
G01 X15.4441 Y14.4723
G01 X15.4522 Y14.4390
G01 X15.4563 Y14.4248
G01 X15.4662 Y14.3971
G01 X15.4737 Y14.3790
G01 X15.4886 Y14.3481
G01 X15.5113 Y14.3103
G01 X15.5375 Y14.2748
G01 X15.5637 Y14.2457
G01 X15.5742 Y14.2354
G01 X15.5998 Y14.2125
G01 X15.6353 Y14.1863
G01 X15.6731 Y14.1636
G01 X15.7130 Y14.1447
G01 X15.7545 Y14.1299
G01 X15.7973 Y14.1191
G01 X15.8409 Y14.1127
G01 X15.8801 Y14.1106
G01 X17.1448 Y14.1107
G01 X17.1791 Y14.1127
G01 X17.2130 Y14.1175
G01 X17.2275 Y14.1202
G01 X17.2655 Y14.1299
G01 X17.3025 Y14.1429
G01 X17.3160 Y14.1487
G01 X17.3469 Y14.1636
G01 X17.3806 Y14.1836
G01 X17.3927 Y14.1919
G01 X17.4202 Y14.2125
G01 X17.4528 Y14.2422
G01 X17.4825 Y14.2748
G01 X17.5087 Y14.3103
G01 X17.5314 Y14.3481
G01 X17.5503 Y14.3880
G01 X17.5651 Y14.4295
G01 X17.5737 Y14.4628
G01 X17.5768 Y14.4771
G01 X17.5823 Y14.5159
G01 X17.5845 Y14.5600
G01 X17.5845 Y15.3600
G01 X17.5823 Y15.4041
G01 X17.5759 Y15.4477
G01 X17.5678 Y15.4810
G01 X17.5637 Y15.4952
G01 X17.5538 Y15.5229
G01 X17.5463 Y15.5410
G01 X17.5314 Y15.5719
G01 X17.5087 Y15.6097
G01 X17.4825 Y15.6452
G01 X17.4596 Y15.6708
G01 X17.4458 Y15.6846
G01 X17.4239 Y15.7043
G01 X17.4163 Y15.7105
G01 X17.3847 Y15.7337
G01 X17.3512 Y15.7541
G01 X17.3381 Y15.7608
G01 X17.3115 Y15.7734
G01 X17.3025 Y15.7771
G01 X17.2748 Y15.7871
G01 X17.2608 Y15.7915
G01 X17.2322 Y15.7987
G01 X17.2227 Y15.8009
G01 X17.2098 Y15.8030
G01 X17.2098 Y15.8102
G01 X17.6163 Y15.8103
G01 X17.6799 Y15.8136
G01 X17.7431 Y15.8228
G01 X17.7574 Y15.8258
G01 X17.8145 Y15.8404
G01 X17.8700 Y15.8600
G01 X17.8881 Y15.8675
G01 X17.9412 Y15.8929
G01 X17.9918 Y15.9229
G01 X18.0081 Y15.9338
G01 X18.0515 Y15.9660
G01 X18.0627 Y15.9755
G01 X18.1062 Y16.0152
G01 X18.7798 Y16.6889
G01 X18.8195 Y16.7323
G01 X18.8290 Y16.7436
G01 X18.8668 Y16.7949
G01 X18.8973 Y16.8453
G01 X18.9065 Y16.8625
G01 X18.9296 Y16.9114
G01 X18.9350 Y16.9250
G01 X18.9546 Y16.9805
G01 X18.9713 Y17.0471
G01 X18.9814 Y17.1151
G01 X18.9845 Y17.1739
G01 X18.9848 Y19.6050
G01 X18.9814 Y19.6736
G01 X18.9730 Y19.7319
G01 X18.9703 Y19.7463
G01 X18.9572 Y19.7987
G01 X18.9516 Y19.8174
G01 X18.9315 Y19.8728
G01 X18.9065 Y19.9261
G01 X18.8973 Y19.9434
G01 X18.8668 Y19.9938
G01 X18.8319 Y20.0412
G01 X18.8228 Y20.0527
G01 X18.7798 Y20.0998
G01 X17.7398 Y21.1398
G01 X17.7398 Y22.4402
G01 X23.1704 Y22.4402
G01 X23.1837 Y22.4257
G01 X23.1907 Y22.4187
G01 X23.2124 Y22.3989
G01 X23.2237 Y22.3895
G01 X23.2553 Y22.3663
G01 X23.2846 Y22.3484
G01 X23.2975 Y22.3413
G01 X23.3330 Y22.3247
G01 X23.3745 Y22.3099
G01 X23.4173 Y22.2991
G01 X23.4609 Y22.2927
G01 X23.5050 Y22.2905
G01 X24.7648 Y22.2907
G01 X24.7991 Y22.2927
G01 X24.8427 Y22.2991
G01 X24.8855 Y22.3099
G01 X24.9270 Y22.3247
G01 X24.9669 Y22.3436
G01 X25.0047 Y22.3663
G01 X25.0402 Y22.3925
G01 X25.0728 Y22.4222
G01 X25.1025 Y22.4548
G01 X25.1287 Y22.4903
G01 X25.1514 Y22.5281
G01 X25.1703 Y22.5680
G01 X25.1851 Y22.6095
G01 X25.1959 Y22.6523
G01 X25.2023 Y22.6959
G01 X25.2044 Y22.7351
G01 X25.2044 Y23.5449
G01 X25.2023 Y23.5841
G01 X25.1975 Y23.6180
G01 X25.1948 Y23.6325
G01 X25.1851 Y23.6705
G01 X25.1703 Y23.7120
G01 X25.1558 Y23.7431
G01 X25.1491 Y23.7562
G01 X25.1287 Y23.7897
G01 X25.1025 Y23.8252
G01 X25.0796 Y23.8508
G01 X25.0693 Y23.8613
G01 X25.0402 Y23.8875
G01 X25.0088 Y23.9110
G01 X24.9965 Y23.9190
G01 X24.9669 Y23.9364
G01 X24.9270 Y23.9553
G01 X24.8902 Y23.9687
G01 X24.8760 Y23.9728
G01 X24.8427 Y23.9809
G01 X24.8088 Y23.9861
G01 X24.7942 Y23.9878
G01 X24.7550 Y23.9895
G01 X23.5050 Y23.9895
G01 X23.4609 Y23.9873
G01 X23.4173 Y23.9809
G01 X23.3745 Y23.9701
G01 X23.3330 Y23.9553
G01 X23.2975 Y23.9387
G01 X23.2846 Y23.9316
G01 X23.2553 Y23.9137
G01 X23.2237 Y23.8905
G01 X23.2124 Y23.8811
G01 X23.1907 Y23.8613
G01 X23.1837 Y23.8543
G01 X23.1704 Y23.8398
G01 X17.7398 Y23.8398
G01 X17.7398 Y27.0983
G01 X20.0519 Y29.4105
G01 X21.1650 Y29.4105
G01 X21.2042 Y29.4122
G01 X21.2139 Y29.4132
G01 X21.2430 Y29.4175
G01 X21.2622 Y29.4213
G01 X21.2955 Y29.4299
G01 X21.3370 Y29.4447
G01 X21.3769 Y29.4636
G01 X21.4065 Y29.4810
G01 X21.4227 Y29.4919
G01 X21.4463 Y29.5095
G01 X21.4576 Y29.5189
G01 X21.4828 Y29.5422
G01 X21.5125 Y29.5748
G01 X21.5387 Y29.6103
G01 X21.5591 Y29.6438
G01 X21.5658 Y29.6569
G01 X21.5784 Y29.6835
G01 X21.5821 Y29.6925
G01 X21.5921 Y29.7202
G01 X21.5978 Y29.7390
G01 X21.6048 Y29.7675
G01 X21.6068 Y29.7771
G01 X21.6123 Y29.8159
G01 X21.6145 Y29.8600
G01 X21.6145 Y30.4312
G01 X23.2535 Y32.0701
G01 X34.2900 Y32.0701
G01 X34.3733 Y32.0740
G01 X34.3928 Y32.0759
G01 X34.4753 Y32.0884
G01 X34.5563 Y32.1084
G01 X34.5750 Y32.1141
G01 X34.6535 Y32.1424
G01 X34.7290 Y32.1779
G01 X34.7421 Y32.1846
G01 X34.8177 Y32.2302
G01 X34.8849 Y32.2797
G01 X34.9000 Y32.2921
G01 X34.9582 Y32.3449
G01 X36.2351 Y33.6218
G01 X36.2943 Y33.6874
G01 X36.3442 Y33.7543
G01 X36.3550 Y33.7706
G01 X36.3977 Y33.8422
G01 X36.4336 Y33.9175
G01 X36.4411 Y33.9356
G01 X36.4675 Y34.0096
G01 X36.4716 Y34.0237
G01 X36.4895 Y34.0951
G01 X36.4933 Y34.1143
G01 X36.5053 Y34.1969
G01 X36.5098 Y34.2851
G01 X36.5099 Y36.2782
G01 X36.5273 Y36.3074
G01 X36.5319 Y36.3160
G01 X36.5739 Y36.4047
G01 X36.5793 Y36.4184
G01 X36.6091 Y36.5015
G01 X36.6135 Y36.5155
G01 X36.6384 Y36.6155
G01 X36.6530 Y36.7125
G01 X36.6549 Y36.7320
G01 X36.6595 Y36.8300
G01 X36.6542 Y36.9378
G01 X36.6400 Y37.0349
G01 X36.6362 Y37.0541
G01 X36.6122 Y37.1492
G01 X36.5793 Y37.2416
G01 X36.5718 Y37.2597
G01 X36.5297 Y37.3483
G01 X36.4769 Y37.4367
G01 X36.4686 Y37.4489
G01 X36.4099 Y37.5275
G01 X36.3442 Y37.6004
G01 X36.3304 Y37.6142
G01 X36.2575 Y37.6799
G01 X36.1789 Y37.7386
G01 X36.1626 Y37.7494
G01 X36.0783 Y37.7997
G01 X35.9808 Y37.8458
G01 X35.8885 Y37.8791
G01 X35.8697 Y37.8848
G01 X35.7841 Y37.9062
G01 X35.7649 Y37.9100
G01 X35.6678 Y37.9242
G01 X35.5698 Y37.9293
G01 X35.5502 Y37.9293
G01 X35.4522 Y37.9242
G01 X35.3455 Y37.9084
G01 X35.2408 Y37.8822
G01 X35.1484 Y37.8493
G01 X35.1303 Y37.8418
G01 X35.0417 Y37.7997
G01 X34.9574 Y37.7494
G01 X34.9411 Y37.7386
G01 X34.8702 Y37.6859
G01 X34.8551 Y37.6735
G01 X34.7825 Y37.6075
G01 X34.7165 Y37.5349
G01 X34.7041 Y37.5198
G01 X34.6458 Y37.4408
G01 X34.5903 Y37.3483
G01 X34.5442 Y37.2508
G01 X34.5109 Y37.1585
G01 X34.5052 Y37.1397
G01 X34.4838 Y37.0541
G01 X34.4800 Y37.0349
G01 X34.4658 Y36.9378
G01 X34.4606 Y36.8349
G01 X34.4607 Y36.8202
G01 X34.4651 Y36.7320
G01 X34.4670 Y36.7125
G01 X34.4816 Y36.6155
G01 X34.5065 Y36.5155
G01 X34.5109 Y36.5015
G01 X34.5407 Y36.4184
G01 X34.5461 Y36.4047
G01 X34.5881 Y36.3160
G01 X34.5927 Y36.3074
G01 X34.6101 Y36.2782
G01 X34.6101 Y34.6835
G01 X33.8965 Y33.9699
G01 X23.8099 Y33.9699
G01 X23.8099 Y39.3700
G01 X23.8057 Y39.4582
G01 X23.8041 Y39.4728
G01 X23.7916 Y39.5553
G01 X23.7716 Y39.6363
G01 X23.7659 Y39.6550
G01 X23.7376 Y39.7335
G01 X23.7021 Y39.8090
G01 X23.6929 Y39.8263
G01 X23.6498 Y39.8977
G01 X23.5943 Y39.9726
G01 X23.5384 Y40.0346
G01 X23.5246 Y40.0484
G01 X23.4626 Y40.1043
G01 X23.3957 Y40.1542
G01 X23.3794 Y40.1650
G01 X23.3078 Y40.2077
G01 X23.2235 Y40.2476
G01 X23.1357 Y40.2790
G01 X23.0453 Y40.3016
G01 X22.9628 Y40.3141
G01 X22.9482 Y40.3157
G01 X22.8600 Y40.3199
G01 X20.7639 Y40.3199
G01 X20.7306 Y40.3356
G01 X20.7171 Y40.3414
G01 X20.6293 Y40.3728
G01 X20.6152 Y40.3769
G01 X20.5295 Y40.3983
G01 X20.5151 Y40.4010
G01 X20.4229 Y40.4144
G01 X20.3249 Y40.4194
G01 X20.3102 Y40.4193
G01 X20.2171 Y40.4144
G01 X20.1249 Y40.4010
G01 X20.1105 Y40.3983
G01 X20.0248 Y40.3769
G01 X20.0107 Y40.3728
G01 X19.9229 Y40.3414
G01 X19.9094 Y40.3356
G01 X19.8761 Y40.3199
G01 X18.2239 Y40.3199
G01 X18.1906 Y40.3356
G01 X18.1771 Y40.3414
G01 X18.0893 Y40.3728
G01 X18.0752 Y40.3769
G01 X17.9895 Y40.3983
G01 X17.9751 Y40.4010
G01 X17.8829 Y40.4144
G01 X17.7800 Y40.4195
G01 X17.6771 Y40.4144
G01 X17.5849 Y40.4010
G01 X17.5705 Y40.3983
G01 X17.4848 Y40.3769
G01 X17.4707 Y40.3728
G01 X17.3829 Y40.3414
G01 X17.3694 Y40.3356
G01 X17.3361 Y40.3199
G01 X15.6839 Y40.3199
G01 X15.6506 Y40.3356
G01 X15.6371 Y40.3414
G01 X15.5493 Y40.3728
G01 X15.5352 Y40.3769
G01 X15.4495 Y40.3983
G01 X15.4351 Y40.4010
G01 X15.3429 Y40.4144
G01 X15.2449 Y40.4194
G01 X15.2302 Y40.4193
G01 X15.1371 Y40.4144
G01 X15.0449 Y40.4010
G01 X15.0305 Y40.3983
G01 X14.9448 Y40.3769
G01 X14.9307 Y40.3728
G01 X14.8429 Y40.3414
G01 X14.8294 Y40.3356
G01 X14.7961 Y40.3199
G01 X13.7227 Y40.3199
G01 X13.7159 Y40.3308
G01 X13.7073 Y40.3427
G01 X13.7011 Y40.3503
G01 X13.6911 Y40.3611
G01 X13.6803 Y40.3711
G01 X13.6727 Y40.3773
G01 X13.6649 Y40.3831
G01 X13.6526 Y40.3911
G01 X13.6397 Y40.3982
G01 X13.6263 Y40.4043
G01 X13.6172 Y40.4078
G01 X13.6032 Y40.4123
G01 X13.5937 Y40.4147
G01 X13.5793 Y40.4173
G01 X13.5647 Y40.4190
G01 X13.5549 Y40.4194
G01 X11.8451 Y40.4194
G01 X11.8304 Y40.4185
G01 X11.8159 Y40.4166
G01 X11.8063 Y40.4147
G01 X11.7921 Y40.4109
G01 X11.7782 Y40.4061
G01 X11.7647 Y40.4003
G01 X11.7560 Y40.3959
G01 X11.7433 Y40.3885
G01 X11.7312 Y40.3802
G01 X11.7234 Y40.3742
G01 X11.7160 Y40.3678
G01 X11.7055 Y40.3576
G01 X11.6927 Y40.3427
G01 X11.6841 Y40.3308
G01 X11.6789 Y40.3226
G01 X11.6718 Y40.3097
G01 X11.6676 Y40.3008
G01 X11.6639 Y40.2918
G01 X11.6591 Y40.2779
G01 X11.6565 Y40.2685
G01 X11.6534 Y40.2541
G01 X11.6515 Y40.2396
G01 X11.6507 Y40.2298
G01 X11.6506 Y38.5151
G01 X11.6520 Y38.4956
G01 X11.6543 Y38.4811
G01 X11.6591 Y38.4621
G01 X11.6639 Y38.4482
G01 X11.6718 Y38.4303
G01 X11.6789 Y38.4174
G01 X11.6869 Y38.4051
G01 X11.6989 Y38.3897
G01 X11.7089 Y38.3789
G01 X11.7234 Y38.3658
G01 X11.7351 Y38.3569
G01 X11.7517 Y38.3464
G01 X11.7647 Y38.3397
G01 X11.7828 Y38.3322
G01 X11.7968 Y38.3277
G01 X11.8111 Y38.3243
G01 X11.8304 Y38.3215
G01 X11.8500 Y38.3205
G01 X13.5549 Y38.3206
G01 X13.5696 Y38.3215
G01 X13.5793 Y38.3227
G01 X13.5889 Y38.3243
G01 X13.6032 Y38.3277
G01 X13.6172 Y38.3322
G01 X13.6308 Y38.3376
G01 X13.6397 Y38.3418
G01 X13.6526 Y38.3489
G01 X13.6608 Y38.3541
G01 X13.6727 Y38.3627
G01 X13.6840 Y38.3722
G01 X13.6911 Y38.3789
G01 X13.7011 Y38.3897
G01 X13.7073 Y38.3973
G01 X13.7159 Y38.4092
G01 X13.7227 Y38.4201
G01 X14.7961 Y38.4201
G01 X14.8294 Y38.4044
G01 X14.8429 Y38.3986
G01 X14.9307 Y38.3672
G01 X14.9448 Y38.3631
G01 X15.0305 Y38.3417
G01 X15.0449 Y38.3390
G01 X15.1371 Y38.3256
G01 X15.2302 Y38.3207
G01 X15.2449 Y38.3206
G01 X15.3429 Y38.3256
G01 X15.4351 Y38.3390
G01 X15.4495 Y38.3417
G01 X15.5352 Y38.3631
G01 X15.5493 Y38.3672
G01 X15.6371 Y38.3986
G01 X15.6506 Y38.4044
G01 X15.6839 Y38.4201
G01 X17.3361 Y38.4201
G01 X17.3694 Y38.4044
G01 X17.3829 Y38.3986
G01 X17.4707 Y38.3672
G01 X17.4848 Y38.3631
G01 X17.5705 Y38.3417
G01 X17.5849 Y38.3390
G01 X17.6771 Y38.3256
G01 X17.7800 Y38.3205
G01 X17.8829 Y38.3256
G01 X17.9751 Y38.3390
G01 X17.9895 Y38.3417
G01 X18.0752 Y38.3631
G01 X18.0893 Y38.3672
G01 X18.1771 Y38.3986
G01 X18.1906 Y38.4044
G01 X18.2239 Y38.4201
G01 X19.8761 Y38.4201
G01 X19.9094 Y38.4044
G01 X19.9229 Y38.3986
G01 X20.0107 Y38.3672
G01 X20.0248 Y38.3631
G01 X20.1105 Y38.3417
G01 X20.1249 Y38.3390
G01 X20.2171 Y38.3256
G01 X20.3200 Y38.3205
G01 X20.4229 Y38.3256
G01 X20.5151 Y38.3390
G01 X20.5295 Y38.3417
G01 X20.6152 Y38.3631
G01 X20.6293 Y38.3672
G01 X20.7171 Y38.3986
G01 X20.7306 Y38.4044
G01 X20.7639 Y38.4201
G01 X21.9101 Y38.4201
G01 X21.9101 Y33.4135
G01 X20.0462 Y31.5495
G01 X19.4750 Y31.5495
G01 X19.4309 Y31.5473
G01 X19.3970 Y31.5425
G01 X19.3825 Y31.5398
G01 X19.3540 Y31.5328
G01 X19.3352 Y31.5271
G01 X19.3030 Y31.5153
G01 X19.2631 Y31.4964
G01 X19.2253 Y31.4737
G01 X19.1976 Y31.4535
G01 X19.1824 Y31.4411
G01 X19.1607 Y31.4213
G01 X19.1537 Y31.4143
G01 X19.1275 Y31.3852
G01 X19.1040 Y31.3538
G01 X19.0986 Y31.3456
G01 X19.0834 Y31.3204
G01 X19.0742 Y31.3031
G01 X19.0597 Y31.2720
G01 X19.0449 Y31.2305
G01 X19.0341 Y31.1877
G01 X19.0282 Y31.1489
G01 X19.0269 Y31.1343
G01 X19.0255 Y31.1000
G01 X19.0255 Y30.3633
G01 X16.5452 Y27.8830
G01 X16.4991 Y27.8321
G01 X16.4638 Y27.7849
G01 X16.4529 Y27.7687
G01 X16.4229 Y27.7180
G01 X16.3975 Y27.6649
G01 X16.3900 Y27.6468
G01 X16.3704 Y27.5913
G01 X16.3558 Y27.5342
G01 X16.3520 Y27.5150
G01 X16.3436 Y27.4568
G01 X16.3403 Y27.3931
G01 X16.3403 Y21.2898
G01 X14.9200 Y21.2898
G01 X14.8514 Y21.2864
G01 X14.7931 Y21.2780
G01 X14.7739 Y21.2742
G01 X14.7169 Y21.2596
G01 X14.6600 Y21.2395
G01 X14.5102 Y21.2393
G01 X14.4956 Y21.2380
G01 X14.4811 Y21.2357
G01 X14.4668 Y21.2323
G01 X14.4528 Y21.2278
G01 X14.4392 Y21.2224
G01 X14.4303 Y21.2182
G01 X14.4174 Y21.2111
G01 X14.4092 Y21.2059
G01 X14.3973 Y21.1973
G01 X14.3897 Y21.1911
G01 X14.3824 Y21.1845
G01 X14.3722 Y21.1740
G01 X14.3627 Y21.1627
G01 X14.3569 Y21.1549
G01 X14.3489 Y21.1426
G01 X14.3441 Y21.1340
G01 X14.3376 Y21.1208
G01 X14.3339 Y21.1118
G01 X14.3277 Y21.0932
G01 X14.3253 Y21.0837
G01 X14.3227 Y21.0693
G01 X14.3207 Y21.0498
G01 X14.3205 Y20.9497
G01 X14.3052 Y20.9241
G01 X14.3006 Y20.9155
G01 X14.2775 Y20.8667
G01 X14.2717 Y20.8532
G01 X14.2504 Y20.7931
G01 X14.2358 Y20.7361
G01 X14.2328 Y20.7217
G01 X14.2236 Y20.6586
G01 X14.2205 Y20.5998
G01 X14.2205 Y20.5802
G01 X14.2236 Y20.5214
G01 X14.2337 Y20.4535
G01 X14.2478 Y20.3963
G01 X14.2519 Y20.3822
G01 X14.2700 Y20.3314
G01 X14.2754 Y20.3177
G01 X14.3006 Y20.2645
G01 X14.3052 Y20.2559
G01 X14.3205 Y20.2303
G01 X14.3205 Y20.1400
G01 X14.3210 Y20.1253
G01 X14.3220 Y20.1156
G01 X14.3243 Y20.1011
G01 X14.3277 Y20.0868
G01 X14.3322 Y20.0728
G01 X14.3376 Y20.0592
G01 X14.3464 Y20.0417
G01 X14.3569 Y20.0251
G01 X14.3689 Y20.0097
G01 X14.3824 Y19.9955
G01 X14.3973 Y19.9827
G01 X14.4092 Y19.9741
G01 X14.4260 Y19.9641
G01 X14.4437 Y19.9557
G01 X14.4621 Y19.9491
G01 X14.4811 Y19.9443
G01 X14.5004 Y19.9415
G01 X14.5200 Y19.9405
G01 X14.6600 Y19.9405
G01 X14.7169 Y19.9204
G01 X14.7835 Y19.9037
G01 X14.8514 Y19.8936
G01 X14.9151 Y19.8903
G01 X16.7849 Y19.8903
G01 X16.8486 Y19.8936
G01 X16.9069 Y19.9020
G01 X16.9261 Y19.9058
G01 X16.9807 Y19.9197
G01 X17.5853 Y19.3151
G01 X17.5853 Y17.4735
G01 X17.3215 Y17.2098
G01 X12.9898 Y17.2098
G01 X12.8947 Y17.3049
G01 X12.8947 Y18.9499
G01 X12.8914 Y19.0136
G01 X12.8813 Y19.0815
G01 X12.8646 Y19.1481
G01 X12.8450 Y19.2037
G01 X12.8395 Y19.2173
G01 X12.8121 Y19.2749
G01 X12.7768 Y19.3338
G01 X12.7359 Y19.3889
G01 X12.6932 Y19.4363
G01 X11.8098 Y20.3198
G01 X11.8097 Y20.5949
G01 X11.8064 Y20.6586
G01 X11.7972 Y20.7217
G01 X11.7942 Y20.7361
G01 X11.7796 Y20.7931
G01 X11.7583 Y20.8532
G01 X11.7525 Y20.8667
G01 X11.7294 Y20.9155
G01 X11.7248 Y20.9241
G01 X11.7095 Y20.9497
G01 X11.7094 Y21.0449
G01 X11.7080 Y21.0644
G01 X11.7057 Y21.0789
G01 X11.7023 Y21.0932
G01 X11.6994 Y21.1026
G01 X11.6943 Y21.1163
G01 X11.6903 Y21.1253
G01 X11.6859 Y21.1340
G01 X11.6785 Y21.1467
G01 X11.6702 Y21.1588
G01 X11.6642 Y21.1666
G01 X11.6545 Y21.1776
G01 X11.6440 Y21.1878
G01 X11.6288 Y21.2002
G01 X11.6167 Y21.2085
G01 X11.6040 Y21.2159
G01 X11.5908 Y21.2224
G01 X11.5726 Y21.2294
G01 X11.5585 Y21.2335
G01 X11.5489 Y21.2357
G01 X11.5344 Y21.2380
G01 X11.5149 Y21.2394
G01 X11.3700 Y21.2395
G01 X11.3131 Y21.2596
G01 X11.2513 Y21.2753
G01 X11.2369 Y21.2780
G01 X11.1883 Y21.2852
G01 X11.1688 Y21.2871
G01 X11.1149 Y21.2897
G01 X11.1002 Y21.2895
G01 X11.0414 Y21.2864
G01 X10.9831 Y21.2780
G01 X10.9639 Y21.2742
G01 X10.9116 Y21.2610
G01 X10.8976 Y21.2565
G01 X10.8500 Y21.2395
G01 X10.7051 Y21.2394
G01 X10.6856 Y21.2380
G01 X10.6663 Y21.2347
G01 X10.6474 Y21.2294
G01 X10.6382 Y21.2261
G01 X10.6247 Y21.2203
G01 X10.6074 Y21.2111
G01 X10.5912 Y21.2002
G01 X10.5834 Y21.1942
G01 X10.5724 Y21.1845
G01 X10.5589 Y21.1703
G01 X10.5469 Y21.1549
G01 X10.5364 Y21.1383
G01 X10.5276 Y21.1208
G01 X10.5206 Y21.1026
G01 X10.5165 Y21.0885
G01 X10.5127 Y21.0693
G01 X10.5110 Y21.0547
G01 X10.5106 Y21.0449
G01 X10.5105 Y20.9497
G01 X10.4952 Y20.9241
G01 X10.4906 Y20.9155
G01 X10.4654 Y20.8623
G01 X10.4600 Y20.8486
G01 X10.4419 Y20.7978
G01 X10.4378 Y20.7837
G01 X10.4237 Y20.7265
G01 X10.4136 Y20.6586
G01 X10.4102 Y20.5900
G01 X10.4102 Y20.0300
G01 X10.4132 Y19.9663
G01 X10.4148 Y19.9517
G01 X10.4220 Y19.9031
G01 X10.4258 Y19.8839
G01 X10.4404 Y19.8269
G01 X10.4635 Y19.7622
G01 X10.4885 Y19.7089
G01 X10.4977 Y19.6916
G01 X10.5282 Y19.6412
G01 X10.5691 Y19.5861
G01 X10.6152 Y19.5352
G01 X11.4952 Y18.6552
G01 X11.4952 Y17.2098
G01 X9.1798 Y17.2098
G01 X7.9998 Y18.3898
G01 X7.9998 Y20.5900
G01 X7.9964 Y20.6586
G01 X7.9863 Y20.7265
G01 X7.9722 Y20.7837
G01 X7.9681 Y20.7978
G01 X7.9500 Y20.8486
G01 X7.9446 Y20.8623
G01 X7.9194 Y20.9155
G01 X7.9148 Y20.9241
G01 X7.8995 Y20.9497
G01 X7.8995 Y21.0400
G01 X7.8985 Y21.0596
G01 X7.8966 Y21.0741
G01 X7.8923 Y21.0932
G01 X7.8878 Y21.1072
G01 X7.8824 Y21.1208
G01 X7.8782 Y21.1297
G01 X7.8711 Y21.1426
G01 X7.8659 Y21.1508
G01 X7.8573 Y21.1627
G01 X7.8511 Y21.1703
G01 X7.8411 Y21.1811
G01 X7.8340 Y21.1878
G01 X7.8227 Y21.1973
G01 X7.8149 Y21.2031
G01 X7.8026 Y21.2111
G01 X7.7940 Y21.2159
G01 X7.7808 Y21.2224
G01 X7.7718 Y21.2261
G01 X7.7579 Y21.2309
G01 X7.7437 Y21.2347
G01 X7.7341 Y21.2366
G01 X7.7196 Y21.2385
G01 X7.7049 Y21.2394
G01 X7.5600 Y21.2395
G01 X7.5031 Y21.2596
G01 X7.4461 Y21.2742
G01 X7.4269 Y21.2780
G01 X7.3686 Y21.2864
G01 X7.3000 Y21.2898
G01 X7.2412 Y21.2871
G01 X7.2265 Y21.2858
G01 X7.1731 Y21.2780
G01 X7.1539 Y21.2742
G01 X7.0969 Y21.2596
G01 X7.0400 Y21.2395
G01 X6.8902 Y21.2393
G01 X6.8756 Y21.2380
G01 X6.8611 Y21.2357
G01 X6.8468 Y21.2323
G01 X6.8328 Y21.2278
G01 X6.8237 Y21.2243
G01 X6.8103 Y21.2182
G01 X6.7933 Y21.2085
G01 X6.7851 Y21.2031
G01 X6.7734 Y21.1942
G01 X6.7589 Y21.1811
G01 X6.7458 Y21.1666
G01 X6.7369 Y21.1549
G01 X6.7315 Y21.1467
G01 X6.7264 Y21.1383
G01 X6.7197 Y21.1253
G01 X6.7122 Y21.1072
G01 X6.7077 Y21.0932
G01 X6.7053 Y21.0837
G01 X6.7027 Y21.0693
G01 X6.7010 Y21.0547
G01 X6.7005 Y21.0400
G01 X6.7005 Y20.9497
G01 X6.6852 Y20.9241
G01 X6.6806 Y20.9155
G01 X6.6554 Y20.8623
G01 X6.6500 Y20.8486
G01 X6.6335 Y20.8024
G01 X6.6290 Y20.7884
G01 X6.6158 Y20.7361
G01 X6.6120 Y20.7169
G01 X6.6036 Y20.6586
G01 X6.6005 Y20.5998
G01 X6.6002 Y18.1000
G00 Z2.0000
G00 X4.7002 Y18.0201
G01 F80.00
G01 Z-0.1017
G01 F240.00
G01 X4.7036 Y17.9515
G01 X4.7137 Y17.8836
G01 X4.7304 Y17.8170
G01 X4.7535 Y17.7523
G01 X4.7829 Y17.6902
G01 X4.8182 Y17.6313
G01 X4.8591 Y17.5762
G01 X4.8985 Y17.5324
G01 X7.6103 Y14.8201
G01 X7.6106 Y12.5602
G01 X7.6137 Y12.5014
G01 X7.6221 Y12.4431
G01 X7.6259 Y12.4239
G01 X7.6405 Y12.3669
G01 X7.6636 Y12.3022
G01 X7.6886 Y12.2489
G01 X7.6978 Y12.2316
G01 X7.7283 Y12.1812
G01 X7.7692 Y12.1261
G01 X7.8153 Y12.0752
G01 X10.3553 Y9.5352
G01 X10.4062 Y9.4891
G01 X10.4613 Y9.4482
G01 X10.5202 Y9.4129
G01 X10.5734 Y9.3875
G01 X10.5869 Y9.3817
G01 X10.6470 Y9.3604
G01 X10.7136 Y9.3437
G01 X10.7815 Y9.3336
G01 X10.8501 Y9.3302
G01 X26.3713 Y9.3302
G01 X26.4397 Y9.3336
G01 X26.5029 Y9.3428
G01 X26.5173 Y9.3458
G01 X26.5650 Y9.3578
G01 X26.5837 Y9.3634
G01 X26.6391 Y9.3835
G01 X26.7011 Y9.4128
G01 X26.7518 Y9.4429
G01 X26.7680 Y9.4538
G01 X26.8152 Y9.4891
G01 X26.8661 Y9.5352
G01 X31.7400 Y14.4091
G01 X31.7860 Y14.4599
G01 X31.8269 Y14.5150
G01 X31.8621 Y14.5739
G01 X31.8875 Y14.6270
G01 X31.8933 Y14.6405
G01 X31.9146 Y14.7005
G01 X31.9313 Y14.7673
G01 X31.9414 Y14.8352
G01 X31.9448 Y14.9036
G01 X31.9448 Y25.1102
G01 X33.3099 Y26.4753
G01 X37.6965 Y26.4753
G01 X38.8752 Y25.2966
G01 X38.9223 Y25.2536
G01 X38.9338 Y25.2444
G01 X38.9732 Y25.2152
G01 X38.9895 Y25.2043
G01 X39.0401 Y25.1742
G01 X39.1022 Y25.1449
G01 X39.1669 Y25.1217
G01 X39.2239 Y25.1072
G01 X39.2431 Y25.1034
G01 X39.2917 Y25.0962
G01 X39.3063 Y25.0946
G01 X39.3700 Y25.0916
G01 X51.4763 Y25.0917
G01 X51.5399 Y25.0950
G01 X51.5982 Y25.1034
G01 X51.6174 Y25.1072
G01 X51.6745 Y25.1217
G01 X51.7300 Y25.1414
G01 X51.7481 Y25.1488
G01 X51.8012 Y25.1742
G01 X51.8518 Y25.2043
G01 X51.8681 Y25.2152
G01 X51.9153 Y25.2504
G01 X51.9627 Y25.2931
G01 X52.2101 Y25.5405
G01 X52.6999 Y25.5406
G01 X52.7391 Y25.5427
G01 X52.7779 Y25.5482
G01 X52.7875 Y25.5502
G01 X52.8160 Y25.5572
G01 X52.8348 Y25.5629
G01 X52.8670 Y25.5747
G01 X52.9069 Y25.5936
G01 X52.9447 Y25.6163
G01 X52.9724 Y25.6365
G01 X52.9876 Y25.6489
G01 X53.0093 Y25.6687
G01 X53.0163 Y25.6757
G01 X53.0425 Y25.7048
G01 X53.0687 Y25.7403
G01 X53.0914 Y25.7781
G01 X53.1063 Y25.8090
G01 X53.1121 Y25.8225
G01 X53.1221 Y25.8502
G01 X53.1278 Y25.8690
G01 X53.1359 Y25.9023
G01 X53.1423 Y25.9459
G01 X53.1445 Y25.9900
G01 X53.1445 Y26.7900
G01 X53.1423 Y26.8341
G01 X53.1368 Y26.8729
G01 X53.1348 Y26.8825
G01 X53.1278 Y26.9110
G01 X53.1221 Y26.9298
G01 X53.1103 Y26.9620
G01 X53.0914 Y27.0019
G01 X53.0714 Y27.0356
G01 X53.0631 Y27.0477
G01 X53.0425 Y27.0752
G01 X53.0128 Y27.1078
G01 X52.9802 Y27.1375
G01 X52.9527 Y27.1581
G01 X52.9406 Y27.1664
G01 X52.9069 Y27.1864
G01 X52.8715 Y27.2034
G01 X52.8579 Y27.2088
G01 X52.8255 Y27.2201
G01 X52.7875 Y27.2298
G01 X52.7730 Y27.2325
G01 X52.7391 Y27.2373
G01 X52.6950 Y27.2395
G01 X51.4401 Y27.2394
G01 X51.4058 Y27.2378
G01 X51.3912 Y27.2361
G01 X51.3573 Y27.2309
G01 X51.3192 Y27.2215
G01 X51.3052 Y27.2171
G01 X51.2730 Y27.2053
G01 X51.2375 Y27.1887
G01 X51.2246 Y27.1816
G01 X51.1953 Y27.1637
G01 X51.1676 Y27.1435
G01 X51.1561 Y27.1343
G01 X51.1272 Y27.1078
G01 X51.1007 Y27.0789
G01 X51.0915 Y27.0674
G01 X51.0713 Y27.0397
G01 X51.0534 Y27.0104
G01 X51.0463 Y26.9975
G01 X51.0316 Y26.9665
G01 X51.0262 Y26.9529
G01 X51.0163 Y26.9252
G01 X51.0122 Y26.9110
G01 X51.0041 Y26.8777
G01 X50.9982 Y26.8389
G01 X50.9969 Y26.8243
G01 X50.9955 Y26.7900
G01 X50.9955 Y26.4911
G01 X39.6598 Y26.4911
G01 X38.4811 Y27.6698
G01 X38.4377 Y27.7095
G01 X38.4225 Y27.7219
G01 X38.3751 Y27.7568
G01 X38.3247 Y27.7873
G01 X38.3075 Y27.7965
G01 X38.2541 Y27.8215
G01 X38.1988 Y27.8416
G01 X38.1800 Y27.8472
G01 X38.1324 Y27.8592
G01 X38.1181 Y27.8622
G01 X38.0549 Y27.8714
G01 X37.9864 Y27.8748
G01 X33.0151 Y27.8747
G01 X32.9612 Y27.8721
G01 X32.9417 Y27.8702
G01 X32.8835 Y27.8613
G01 X32.8263 Y27.8472
G01 X32.8076 Y27.8416
G01 X32.7523 Y27.8215
G01 X32.6989 Y27.7965
G01 X32.6817 Y27.7873
G01 X32.6313 Y27.7568
G01 X32.5838 Y27.7219
G01 X32.5687 Y27.7095
G01 X32.5252 Y27.6698
G01 X30.7466 Y25.8910
G01 X30.7041 Y25.8439
G01 X30.6688 Y25.7968
G01 X30.6580 Y25.7805
G01 X30.6279 Y25.7298
G01 X30.5985 Y25.6677
G01 X30.5785 Y25.6124
G01 X30.5728 Y25.5937
G01 X30.5609 Y25.5461
G01 X30.5578 Y25.5317
G01 X30.5486 Y25.4683
G01 X30.5453 Y25.4000
G01 X30.5453 Y15.1936
G01 X26.0814 Y10.7297
G01 X11.1399 Y10.7297
G01 X9.0098 Y12.8598
G01 X9.0096 Y15.1198
G01 X9.0065 Y15.1786
G01 X8.9981 Y15.2369
G01 X8.9943 Y15.2561
G01 X8.9797 Y15.3131
G01 X8.9566 Y15.3778
G01 X8.9316 Y15.4311
G01 X8.9224 Y15.4484
G01 X8.8919 Y15.4988
G01 X8.8510 Y15.5539
G01 X8.8049 Y15.6048
G01 X6.0998 Y18.3099
G01 X6.0998 Y20.5900
G01 X6.0968 Y20.6537
G01 X6.0952 Y20.6683
G01 X6.0863 Y20.7265
G01 X6.0722 Y20.7837
G01 X6.0681 Y20.7978
G01 X6.0500 Y20.8486
G01 X6.0446 Y20.8623
G01 X6.0194 Y20.9155
G01 X6.0148 Y20.9241
G01 X5.9995 Y20.9497
G01 X5.9995 Y21.0400
G01 X5.9990 Y21.0547
G01 X5.9973 Y21.0693
G01 X5.9947 Y21.0837
G01 X5.9909 Y21.0979
G01 X5.9861 Y21.1118
G01 X5.9782 Y21.1297
G01 X5.9711 Y21.1426
G01 X5.9659 Y21.1508
G01 X5.9542 Y21.1666
G01 X5.9411 Y21.1811
G01 X5.9266 Y21.1942
G01 X5.9188 Y21.2002
G01 X5.9067 Y21.2085
G01 X5.8940 Y21.2159
G01 X5.8853 Y21.2203
G01 X5.8672 Y21.2278
G01 X5.8532 Y21.2323
G01 X5.8389 Y21.2357
G01 X5.8244 Y21.2380
G01 X5.8098 Y21.2393
G01 X5.6600 Y21.2395
G01 X5.6031 Y21.2596
G01 X5.5461 Y21.2742
G01 X5.5269 Y21.2780
G01 X5.4686 Y21.2864
G01 X5.4000 Y21.2898
G01 X5.3412 Y21.2871
G01 X5.3265 Y21.2858
G01 X5.2731 Y21.2780
G01 X5.2539 Y21.2742
G01 X5.1969 Y21.2596
G01 X5.1400 Y21.2395
G01 X4.9902 Y21.2393
G01 X4.9756 Y21.2380
G01 X4.9611 Y21.2357
G01 X4.9468 Y21.2323
G01 X4.9328 Y21.2278
G01 X4.9192 Y21.2224
G01 X4.9103 Y21.2182
G01 X4.8933 Y21.2085
G01 X4.8812 Y21.2002
G01 X4.8734 Y21.1942
G01 X4.8589 Y21.1811
G01 X4.8489 Y21.1703
G01 X4.8427 Y21.1627
G01 X4.8315 Y21.1467
G01 X4.8264 Y21.1383
G01 X4.8197 Y21.1253
G01 X4.8122 Y21.1072
G01 X4.8077 Y21.0932
G01 X4.8053 Y21.0837
G01 X4.8027 Y21.0693
G01 X4.8010 Y21.0547
G01 X4.8005 Y21.0400
G01 X4.8005 Y20.9497
G01 X4.7852 Y20.9241
G01 X4.7806 Y20.9155
G01 X4.7554 Y20.8623
G01 X4.7500 Y20.8486
G01 X4.7335 Y20.8024
G01 X4.7290 Y20.7884
G01 X4.7137 Y20.7265
G01 X4.7048 Y20.6683
G01 X4.7029 Y20.6488
G01 X4.7003 Y20.5949
G01 X4.7002 Y18.0201
G00 Z2.0000
G00 X3.5850 Y26.4695
G01 F80.00
G01 Z-0.1017
G01 F240.00
G01 X3.4802 Y26.4643
G01 X3.3860 Y26.4506
G01 X3.3668 Y26.4468
G01 X3.2745 Y26.4234
G01 X3.1757 Y26.3881
G01 X3.0896 Y26.3476
G01 X3.0723 Y26.3384
G01 X2.9991 Y26.2945
G01 X2.9828 Y26.2836
G01 X2.9065 Y26.2267
G01 X2.8287 Y26.1563
G01 X2.7583 Y26.0785
G01 X2.7014 Y26.0022
G01 X2.6905 Y25.9859
G01 X2.6466 Y25.9127
G01 X2.6374 Y25.8954
G01 X2.5969 Y25.8093
G01 X2.5616 Y25.7105
G01 X2.5361 Y25.6086
G01 X2.5218 Y25.5145
G01 X2.5199 Y25.4951
G01 X2.5157 Y25.4098
G01 X2.5157 Y25.3902
G01 X2.5207 Y25.2952
G01 X2.5361 Y25.1914
G01 X2.5616 Y25.0895
G01 X2.5934 Y24.9999
G01 X2.6009 Y24.9818
G01 X2.6374 Y24.9046
G01 X2.6466 Y24.8873
G01 X2.6957 Y24.8058
G01 X2.7583 Y24.7215
G01 X2.8287 Y24.6437
G01 X2.8991 Y24.5797
G01 X2.9142 Y24.5672
G01 X2.9828 Y24.5164
G01 X2.9949 Y24.5081
G01 X3.0808 Y24.4568
G01 X3.1757 Y24.4119
G01 X3.2745 Y24.3766
G01 X3.3668 Y24.3532
G01 X3.3812 Y24.3502
G01 X3.4802 Y24.3357
G01 X3.5801 Y24.3306
G01 X4.0399 Y24.3306
G01 X4.1398 Y24.3357
G01 X4.2436 Y24.3511
G01 X4.3455 Y24.3766
G01 X4.4351 Y24.4084
G01 X4.4532 Y24.4159
G01 X4.5392 Y24.4568
G01 X4.6209 Y24.5055
G01 X4.6372 Y24.5164
G01 X4.7058 Y24.5672
G01 X4.7209 Y24.5797
G01 X4.7913 Y24.6437
G01 X4.8428 Y24.7002
G01 X9.4602 Y24.7002
G01 X9.4605 Y22.5802
G01 X9.4636 Y22.5214
G01 X9.4720 Y22.4631
G01 X9.4758 Y22.4439
G01 X9.4890 Y22.3916
G01 X9.4935 Y22.3776
G01 X9.5100 Y22.3314
G01 X9.5154 Y22.3177
G01 X9.5406 Y22.2645
G01 X9.5452 Y22.2559
G01 X9.5605 Y22.2303
G01 X9.5605 Y22.1400
G01 X9.5615 Y22.1204
G01 X9.5643 Y22.1011
G01 X9.5677 Y22.0868
G01 X9.5739 Y22.0682
G01 X9.5797 Y22.0547
G01 X9.5889 Y22.0374
G01 X9.5998 Y22.0212
G01 X9.6122 Y22.0060
G01 X9.6189 Y21.9989
G01 X9.6297 Y21.9889
G01 X9.6373 Y21.9827
G01 X9.6492 Y21.9741
G01 X9.6660 Y21.9641
G01 X9.6792 Y21.9576
G01 X9.6882 Y21.9539
G01 X9.7068 Y21.9477
G01 X9.7259 Y21.9434
G01 X9.7404 Y21.9415
G01 X9.7502 Y21.9407
G01 X9.9000 Y21.9405
G01 X9.9569 Y21.9204
G01 X10.0235 Y21.9037
G01 X10.0914 Y21.8936
G01 X10.1551 Y21.8903
G01 X10.1698 Y21.8905
G01 X10.2286 Y21.8936
G01 X10.2965 Y21.9037
G01 X10.3631 Y21.9204
G01 X10.4200 Y21.9405
G01 X10.5649 Y21.9406
G01 X10.5844 Y21.9420
G01 X10.5989 Y21.9443
G01 X10.6085 Y21.9465
G01 X10.6272 Y21.9522
G01 X10.6453 Y21.9597
G01 X10.6583 Y21.9664
G01 X10.6749 Y21.9769
G01 X10.6903 Y21.9889
G01 X10.7045 Y22.0024
G01 X10.7173 Y22.0173
G01 X10.7285 Y22.0333
G01 X10.7359 Y22.0460
G01 X10.7403 Y22.0547
G01 X10.7478 Y22.0728
G01 X10.7535 Y22.0915
G01 X10.7573 Y22.1107
G01 X10.7585 Y22.1204
G01 X10.7594 Y22.1351
G01 X10.7595 Y22.2303
G01 X10.7748 Y22.2559
G01 X10.7794 Y22.2645
G01 X10.8025 Y22.3133
G01 X10.8083 Y22.3268
G01 X10.8296 Y22.3869
G01 X10.8442 Y22.4439
G01 X10.8480 Y22.4631
G01 X10.8564 Y22.5214
G01 X10.8597 Y22.5851
G01 X10.8598 Y28.2072
G01 X10.8708 Y28.2141
G01 X10.8827 Y28.2227
G01 X10.8940 Y28.2322
G01 X10.9011 Y28.2389
G01 X10.9111 Y28.2497
G01 X10.9202 Y28.2612
G01 X10.9259 Y28.2692
G01 X10.9336 Y28.2817
G01 X10.9403 Y28.2947
G01 X10.9443 Y28.3037
G01 X10.9494 Y28.3174
G01 X10.9535 Y28.3315
G01 X10.9557 Y28.3411
G01 X10.9580 Y28.3556
G01 X10.9593 Y28.3702
G01 X10.9595 Y28.3800
G01 X10.9595 Y29.2800
G01 X10.9585 Y29.2996
G01 X10.9573 Y29.3093
G01 X10.9547 Y29.3237
G01 X10.9494 Y29.3426
G01 X10.9443 Y29.3563
G01 X10.9403 Y29.3653
G01 X10.9311 Y29.3826
G01 X10.9259 Y29.3908
G01 X10.9173 Y29.4027
G01 X10.9078 Y29.4140
G01 X10.9011 Y29.4211
G01 X10.8940 Y29.4278
G01 X10.8827 Y29.4373
G01 X10.8667 Y29.4485
G01 X10.8497 Y29.4582
G01 X10.8363 Y29.4643
G01 X10.8272 Y29.4678
G01 X10.8179 Y29.4709
G01 X10.8037 Y29.4747
G01 X10.7893 Y29.4773
G01 X10.7796 Y29.4785
G01 X10.7600 Y29.4795
G01 X10.4200 Y29.4795
G01 X10.3678 Y29.4981
G01 X10.3537 Y29.5022
G01 X10.2965 Y29.5163
G01 X10.2383 Y29.5252
G01 X10.2188 Y29.5271
G01 X10.1600 Y29.5298
G01 X10.0963 Y29.5268
G01 X10.0817 Y29.5252
G01 X10.0331 Y29.5180
G01 X10.0139 Y29.5142
G01 X9.9569 Y29.4996
G01 X9.9000 Y29.4795
G01 X9.5551 Y29.4794
G01 X9.5356 Y29.4780
G01 X9.5163 Y29.4747
G01 X9.5068 Y29.4723
G01 X9.4928 Y29.4678
G01 X9.4792 Y29.4624
G01 X9.4703 Y29.4582
G01 X9.4617 Y29.4536
G01 X9.4492 Y29.4459
G01 X9.4373 Y29.4373
G01 X9.4297 Y29.4311
G01 X9.4189 Y29.4211
G01 X9.4122 Y29.4140
G01 X9.4058 Y29.4066
G01 X9.3969 Y29.3949
G01 X9.3864 Y29.3783
G01 X9.3818 Y29.3697
G01 X9.3757 Y29.3563
G01 X9.3691 Y29.3379
G01 X9.3653 Y29.3237
G01 X9.3620 Y29.3044
G01 X9.3606 Y29.2849
G01 X9.3605 Y28.3800
G01 X9.3610 Y28.3653
G01 X9.3627 Y28.3507
G01 X9.3643 Y28.3411
G01 X9.3665 Y28.3315
G01 X9.3706 Y28.3174
G01 X9.3757 Y28.3037
G01 X9.3797 Y28.2947
G01 X9.3841 Y28.2860
G01 X9.3915 Y28.2733
G01 X9.3998 Y28.2612
G01 X9.4058 Y28.2534
G01 X9.4122 Y28.2460
G01 X9.4224 Y28.2355
G01 X9.4334 Y28.2258
G01 X9.4412 Y28.2198
G01 X9.4492 Y28.2141
G01 X9.4602 Y28.2072
G01 X9.4602 Y26.0998
G01 X4.8428 Y26.0998
G01 X4.7913 Y26.1563
G01 X4.7209 Y26.2203
G01 X4.7058 Y26.2328
G01 X4.6292 Y26.2893
G01 X4.5392 Y26.3432
G01 X4.4532 Y26.3841
G01 X4.4351 Y26.3916
G01 X4.3455 Y26.4234
G01 X4.2436 Y26.4489
G01 X4.1495 Y26.4632
G01 X4.1301 Y26.4651
G01 X4.0350 Y26.4695
G01 X3.5850 Y26.4695
G00 Z2.0000
G00 X1.1155 Y26.1430
G01 F80.00
G01 Z-0.1017
G01 F240.00
G01 X1.1155 Y24.5752
G01 X1.1182 Y24.5213
G01 X1.1198 Y24.5067
G01 X1.1287 Y24.4485
G01 X1.1428 Y24.3913
G01 X1.1484 Y24.3726
G01 X1.1685 Y24.3172
G01 X1.1935 Y24.2639
G01 X1.2002 Y24.2509
G01 X1.2332 Y24.1962
G01 X1.2681 Y24.1488
G01 X1.2805 Y24.1337
G01 X1.3202 Y24.0902
G01 X3.3152 Y22.0952
G01 X3.3661 Y22.0491
G01 X3.4132 Y22.0138
G01 X3.4253 Y22.0055
G01 X3.4716 Y21.9777
G01 X3.4889 Y21.9685
G01 X3.5422 Y21.9435
G01 X3.6069 Y21.9204
G01 X3.6639 Y21.9058
G01 X3.6831 Y21.9020
G01 X3.7414 Y21.8936
G01 X3.8051 Y21.8903
G01 X6.3549 Y21.8903
G01 X6.4186 Y21.8936
G01 X6.4865 Y21.9037
G01 X6.5531 Y21.9204
G01 X6.6100 Y21.9405
G01 X6.7500 Y21.9405
G01 X6.7647 Y21.9410
G01 X6.7793 Y21.9427
G01 X6.7985 Y21.9465
G01 X6.8126 Y21.9506
G01 X6.8308 Y21.9576
G01 X6.8483 Y21.9664
G01 X6.8649 Y21.9769
G01 X6.8803 Y21.9889
G01 X6.8945 Y22.0024
G01 X6.9011 Y22.0097
G01 X6.9102 Y22.0212
G01 X6.9211 Y22.0374
G01 X6.9303 Y22.0547
G01 X6.9378 Y22.0728
G01 X6.9423 Y22.0868
G01 X6.9447 Y22.0963
G01 X6.9473 Y22.1107
G01 X6.9490 Y22.1253
G01 X6.9495 Y22.1400
G01 X6.9495 Y22.2303
G01 X6.9648 Y22.2559
G01 X6.9694 Y22.2645
G01 X6.9946 Y22.3177
G01 X7.0000 Y22.3314
G01 X7.0165 Y22.3776
G01 X7.0210 Y22.3916
G01 X7.0342 Y22.4439
G01 X7.0380 Y22.4631
G01 X7.0464 Y22.5214
G01 X7.0495 Y22.5802
G01 X7.0495 Y22.5998
G01 X7.0468 Y22.6537
G01 X7.0452 Y22.6683
G01 X7.0363 Y22.7265
G01 X7.0210 Y22.7884
G01 X7.0165 Y22.8024
G01 X7.0000 Y22.8486
G01 X6.9946 Y22.8623
G01 X6.9694 Y22.9155
G01 X6.9648 Y22.9241
G01 X6.9495 Y22.9497
G01 X6.9493 Y23.0498
G01 X6.9473 Y23.0693
G01 X6.9447 Y23.0837
G01 X6.9423 Y23.0932
G01 X6.9378 Y23.1072
G01 X6.9324 Y23.1208
G01 X6.9282 Y23.1297
G01 X6.9211 Y23.1426
G01 X6.9131 Y23.1549
G01 X6.9042 Y23.1666
G01 X6.8945 Y23.1776
G01 X6.8840 Y23.1878
G01 X6.8727 Y23.1973
G01 X6.8608 Y23.2059
G01 X6.8526 Y23.2111
G01 X6.8397 Y23.2182
G01 X6.8263 Y23.2243
G01 X6.8126 Y23.2294
G01 X6.7985 Y23.2335
G01 X6.7889 Y23.2357
G01 X6.7696 Y23.2385
G01 X6.7549 Y23.2394
G01 X6.6100 Y23.2395
G01 X6.5531 Y23.2596
G01 X6.4865 Y23.2763
G01 X6.4186 Y23.2864
G01 X6.3549 Y23.2897
G01 X4.0998 Y23.2898
G01 X2.5147 Y24.8749
G01 X2.5147 Y25.8433
G01 X3.5437 Y26.8723
G01 X3.5850 Y26.8705
G01 X4.0350 Y26.8705
G01 X4.1301 Y26.8749
G01 X4.1495 Y26.8768
G01 X4.2436 Y26.8911
G01 X4.3408 Y26.9152
G01 X4.3548 Y26.9196
G01 X4.4351 Y26.9484
G01 X4.4532 Y26.9559
G01 X4.5392 Y26.9968
G01 X4.6251 Y27.0481
G01 X4.6372 Y27.0564
G01 X4.7058 Y27.1072
G01 X4.7172 Y27.1164
G01 X4.7913 Y27.1837
G01 X4.8428 Y27.2402
G01 X6.7398 Y27.2405
G01 X6.7986 Y27.2436
G01 X6.8569 Y27.2520
G01 X6.8761 Y27.2558
G01 X6.9284 Y27.2690
G01 X6.9424 Y27.2735
G01 X6.9978 Y27.2935
G01 X7.0511 Y27.3185
G01 X7.0684 Y27.3277
G01 X7.1188 Y27.3582
G01 X7.1662 Y27.3931
G01 X7.1813 Y27.4055
G01 X7.2213 Y27.4418
G01 X7.9601 Y28.1805
G01 X8.2249 Y28.1806
G01 X8.2396 Y28.1815
G01 X8.2589 Y28.1843
G01 X8.2779 Y28.1891
G01 X8.2963 Y28.1957
G01 X8.3140 Y28.2041
G01 X8.3308 Y28.2141
G01 X8.3466 Y28.2258
G01 X8.3611 Y28.2389
G01 X8.3742 Y28.2534
G01 X8.3859 Y28.2692
G01 X8.3936 Y28.2817
G01 X8.4003 Y28.2947
G01 X8.4061 Y28.3082
G01 X8.4109 Y28.3221
G01 X8.4147 Y28.3363
G01 X8.4166 Y28.3459
G01 X8.4185 Y28.3604
G01 X8.4194 Y28.3751
G01 X8.4194 Y29.2849
G01 X8.4180 Y29.3044
G01 X8.4147 Y29.3237
G01 X8.4094 Y29.3426
G01 X8.4024 Y29.3608
G01 X8.3936 Y29.3783
G01 X8.3885 Y29.3867
G01 X8.3802 Y29.3988
G01 X8.3711 Y29.4103
G01 X8.3645 Y29.4176
G01 X8.3576 Y29.4245
G01 X8.3466 Y29.4342
G01 X8.3308 Y29.4459
G01 X8.3226 Y29.4511
G01 X8.3097 Y29.4582
G01 X8.3008 Y29.4624
G01 X8.2872 Y29.4678
G01 X8.2779 Y29.4709
G01 X8.2637 Y29.4747
G01 X8.2444 Y29.4780
G01 X8.2249 Y29.4794
G01 X7.8800 Y29.4795
G01 X7.8231 Y29.4996
G01 X7.7661 Y29.5142
G01 X7.7469 Y29.5180
G01 X7.6983 Y29.5252
G01 X7.6837 Y29.5268
G01 X7.6200 Y29.5298
G01 X7.5612 Y29.5271
G01 X7.5417 Y29.5252
G01 X7.4835 Y29.5163
G01 X7.4263 Y29.5022
G01 X7.4122 Y29.4981
G01 X7.3600 Y29.4795
G01 X7.0151 Y29.4794
G01 X7.0004 Y29.4785
G01 X6.9859 Y29.4766
G01 X6.9668 Y29.4723
G01 X6.9528 Y29.4678
G01 X6.9392 Y29.4624
G01 X6.9303 Y29.4582
G01 X6.9217 Y29.4536
G01 X6.9092 Y29.4459
G01 X6.8973 Y29.4373
G01 X6.8897 Y29.4311
G01 X6.8755 Y29.4176
G01 X6.8689 Y29.4103
G01 X6.8598 Y29.3988
G01 X6.8541 Y29.3908
G01 X6.8464 Y29.3783
G01 X6.8418 Y29.3697
G01 X6.8357 Y29.3563
G01 X6.8291 Y29.3379
G01 X6.8253 Y29.3237
G01 X6.8227 Y29.3093
G01 X6.8215 Y29.2996
G01 X6.8206 Y29.2849
G01 X6.8205 Y29.0201
G01 X6.4402 Y28.6398
G01 X4.8428 Y28.6398
G01 X4.7913 Y28.6963
G01 X4.7209 Y28.7603
G01 X4.7097 Y28.7698
G01 X4.6292 Y28.8293
G01 X4.5477 Y28.8784
G01 X4.5348 Y28.8855
G01 X4.4443 Y28.9281
G01 X4.3455 Y28.9634
G01 X4.2436 Y28.9889
G01 X4.1398 Y29.0043
G01 X4.0350 Y29.0095
G01 X3.5850 Y29.0095
G01 X3.4850 Y29.0048
G01 X3.4705 Y29.0032
G01 X3.3860 Y28.9906
G01 X3.3668 Y28.9868
G01 X3.2745 Y28.9634
G01 X3.1849 Y28.9316
G01 X3.1712 Y28.9262
G01 X3.0808 Y28.8832
G01 X2.9991 Y28.8345
G01 X2.9828 Y28.8236
G01 X2.9065 Y28.7667
G01 X2.8358 Y28.7030
G01 X2.8220 Y28.6892
G01 X2.7583 Y28.6185
G01 X2.7014 Y28.5422
G01 X2.6905 Y28.5259
G01 X2.6418 Y28.4442
G01 X2.6009 Y28.3582
G01 X2.5934 Y28.3401
G01 X2.5646 Y28.2598
G01 X2.5589 Y28.2410
G01 X2.5361 Y28.1486
G01 X2.5207 Y28.0448
G01 X2.5155 Y27.9400
G01 X2.5199 Y27.8449
G01 X2.5214 Y27.8291
G01 X1.3202 Y26.6280
G01 X1.2741 Y26.5771
G01 X1.2332 Y26.5219
G01 X1.2027 Y26.4715
G01 X1.1935 Y26.4543
G01 X1.1704 Y26.4054
G01 X1.1650 Y26.3918
G01 X1.1454 Y26.3363
G01 X1.1287 Y26.2697
G01 X1.1186 Y26.2017
G01 X1.1155 Y26.1430
G00 Z2.0000
G00 X3.5850 Y31.5495
G01 F80.00
G01 Z-0.1017
G01 F240.00
G01 X3.4802 Y31.5443
G01 X3.3764 Y31.5289
G01 X3.2745 Y31.5034
G01 X3.1849 Y31.4716
G01 X3.1668 Y31.4641
G01 X3.0808 Y31.4232
G01 X2.9991 Y31.3745
G01 X2.9828 Y31.3636
G01 X2.9142 Y31.3128
G01 X2.8991 Y31.3003
G01 X2.8287 Y31.2363
G01 X2.7583 Y31.1585
G01 X2.6957 Y31.0742
G01 X2.6418 Y30.9842
G01 X2.5969 Y30.8893
G01 X2.5616 Y30.7905
G01 X2.5361 Y30.6886
G01 X2.5207 Y30.5848
G01 X2.5155 Y30.4800
G01 X2.5207 Y30.3752
G01 X2.5361 Y30.2714
G01 X2.5589 Y30.1790
G01 X2.5646 Y30.1602
G01 X2.5934 Y30.0799
G01 X2.6009 Y30.0618
G01 X2.6418 Y29.9758
G01 X2.6905 Y29.8941
G01 X2.7014 Y29.8778
G01 X2.7583 Y29.8015
G01 X2.8287 Y29.7237
G01 X2.9065 Y29.6533
G01 X2.9908 Y29.5907
G01 X3.0808 Y29.5368
G01 X3.1757 Y29.4919
G01 X3.2745 Y29.4566
G01 X3.3716 Y29.4321
G01 X3.3860 Y29.4294
G01 X3.4802 Y29.4157
G01 X3.5850 Y29.4105
G01 X4.0399 Y29.4106
G01 X4.1398 Y29.4157
G01 X4.2340 Y29.4294
G01 X4.2484 Y29.4321
G01 X4.3455 Y29.4566
G01 X4.4351 Y29.4884
G01 X4.4532 Y29.4959
G01 X4.5304 Y29.5324
G01 X4.5477 Y29.5416
G01 X4.6292 Y29.5907
G01 X4.7135 Y29.6533
G01 X4.7913 Y29.7237
G01 X4.8428 Y29.7802
G01 X11.1402 Y29.7802
G01 X11.9005 Y29.0199
G01 X11.9005 Y28.3800
G01 X11.9007 Y28.3702
G01 X11.9020 Y28.3556
G01 X11.9034 Y28.3459
G01 X11.9065 Y28.3315
G01 X11.9122 Y28.3128
G01 X11.9176 Y28.2992
G01 X11.9218 Y28.2903
G01 X11.9289 Y28.2774
G01 X11.9341 Y28.2692
G01 X11.9427 Y28.2573
G01 X11.9489 Y28.2497
G01 X11.9624 Y28.2355
G01 X11.9697 Y28.2289
G01 X11.9812 Y28.2198
G01 X11.9892 Y28.2141
G01 X12.0002 Y28.2072
G01 X12.0002 Y26.4995
G01 X11.7902 Y26.4993
G01 X11.7707 Y26.4973
G01 X11.7563 Y26.4947
G01 X11.7374 Y26.4894
G01 X11.7192 Y26.4824
G01 X11.7060 Y26.4759
G01 X11.6933 Y26.4685
G01 X11.6851 Y26.4631
G01 X11.6734 Y26.4542
G01 X11.6624 Y26.4445
G01 X11.6522 Y26.4340
G01 X11.6427 Y26.4227
G01 X11.6369 Y26.4149
G01 X11.6315 Y26.4067
G01 X11.6241 Y26.3940
G01 X11.6176 Y26.3808
G01 X11.6139 Y26.3718
G01 X11.6106 Y26.3626
G01 X11.6065 Y26.3485
G01 X11.6034 Y26.3341
G01 X11.6015 Y26.3196
G01 X11.6005 Y26.3000
G01 X11.6005 Y24.5000
G01 X11.6015 Y24.4804
G01 X11.6043 Y24.4611
G01 X11.6091 Y24.4421
G01 X11.6139 Y24.4282
G01 X11.6176 Y24.4192
G01 X11.6218 Y24.4103
G01 X11.6289 Y24.3974
G01 X11.6398 Y24.3812
G01 X11.6522 Y24.3660
G01 X11.6589 Y24.3589
G01 X11.6697 Y24.3489
G01 X11.6851 Y24.3369
G01 X11.7017 Y24.3264
G01 X11.7192 Y24.3176
G01 X11.7328 Y24.3122
G01 X11.7421 Y24.3091
G01 X11.7563 Y24.3053
G01 X11.7659 Y24.3034
G01 X11.7804 Y24.3015
G01 X11.7951 Y24.3006
G01 X12.0002 Y24.3005
G01 X12.0002 Y23.8600
G01 X12.0029 Y23.8012
G01 X12.0048 Y23.7817
G01 X12.0128 Y23.7283
G01 X12.0158 Y23.7139
G01 X12.0304 Y23.6569
G01 X12.0500 Y23.6014
G01 X12.0575 Y23.5833
G01 X12.0829 Y23.5301
G01 X12.1155 Y23.4753
G01 X12.1238 Y23.4632
G01 X12.1591 Y23.4161
G01 X12.2052 Y23.3652
G01 X13.3705 Y22.1999
G01 X13.3705 Y22.1400
G01 X13.3710 Y22.1253
G01 X13.3727 Y22.1107
G01 X13.3743 Y22.1011
G01 X13.3765 Y22.0915
G01 X13.3806 Y22.0774
G01 X13.3857 Y22.0637
G01 X13.3918 Y22.0503
G01 X13.3989 Y22.0374
G01 X13.4041 Y22.0292
G01 X13.4127 Y22.0173
G01 X13.4222 Y22.0060
G01 X13.4324 Y21.9955
G01 X13.4434 Y21.9858
G01 X13.4551 Y21.9769
G01 X13.4633 Y21.9715
G01 X13.4717 Y21.9664
G01 X13.4847 Y21.9597
G01 X13.4937 Y21.9557
G01 X13.5074 Y21.9506
G01 X13.5215 Y21.9465
G01 X13.5359 Y21.9434
G01 X13.5504 Y21.9415
G01 X13.5651 Y21.9406
G01 X13.7100 Y21.9405
G01 X13.7669 Y21.9204
G01 X13.8335 Y21.9037
G01 X13.9014 Y21.8936
G01 X13.9602 Y21.8905
G01 X13.9749 Y21.8903
G01 X14.0386 Y21.8936
G01 X14.1065 Y21.9037
G01 X14.1731 Y21.9204
G01 X14.2300 Y21.9405
G01 X14.3749 Y21.9406
G01 X14.3944 Y21.9420
G01 X14.4137 Y21.9453
G01 X14.4279 Y21.9491
G01 X14.4418 Y21.9539
G01 X14.4597 Y21.9618
G01 X14.4726 Y21.9689
G01 X14.4849 Y21.9769
G01 X14.4966 Y21.9858
G01 X14.5076 Y21.9955
G01 X14.5211 Y22.0097
G01 X14.5302 Y22.0212
G01 X14.5359 Y22.0292
G01 X14.5411 Y22.0374
G01 X14.5482 Y22.0503
G01 X14.5524 Y22.0592
G01 X14.5578 Y22.0728
G01 X14.5635 Y22.0915
G01 X14.5673 Y22.1107
G01 X14.5693 Y22.1302
G01 X14.5695 Y22.2303
G01 X14.5848 Y22.2559
G01 X14.5894 Y22.2645
G01 X14.6146 Y22.3177
G01 X14.6200 Y22.3314
G01 X14.6365 Y22.3776
G01 X14.6410 Y22.3916
G01 X14.6542 Y22.4439
G01 X14.6580 Y22.4631
G01 X14.6664 Y22.5214
G01 X14.6697 Y22.5851
G01 X14.6695 Y22.5998
G01 X14.6664 Y22.6586
G01 X14.6580 Y22.7169
G01 X14.6553 Y22.7313
G01 X14.6396 Y22.7931
G01 X14.6183 Y22.8532
G01 X14.6125 Y22.8667
G01 X14.5894 Y22.9155
G01 X14.5848 Y22.9241
G01 X14.5695 Y22.9497
G01 X14.5694 Y23.0449
G01 X14.5680 Y23.0644
G01 X14.5647 Y23.0837
G01 X14.5594 Y23.1026
G01 X14.5543 Y23.1163
G01 X14.5459 Y23.1340
G01 X14.5385 Y23.1467
G01 X14.5273 Y23.1627
G01 X14.5178 Y23.1740
G01 X14.5040 Y23.1878
G01 X14.4927 Y23.1973
G01 X14.4808 Y23.2059
G01 X14.4683 Y23.2136
G01 X14.4508 Y23.2224
G01 X14.4372 Y23.2278
G01 X14.4232 Y23.2323
G01 X14.4089 Y23.2357
G01 X14.3944 Y23.2380
G01 X14.3749 Y23.2394
G01 X14.3101 Y23.2395
G01 X13.3998 Y24.1498
G01 X13.3998 Y24.3005
G01 X13.6000 Y24.3005
G01 X13.6147 Y24.3010
G01 X13.6341 Y24.3034
G01 X13.6532 Y24.3077
G01 X13.6718 Y24.3139
G01 X13.6853 Y24.3197
G01 X13.6983 Y24.3264
G01 X13.7108 Y24.3341
G01 X13.7227 Y24.3427
G01 X13.7340 Y24.3522
G01 X13.7445 Y24.3624
G01 X13.7511 Y24.3697
G01 X13.7602 Y24.3812
G01 X13.7685 Y24.3933
G01 X13.7759 Y24.4060
G01 X13.7824 Y24.4192
G01 X13.7861 Y24.4282
G01 X13.7909 Y24.4421
G01 X13.7947 Y24.4563
G01 X13.7973 Y24.4707
G01 X13.7990 Y24.4853
G01 X13.7994 Y24.4951
G01 X13.7995 Y26.3000
G01 X13.7985 Y26.3196
G01 X13.7957 Y26.3389
G01 X13.7923 Y26.3532
G01 X13.7894 Y26.3626
G01 X13.7843 Y26.3763
G01 X13.7803 Y26.3853
G01 X13.7759 Y26.3940
G01 X13.7685 Y26.4067
G01 X13.7631 Y26.4149
G01 X13.7542 Y26.4266
G01 X13.7478 Y26.4340
G01 X13.7376 Y26.4445
G01 X13.7303 Y26.4511
G01 X13.7188 Y26.4602
G01 X13.7108 Y26.4659
G01 X13.6983 Y26.4736
G01 X13.6853 Y26.4803
G01 X13.6763 Y26.4843
G01 X13.6626 Y26.4894
G01 X13.6437 Y26.4947
G01 X13.6293 Y26.4973
G01 X13.6098 Y26.4993
G01 X13.3998 Y26.4995
G01 X13.3998 Y28.2072
G01 X13.4108 Y28.2141
G01 X13.4188 Y28.2198
G01 X13.4266 Y28.2258
G01 X13.4376 Y28.2355
G01 X13.4478 Y28.2460
G01 X13.4542 Y28.2534
G01 X13.4602 Y28.2612
G01 X13.4685 Y28.2733
G01 X13.4736 Y28.2817
G01 X13.4803 Y28.2947
G01 X13.4843 Y28.3037
G01 X13.4894 Y28.3174
G01 X13.4935 Y28.3315
G01 X13.4957 Y28.3411
G01 X13.4973 Y28.3507
G01 X13.4990 Y28.3653
G01 X13.4995 Y28.3800
G01 X13.4995 Y29.2800
G01 X13.4990 Y29.2947
G01 X13.4973 Y29.3093
G01 X13.4947 Y29.3237
G01 X13.4909 Y29.3379
G01 X13.4861 Y29.3518
G01 X13.4803 Y29.3653
G01 X13.4736 Y29.3783
G01 X13.4685 Y29.3867
G01 X13.4631 Y29.3949
G01 X13.4542 Y29.4066
G01 X13.4478 Y29.4140
G01 X13.4376 Y29.4245
G01 X13.4303 Y29.4311
G01 X13.4188 Y29.4402
G01 X13.4067 Y29.4485
G01 X13.3940 Y29.4559
G01 X13.3808 Y29.4624
G01 X13.3718 Y29.4661
G01 X13.3579 Y29.4709
G01 X13.3482 Y29.4736
G01 X13.3425 Y29.4867
G01 X13.3171 Y29.5399
G01 X13.2818 Y29.5988
G01 X13.2409 Y29.6539
G01 X13.1982 Y29.7013
G01 X11.9248 Y30.9748
G01 X11.8777 Y31.0178
G01 X11.8662 Y31.0269
G01 X11.8188 Y31.0618
G01 X11.7684 Y31.0923
G01 X11.7511 Y31.1015
G01 X11.7023 Y31.1246
G01 X11.6886 Y31.1300
G01 X11.6331 Y31.1496
G01 X11.5665 Y31.1663
G01 X11.4986 Y31.1764
G01 X11.4349 Y31.1797
G01 X4.8428 Y31.1798
G01 X4.7913 Y31.2363
G01 X4.7209 Y31.3003
G01 X4.7058 Y31.3128
G01 X4.6292 Y31.3693
G01 X4.5392 Y31.4232
G01 X4.4532 Y31.4641
G01 X4.4351 Y31.4716
G01 X4.3455 Y31.5034
G01 X4.2436 Y31.5289
G01 X4.1495 Y31.5432
G01 X4.1301 Y31.5451
G01 X4.0350 Y31.5495
G01 X3.5850 Y31.5495
G00 Z2.0000
G00 X4.6648 Y34.0893
G01 F80.00
G01 Z-0.1017
G01 F240.00
G01 X2.9650 Y34.0895
G01 X2.9258 Y34.0878
G01 X2.9112 Y34.0861
G01 X2.8821 Y34.0818
G01 X2.8725 Y34.0798
G01 X2.8440 Y34.0728
G01 X2.8252 Y34.0671
G01 X2.7975 Y34.0571
G01 X2.7840 Y34.0513
G01 X2.7531 Y34.0364
G01 X2.7153 Y34.0137
G01 X2.6798 Y33.9875
G01 X2.6472 Y33.9578
G01 X2.6175 Y33.9252
G01 X2.5913 Y33.8897
G01 X2.5686 Y33.8519
G01 X2.5497 Y33.8120
G01 X2.5349 Y33.7705
G01 X2.5241 Y33.7277
G01 X2.5177 Y33.6841
G01 X2.5155 Y33.6400
G01 X2.5155 Y32.4000
G01 X2.5172 Y32.3608
G01 X2.5189 Y32.3462
G01 X2.5232 Y32.3171
G01 X2.5252 Y32.3075
G01 X2.5322 Y32.2790
G01 X2.5379 Y32.2602
G01 X2.5479 Y32.2325
G01 X2.5537 Y32.2190
G01 X2.5686 Y32.1881
G01 X2.5913 Y32.1503
G01 X2.6175 Y32.1148
G01 X2.6472 Y32.0822
G01 X2.6798 Y32.0525
G01 X2.7153 Y32.0263
G01 X2.7531 Y32.0036
G01 X2.7840 Y31.9887
G01 X2.7975 Y31.9829
G01 X2.8252 Y31.9729
G01 X2.8440 Y31.9672
G01 X2.8725 Y31.9602
G01 X2.8821 Y31.9582
G01 X2.9112 Y31.9539
G01 X2.9258 Y31.9522
G01 X2.9650 Y31.9505
G01 X4.6550 Y31.9505
G01 X4.6991 Y31.9527
G01 X4.7427 Y31.9591
G01 X4.7760 Y31.9672
G01 X4.7948 Y31.9729
G01 X4.8225 Y31.9829
G01 X4.8360 Y31.9887
G01 X4.8669 Y32.0036
G01 X4.9047 Y32.0263
G01 X4.9402 Y32.0525
G01 X4.9658 Y32.0754
G01 X4.9796 Y32.0892
G01 X4.9993 Y32.1111
G01 X5.0085 Y32.1226
G01 X5.0287 Y32.1503
G01 X5.0514 Y32.1881
G01 X5.0703 Y32.2280
G01 X5.0821 Y32.2602
G01 X5.0878 Y32.2790
G01 X5.0948 Y32.3075
G01 X5.0973 Y32.3202
G01 X5.9700 Y32.3202
G01 X6.0337 Y32.3232
G01 X6.0483 Y32.3248
G01 X6.1065 Y32.3337
G01 X6.1637 Y32.3478
G01 X6.1778 Y32.3519
G01 X6.2286 Y32.3700
G01 X6.2423 Y32.3754
G01 X6.2999 Y32.4029
G01 X6.3361 Y32.4243
G01 X6.8205 Y31.9399
G01 X6.8207 Y31.6702
G01 X6.8227 Y31.6507
G01 X6.8253 Y31.6363
G01 X6.8291 Y31.6221
G01 X6.8339 Y31.6082
G01 X6.8376 Y31.5992
G01 X6.8441 Y31.5860
G01 X6.8515 Y31.5733
G01 X6.8598 Y31.5612
G01 X6.8689 Y31.5497
G01 X6.8789 Y31.5389
G01 X6.8860 Y31.5322
G01 X6.8973 Y31.5227
G01 X6.9051 Y31.5169
G01 X6.9174 Y31.5089
G01 X6.9303 Y31.5018
G01 X6.9437 Y31.4957
G01 X6.9574 Y31.4906
G01 X6.9715 Y31.4865
G01 X6.9859 Y31.4834
G01 X7.0004 Y31.4815
G01 X7.0200 Y31.4805
G01 X7.3600 Y31.4805
G01 X7.4169 Y31.4604
G01 X7.4835 Y31.4437
G01 X7.5514 Y31.4336
G01 X7.6200 Y31.4302
G01 X14.2126 Y31.4302
G01 X14.2209 Y31.4138
G01 X14.2386 Y31.3844
G01 X14.2469 Y31.3723
G01 X14.2675 Y31.3448
G01 X14.2972 Y31.3122
G01 X14.3261 Y31.2857
G01 X14.3376 Y31.2765
G01 X14.3653 Y31.2563
G01 X14.3946 Y31.2384
G01 X14.4075 Y31.2313
G01 X14.4385 Y31.2166
G01 X14.4521 Y31.2112
G01 X14.4845 Y31.1999
G01 X14.5225 Y31.1902
G01 X14.5370 Y31.1875
G01 X14.5709 Y31.1827
G01 X14.6150 Y31.1805
G01 X15.8650 Y31.1805
G01 X15.9091 Y31.1827
G01 X15.9430 Y31.1875
G01 X15.9622 Y31.1913
G01 X15.9908 Y31.1985
G01 X16.0048 Y31.2029
G01 X16.0370 Y31.2147
G01 X16.0769 Y31.2336
G01 X16.1147 Y31.2563
G01 X16.1502 Y31.2825
G01 X16.1828 Y31.3122
G01 X16.2061 Y31.3374
G01 X16.2155 Y31.3487
G01 X16.2331 Y31.3723
G01 X16.2440 Y31.3885
G01 X16.2614 Y31.4181
G01 X16.2803 Y31.4580
G01 X16.2951 Y31.4995
G01 X16.3048 Y31.5375
G01 X16.3075 Y31.5520
G01 X16.3123 Y31.5859
G01 X16.3145 Y31.6300
G01 X16.3145 Y32.4300
G01 X16.3128 Y32.4692
G01 X16.3111 Y32.4838
G01 X16.3059 Y32.5177
G01 X16.2965 Y32.5558
G01 X16.2937 Y32.5652
G01 X16.2838 Y32.5929
G01 X16.2763 Y32.6110
G01 X16.2614 Y32.6419
G01 X16.2414 Y32.6756
G01 X16.2331 Y32.6877
G01 X16.2155 Y32.7113
G01 X16.2093 Y32.7189
G01 X16.1828 Y32.7478
G01 X16.1576 Y32.7711
G01 X16.1463 Y32.7805
G01 X16.1147 Y32.8037
G01 X16.0812 Y32.8241
G01 X16.0681 Y32.8308
G01 X16.0370 Y32.8453
G01 X16.0002 Y32.8587
G01 X15.9908 Y32.8615
G01 X15.9622 Y32.8687
G01 X15.9430 Y32.8725
G01 X15.9091 Y32.8773
G01 X15.8650 Y32.8795
G01 X14.6101 Y32.8794
G01 X14.5807 Y32.8781
G01 X14.5661 Y32.8768
G01 X14.5321 Y32.8718
G01 X14.5178 Y32.8687
G01 X14.4845 Y32.8601
G01 X14.4521 Y32.8488
G01 X14.4385 Y32.8434
G01 X14.4096 Y32.8298
G01 X7.9098 Y32.8298
G01 X7.0498 Y33.6898
G01 X7.0498 Y36.0492
G01 X7.0850 Y36.0811
G01 X7.0955 Y36.0914
G01 X7.1581 Y36.1605
G01 X7.1673 Y36.1719
G01 X7.2199 Y36.2429
G01 X7.2279 Y36.2552
G01 X7.2756 Y36.3353
G01 X7.3156 Y36.4194
G01 X7.3214 Y36.4329
G01 X7.3512 Y36.5160
G01 X7.3569 Y36.5348
G01 X7.3793 Y36.6253
G01 X7.3932 Y36.7174
G01 X7.3952 Y36.7369
G01 X7.3995 Y36.8300
G01 X7.3952 Y36.9231
G01 X7.3939 Y36.9377
G01 X7.3793 Y37.0347
G01 X7.3557 Y37.1300
G01 X7.3512 Y37.1440
G01 X7.3231 Y37.2225
G01 X7.3183 Y37.2347
G01 X7.3153 Y37.2513
G01 X7.3010 Y37.3084
G01 X7.2965 Y37.3224
G01 X7.2800 Y37.3686
G01 X7.2746 Y37.3823
G01 X7.2515 Y37.4311
G01 X7.2423 Y37.4484
G01 X7.2171 Y37.4905
G01 X7.2091 Y37.5028
G01 X7.1769 Y37.5462
G01 X7.1645 Y37.5613
G01 X7.1248 Y37.6048
G01 X7.0739 Y37.6509
G01 X7.0188 Y37.6918
G01 X6.9684 Y37.7223
G01 X6.9555 Y37.7294
G01 X6.8978 Y37.7565
G01 X6.8378 Y37.7781
G01 X6.8237 Y37.7822
G01 X6.7761 Y37.7942
G01 X6.7665 Y37.7963
G01 X6.7547 Y37.7983
G01 X6.7425 Y37.8031
G01 X6.6547 Y37.8343
G01 X6.5595 Y37.8583
G01 X6.5451 Y37.8610
G01 X6.4529 Y37.8744
G01 X6.3500 Y37.8795
G01 X6.2471 Y37.8744
G01 X6.1453 Y37.8593
G01 X6.0453 Y37.8343
G01 X5.9484 Y37.7996
G01 X5.8553 Y37.7556
G01 X5.7669 Y37.7026
G01 X5.6842 Y37.6413
G01 X5.6079 Y37.5721
G01 X5.5387 Y37.4958
G01 X5.4774 Y37.4131
G01 X5.4244 Y37.3247
G01 X5.3804 Y37.2316
G01 X5.3457 Y37.1347
G01 X5.3217 Y37.0395
G01 X5.3190 Y37.0251
G01 X5.3068 Y36.9426
G01 X5.3048 Y36.9231
G01 X5.3005 Y36.8300
G01 X5.3048 Y36.7369
G01 X5.3068 Y36.7174
G01 X5.3207 Y36.6253
G01 X5.3431 Y36.5348
G01 X5.3472 Y36.5207
G01 X5.3804 Y36.4284
G01 X5.4200 Y36.3440
G01 X5.4293 Y36.3267
G01 X5.4747 Y36.2510
G01 X5.4830 Y36.2389
G01 X5.5327 Y36.1719
G01 X5.5419 Y36.1605
G01 X5.6045 Y36.0914
G01 X5.6150 Y36.0811
G01 X5.6502 Y36.0492
G01 X5.6502 Y33.7198
G01 X5.0973 Y33.7198
G01 X5.0948 Y33.7325
G01 X5.0878 Y33.7610
G01 X5.0821 Y33.7798
G01 X5.0721 Y33.8075
G01 X5.0684 Y33.8165
G01 X5.0558 Y33.8431
G01 X5.0491 Y33.8562
G01 X5.0287 Y33.8897
G01 X5.0025 Y33.9252
G01 X4.9728 Y33.9578
G01 X4.9439 Y33.9843
G01 X4.9324 Y33.9935
G01 X4.9088 Y34.0110
G01 X4.9006 Y34.0164
G01 X4.8754 Y34.0316
G01 X4.8581 Y34.0408
G01 X4.8315 Y34.0534
G01 X4.8225 Y34.0571
G01 X4.7855 Y34.0701
G01 X4.7427 Y34.0809
G01 X4.6991 Y34.0873
G01 X4.6648 Y34.0893
G00 Z2.0000
G00 X3.5850 Y41.7095
G01 F80.00
G01 Z-0.1017
G01 F240.00
G01 X3.4802 Y41.7043
G01 X3.3860 Y41.6906
G01 X3.3668 Y41.6868
G01 X3.2745 Y41.6634
G01 X3.1757 Y41.6281
G01 X3.0896 Y41.5876
G01 X3.0723 Y41.5784
G01 X2.9991 Y41.5345
G01 X2.9828 Y41.5236
G01 X2.9065 Y41.4667
G01 X2.8287 Y41.3963
G01 X2.7583 Y41.3185
G01 X2.7014 Y41.2422
G01 X2.6905 Y41.2259
G01 X2.6466 Y41.1527
G01 X2.6374 Y41.1354
G01 X2.5969 Y41.0493
G01 X2.5616 Y40.9505
G01 X2.5361 Y40.8486
G01 X2.5218 Y40.7545
G01 X2.5199 Y40.7351
G01 X2.5157 Y40.6498
G01 X2.5157 Y40.6302
G01 X2.5207 Y40.5352
G01 X2.5361 Y40.4314
G01 X2.5616 Y40.3295
G01 X2.5934 Y40.2399
G01 X2.6009 Y40.2218
G01 X2.6374 Y40.1446
G01 X2.6466 Y40.1273
G01 X2.6957 Y40.0458
G01 X2.7583 Y39.9615
G01 X2.8287 Y39.8837
G01 X2.8991 Y39.8197
G01 X2.9142 Y39.8072
G01 X2.9828 Y39.7564
G01 X2.9949 Y39.7481
G01 X3.0808 Y39.6968
G01 X3.1668 Y39.6559
G01 X3.1849 Y39.6484
G01 X3.2745 Y39.6166
G01 X3.3668 Y39.5932
G01 X3.3860 Y39.5894
G01 X3.4802 Y39.5757
G01 X3.5801 Y39.5706
G01 X4.0350 Y39.5705
G01 X4.1301 Y39.5749
G01 X4.1447 Y39.5762
G01 X4.2436 Y39.5911
G01 X4.3455 Y39.6166
G01 X4.4443 Y39.6519
G01 X4.5256 Y39.6901
G01 X7.2265 Y39.6901
G01 X7.9401 Y38.9765
G01 X7.9401 Y37.8527
G01 X7.9292 Y37.8459
G01 X7.9173 Y37.8373
G01 X7.9060 Y37.8278
G01 X7.8989 Y37.8211
G01 X7.8922 Y37.8140
G01 X7.8827 Y37.8027
G01 X7.8741 Y37.7908
G01 X7.8689 Y37.7826
G01 X7.8641 Y37.7740
G01 X7.8576 Y37.7608
G01 X7.8522 Y37.7472
G01 X7.8491 Y37.7379
G01 X7.8465 Y37.7285
G01 X7.8434 Y37.7141
G01 X7.8415 Y37.6996
G01 X7.8406 Y37.6849
G01 X7.8406 Y35.9751
G01 X7.8415 Y35.9604
G01 X7.8443 Y35.9411
G01 X7.8477 Y35.9268
G01 X7.8522 Y35.9128
G01 X7.8576 Y35.8992
G01 X7.8641 Y35.8860
G01 X7.8741 Y35.8692
G01 X7.8827 Y35.8573
G01 X7.8922 Y35.8460
G01 X7.9024 Y35.8355
G01 X7.9134 Y35.8258
G01 X7.9251 Y35.8169
G01 X7.9417 Y35.8064
G01 X7.9547 Y35.7997
G01 X7.9682 Y35.7939
G01 X7.9821 Y35.7891
G01 X7.9963 Y35.7853
G01 X8.0107 Y35.7827
G01 X8.0253 Y35.7810
G01 X8.0400 Y35.7805
G01 X9.7498 Y35.7807
G01 X9.7644 Y35.7820
G01 X9.7741 Y35.7834
G01 X9.7837 Y35.7853
G01 X9.7979 Y35.7891
G01 X9.8072 Y35.7922
G01 X9.8208 Y35.7976
G01 X9.8297 Y35.8018
G01 X9.8426 Y35.8089
G01 X9.8508 Y35.8141
G01 X9.8627 Y35.8227
G01 X9.8740 Y35.8322
G01 X9.8811 Y35.8389
G01 X9.8911 Y35.8497
G01 X9.8973 Y35.8573
G01 X9.9059 Y35.8692
G01 X9.9127 Y35.8801
G01 X12.2561 Y35.8801
G01 X12.2894 Y35.8644
G01 X12.3029 Y35.8586
G01 X12.3907 Y35.8272
G01 X12.4048 Y35.8231
G01 X12.4905 Y35.8017
G01 X12.5049 Y35.7990
G01 X12.5971 Y35.7856
G01 X12.6902 Y35.7807
G01 X12.7049 Y35.7806
G01 X12.8029 Y35.7856
G01 X12.8951 Y35.7990
G01 X12.9095 Y35.8017
G01 X12.9952 Y35.8231
G01 X13.0093 Y35.8272
G01 X13.0971 Y35.8586
G01 X13.1106 Y35.8644
G01 X13.1439 Y35.8801
G01 X14.7961 Y35.8801
G01 X14.8294 Y35.8644
G01 X14.8429 Y35.8586
G01 X14.9307 Y35.8272
G01 X14.9448 Y35.8231
G01 X15.0305 Y35.8017
G01 X15.0449 Y35.7990
G01 X15.1371 Y35.7856
G01 X15.2400 Y35.7805
G01 X15.3429 Y35.7856
G01 X15.4351 Y35.7990
G01 X15.4495 Y35.8017
G01 X15.5352 Y35.8231
G01 X15.5493 Y35.8272
G01 X15.6371 Y35.8586
G01 X15.6506 Y35.8644
G01 X15.6839 Y35.8801
G01 X17.3361 Y35.8801
G01 X17.3694 Y35.8644
G01 X17.3829 Y35.8586
G01 X17.4707 Y35.8272
G01 X17.4848 Y35.8231
G01 X17.5705 Y35.8017
G01 X17.5849 Y35.7990
G01 X17.6771 Y35.7856
G01 X17.7800 Y35.7805
G01 X17.8829 Y35.7856
G01 X17.9751 Y35.7990
G01 X17.9895 Y35.8017
G01 X18.0752 Y35.8231
G01 X18.0893 Y35.8272
G01 X18.1771 Y35.8586
G01 X18.1906 Y35.8644
G01 X18.2239 Y35.8801
G01 X19.8761 Y35.8801
G01 X19.9094 Y35.8644
G01 X19.9229 Y35.8586
G01 X20.0107 Y35.8272
G01 X20.0248 Y35.8231
G01 X20.1057 Y35.8028
G01 X20.1201 Y35.7998
G01 X20.2074 Y35.7868
G01 X20.2269 Y35.7848
G01 X20.3200 Y35.7805
G01 X20.4131 Y35.7848
G01 X20.4326 Y35.7868
G01 X20.5151 Y35.7990
G01 X20.5343 Y35.8028
G01 X20.6247 Y35.8257
G01 X20.7216 Y35.8604
G01 X20.8147 Y35.9044
G01 X20.8948 Y35.9521
G01 X20.9111 Y35.9630
G01 X20.9858 Y36.0187
G01 X21.0621 Y36.0879
G01 X21.1249 Y36.1568
G01 X21.1373 Y36.1719
G01 X21.1926 Y36.2469
G01 X21.2407 Y36.3267
G01 X21.2500 Y36.3440
G01 X21.2896 Y36.4284
G01 X21.3243 Y36.5253
G01 X21.3493 Y36.6253
G01 X21.3644 Y36.7271
G01 X21.3695 Y36.8300
G01 X21.3652 Y36.9231
G01 X21.3632 Y36.9426
G01 X21.3493 Y37.0347
G01 X21.3269 Y37.1252
G01 X21.3212 Y37.1440
G01 X21.2931 Y37.2225
G01 X21.2856 Y37.2406
G01 X21.2456 Y37.3247
G01 X21.1926 Y37.4131
G01 X21.1313 Y37.4958
G01 X21.0621 Y37.5721
G01 X20.9858 Y37.6413
G01 X20.9111 Y37.6970
G01 X20.8948 Y37.7079
G01 X20.8233 Y37.7507
G01 X20.8060 Y37.7600
G01 X20.7216 Y37.7996
G01 X20.6340 Y37.8312
G01 X20.6152 Y37.8369
G01 X20.5247 Y37.8593
G01 X20.4229 Y37.8744
G01 X20.3298 Y37.8793
G01 X20.3102 Y37.8793
G01 X20.2171 Y37.8744
G01 X20.1201 Y37.8602
G01 X20.1057 Y37.8572
G01 X20.0248 Y37.8369
G01 X20.0107 Y37.8328
G01 X19.9229 Y37.8014
G01 X19.9094 Y37.7956
G01 X19.8761 Y37.7799
G01 X18.2239 Y37.7799
G01 X18.1906 Y37.7956
G01 X18.1771 Y37.8014
G01 X18.0893 Y37.8328
G01 X18.0752 Y37.8369
G01 X17.9895 Y37.8583
G01 X17.9751 Y37.8610
G01 X17.8829 Y37.8744
G01 X17.7800 Y37.8795
G01 X17.6771 Y37.8744
G01 X17.5849 Y37.8610
G01 X17.5705 Y37.8583
G01 X17.4848 Y37.8369
G01 X17.4707 Y37.8328
G01 X17.3829 Y37.8014
G01 X17.3694 Y37.7956
G01 X17.3361 Y37.7799
G01 X15.6839 Y37.7799
G01 X15.6506 Y37.7956
G01 X15.6371 Y37.8014
G01 X15.5493 Y37.8328
G01 X15.5352 Y37.8369
G01 X15.4495 Y37.8583
G01 X15.4351 Y37.8610
G01 X15.3429 Y37.8744
G01 X15.2400 Y37.8795
G01 X15.1371 Y37.8744
G01 X15.0449 Y37.8610
G01 X15.0305 Y37.8583
G01 X14.9448 Y37.8369
G01 X14.9307 Y37.8328
G01 X14.8429 Y37.8014
G01 X14.8294 Y37.7956
G01 X14.7961 Y37.7799
G01 X13.1439 Y37.7799
G01 X13.1106 Y37.7956
G01 X13.0971 Y37.8014
G01 X13.0093 Y37.8328
G01 X12.9952 Y37.8369
G01 X12.9095 Y37.8583
G01 X12.8951 Y37.8610
G01 X12.8029 Y37.8744
G01 X12.7000 Y37.8795
G01 X12.5971 Y37.8744
G01 X12.5049 Y37.8610
G01 X12.4905 Y37.8583
G01 X12.4048 Y37.8369
G01 X12.3907 Y37.8328
G01 X12.3029 Y37.8014
G01 X12.2894 Y37.7956
G01 X12.2561 Y37.7799
G01 X9.9127 Y37.7799
G01 X9.9059 Y37.7908
G01 X9.8973 Y37.8027
G01 X9.8878 Y37.8140
G01 X9.8811 Y37.8211
G01 X9.8703 Y37.8311
G01 X9.8627 Y37.8373
G01 X9.8508 Y37.8459
G01 X9.8399 Y37.8527
G01 X9.8399 Y39.3700
G01 X9.8353 Y39.4631
G01 X9.8216 Y39.5553
G01 X9.7990 Y39.6457
G01 X9.7676 Y39.7335
G01 X9.7321 Y39.8090
G01 X9.7229 Y39.8263
G01 X9.6850 Y39.8894
G01 X9.6742 Y39.9057
G01 X9.6243 Y39.9726
G01 X9.5617 Y40.0417
G01 X8.2917 Y41.3117
G01 X8.2226 Y41.3743
G01 X8.1557 Y41.4242
G01 X8.1436 Y41.4325
G01 X8.0763 Y41.4729
G01 X8.0590 Y41.4821
G01 X7.9835 Y41.5176
G01 X7.9050 Y41.5459
G01 X7.8863 Y41.5516
G01 X7.8053 Y41.5716
G01 X7.7228 Y41.5841
G01 X7.7033 Y41.5860
G01 X7.6200 Y41.5899
G01 X4.5256 Y41.5899
G01 X4.4443 Y41.6281
G01 X4.3455 Y41.6634
G01 X4.2436 Y41.6889
G01 X4.1447 Y41.7038
G01 X4.1301 Y41.7051
G01 X4.0350 Y41.7095
G01 X3.5850 Y41.7095
G00 Z2.0000
G00 X1.1155 Y41.3830
G01 F80.00
G01 Z-0.1017
G01 F240.00
G01 X1.1153 Y38.8201
G01 X1.1186 Y38.7564
G01 X1.1287 Y38.6885
G01 X1.1454 Y38.6219
G01 X1.1650 Y38.5664
G01 X1.1725 Y38.5483
G01 X1.1979 Y38.4952
G01 X1.2332 Y38.4362
G01 X1.2741 Y38.3811
G01 X1.3168 Y38.3337
G01 X2.7631 Y36.8873
G01 X2.7607 Y36.8398
G01 X2.7606 Y36.8251
G01 X2.7651 Y36.7320
G01 X2.7668 Y36.7174
G01 X2.7798 Y36.6301
G01 X2.7828 Y36.6157
G01 X2.8057 Y36.5253
G01 X2.8386 Y36.4329
G01 X2.8444 Y36.4194
G01 X2.8844 Y36.3353
G01 X2.9374 Y36.2469
G01 X2.9987 Y36.1642
G01 X3.0611 Y36.0950
G01 X3.0750 Y36.0811
G01 X3.1442 Y36.0187
G01 X3.2189 Y35.9630
G01 X3.2352 Y35.9521
G01 X3.3067 Y35.9093
G01 X3.3240 Y35.9000
G01 X3.4084 Y35.8604
G01 X3.5053 Y35.8257
G01 X3.6053 Y35.8007
G01 X3.6974 Y35.7868
G01 X3.7169 Y35.7848
G01 X3.8100 Y35.7805
G01 X3.9129 Y35.7856
G01 X4.0147 Y35.8007
G01 X4.1052 Y35.8231
G01 X4.1240 Y35.8288
G01 X4.2116 Y35.8604
G01 X4.2960 Y35.9000
G01 X4.3133 Y35.9093
G01 X4.3848 Y35.9521
G01 X4.4011 Y35.9630
G01 X4.4758 Y36.0187
G01 X4.5450 Y36.0811
G01 X4.5589 Y36.0950
G01 X4.6213 Y36.1642
G01 X4.6770 Y36.2389
G01 X4.6879 Y36.2552
G01 X4.7307 Y36.3267
G01 X4.7400 Y36.3440
G01 X4.7796 Y36.4284
G01 X4.8143 Y36.5253
G01 X4.8372 Y36.6157
G01 X4.8410 Y36.6349
G01 X4.8544 Y36.7271
G01 X4.8593 Y36.8202
G01 X4.8593 Y36.8398
G01 X4.8544 Y36.9329
G01 X4.8410 Y37.0251
G01 X4.8383 Y37.0395
G01 X4.8143 Y37.1347
G01 X4.7831 Y37.2225
G01 X4.7756 Y37.2406
G01 X4.7400 Y37.3160
G01 X4.7307 Y37.3333
G01 X4.6826 Y37.4131
G01 X4.6213 Y37.4958
G01 X4.5521 Y37.5721
G01 X4.4832 Y37.6349
G01 X4.4681 Y37.6473
G01 X4.3931 Y37.7026
G01 X4.3047 Y37.7556
G01 X4.2116 Y37.7996
G01 X4.1193 Y37.8328
G01 X4.1052 Y37.8369
G01 X4.0147 Y37.8593
G01 X3.9177 Y37.8739
G01 X3.9031 Y37.8752
G01 X3.8149 Y37.8794
G01 X3.8002 Y37.8793
G01 X3.7527 Y37.8769
G01 X2.5147 Y39.1149
G01 X2.5147 Y41.0833
G01 X3.5437 Y42.1123
G01 X3.5850 Y42.1105
G01 X4.0350 Y42.1105
G01 X4.1301 Y42.1149
G01 X4.1447 Y42.1162
G01 X4.2436 Y42.1311
G01 X4.3455 Y42.1566
G01 X4.4443 Y42.1919
G01 X4.5256 Y42.2301
G01 X7.3736 Y42.2301
G01 X8.9054 Y40.6983
G01 X8.9707 Y40.6389
G01 X8.9821 Y40.6297
G01 X9.0413 Y40.5858
G01 X9.0576 Y40.5750
G01 X9.1292 Y40.5323
G01 X9.2135 Y40.4924
G01 X9.3013 Y40.4610
G01 X9.3822 Y40.4405
G01 X9.4014 Y40.4367
G01 X9.4839 Y40.4247
G01 X9.5770 Y40.4201
G01 X23.1536 Y40.4201
G01 X26.7754 Y36.7983
G01 X26.8370 Y36.7421
G01 X26.8483 Y36.7327
G01 X26.9113 Y36.6858
G01 X26.9276 Y36.6750
G01 X26.9993 Y36.6323
G01 X27.0746 Y36.5964
G01 X27.0927 Y36.5889
G01 X27.1713 Y36.5610
G01 X27.2617 Y36.5384
G01 X27.3539 Y36.5247
G01 X27.4421 Y36.5202
G01 X28.1766 Y36.5201
G01 X28.2601 Y36.4365
G01 X28.2601 Y36.1118
G01 X28.2427 Y36.0826
G01 X28.2381 Y36.0740
G01 X28.1961 Y35.9853
G01 X28.1907 Y35.9716
G01 X28.1593 Y35.8838
G01 X28.1552 Y35.8697
G01 X28.1316 Y35.7745
G01 X28.1170 Y35.6775
G01 X28.1151 Y35.6580
G01 X28.1107 Y35.5698
G01 X28.1107 Y35.5502
G01 X28.1158 Y35.4522
G01 X28.1300 Y35.3551
G01 X28.1338 Y35.3359
G01 X28.1578 Y35.2408
G01 X28.1924 Y35.1438
G01 X28.1982 Y35.1303
G01 X28.2403 Y35.0417
G01 X28.2906 Y34.9574
G01 X28.3014 Y34.9411
G01 X28.3601 Y34.8625
G01 X28.4258 Y34.7896
G01 X28.4396 Y34.7758
G01 X28.5125 Y34.7101
G01 X28.5911 Y34.6514
G01 X28.6074 Y34.6406
G01 X28.6917 Y34.5903
G01 X28.7803 Y34.5482
G01 X28.7984 Y34.5407
G01 X28.8908 Y34.5078
G01 X28.9955 Y34.4816
G01 X29.1022 Y34.4658
G01 X29.2002 Y34.4607
G01 X29.2198 Y34.4607
G01 X29.3178 Y34.4658
G01 X29.4245 Y34.4816
G01 X29.5197 Y34.5052
G01 X29.5385 Y34.5109
G01 X29.6216 Y34.5407
G01 X29.6397 Y34.5482
G01 X29.7283 Y34.5903
G01 X29.8208 Y34.6458
G01 X29.9075 Y34.7101
G01 X29.9804 Y34.7758
G01 X29.9942 Y34.7896
G01 X30.0535 Y34.8551
G01 X30.0659 Y34.8702
G01 X30.1242 Y34.9492
G01 X30.1773 Y35.0374
G01 X30.1841 Y35.0504
G01 X30.2258 Y35.1392
G01 X30.2591 Y35.2315
G01 X30.2648 Y35.2503
G01 X30.2884 Y35.3455
G01 X30.3030 Y35.4425
G01 X30.3049 Y35.4620
G01 X30.3095 Y35.5600
G01 X30.3049 Y35.6580
G01 X30.3030 Y35.6775
G01 X30.2884 Y35.7745
G01 X30.2635 Y35.8745
G01 X30.2591 Y35.8885
G01 X30.2293 Y35.9716
G01 X30.2239 Y35.9853
G01 X30.1819 Y36.0740
G01 X30.1773 Y36.0826
G01 X30.1599 Y36.1118
G01 X30.1599 Y36.5201
G01 X31.9653 Y36.5201
G01 X31.9709 Y36.5015
G01 X32.0042 Y36.4092
G01 X32.0459 Y36.3204
G01 X32.0552 Y36.3032
G01 X32.1006 Y36.2274
G01 X32.1114 Y36.2111
G01 X32.1701 Y36.1325
G01 X32.2425 Y36.0525
G01 X32.3225 Y35.9801
G01 X32.4011 Y35.9214
G01 X32.4174 Y35.9106
G01 X32.4932 Y35.8652
G01 X32.5104 Y35.8559
G01 X32.5992 Y35.8142
G01 X32.7008 Y35.7778
G01 X32.8055 Y35.7516
G01 X32.9025 Y35.7370
G01 X32.9220 Y35.7351
G01 X33.0102 Y35.7307
G01 X33.0298 Y35.7307
G01 X33.1278 Y35.7358
G01 X33.2345 Y35.7516
G01 X33.3392 Y35.7778
G01 X33.4408 Y35.8142
G01 X33.5383 Y35.8603
G01 X33.6308 Y35.9158
G01 X33.7175 Y35.9801
G01 X33.7904 Y36.0458
G01 X33.8042 Y36.0596
G01 X33.8699 Y36.1325
G01 X33.9286 Y36.2111
G01 X33.9394 Y36.2274
G01 X33.9848 Y36.3032
G01 X33.9941 Y36.3204
G01 X34.0358 Y36.4092
G01 X34.0722 Y36.5108
G01 X34.0984 Y36.6155
G01 X34.1130 Y36.7125
G01 X34.1149 Y36.7320
G01 X34.1195 Y36.8300
G01 X34.1142 Y36.9378
G01 X34.0984 Y37.0445
G01 X34.0722 Y37.1492
G01 X34.0358 Y37.2508
G01 X33.9897 Y37.3483
G01 X33.9342 Y37.4408
G01 X33.8759 Y37.5198
G01 X33.8668 Y37.5313
G01 X33.7975 Y37.6075
G01 X33.7249 Y37.6735
G01 X33.7098 Y37.6859
G01 X33.6389 Y37.7386
G01 X33.6267 Y37.7469
G01 X33.5383 Y37.7997
G01 X33.4453 Y37.8439
G01 X33.4316 Y37.8493
G01 X33.3438 Y37.8807
G01 X33.3345 Y37.8835
G01 X33.3015 Y37.8918
G01 X33.0482 Y38.1451
G01 X32.9826 Y38.2043
G01 X32.9118 Y38.2570
G01 X32.8995 Y38.2650
G01 X32.8363 Y38.3029
G01 X32.8190 Y38.3121
G01 X32.7435 Y38.3476
G01 X32.6650 Y38.3759
G01 X32.6510 Y38.3803
G01 X32.5653 Y38.4016
G01 X32.4828 Y38.4141
G01 X32.4633 Y38.4160
G01 X32.3800 Y38.4199
G01 X27.8405 Y38.4199
G01 X24.2152 Y42.0451
G01 X24.1496 Y42.1043
G01 X24.0827 Y42.1542
G01 X24.0665 Y42.1650
G01 X24.0033 Y42.2029
G01 X23.9860 Y42.2121
G01 X23.9105 Y42.2476
G01 X23.8228 Y42.2790
G01 X23.7323 Y42.3016
G01 X23.6498 Y42.3141
G01 X23.6304 Y42.3160
G01 X23.5470 Y42.3199
G01 X9.9705 Y42.3199
G01 X8.4316 Y43.8584
G01 X8.3770 Y43.9079
G01 X8.3619 Y43.9203
G01 X8.2947 Y43.9698
G01 X8.2233 Y44.0129
G01 X8.2060 Y44.0221
G01 X8.1305 Y44.0576
G01 X8.0428 Y44.0890
G01 X7.9523 Y44.1116
G01 X7.8698 Y44.1241
G01 X7.8504 Y44.1260
G01 X7.7670 Y44.1299
G01 X4.5256 Y44.1299
G01 X4.4443 Y44.1681
G01 X4.3455 Y44.2034
G01 X4.2436 Y44.2289
G01 X4.1447 Y44.2438
G01 X4.1301 Y44.2451
G01 X4.0350 Y44.2495
G01 X3.5752 Y44.2493
G01 X3.4802 Y44.2443
G01 X3.3860 Y44.2306
G01 X3.3668 Y44.2268
G01 X3.2745 Y44.2034
G01 X3.1849 Y44.1716
G01 X3.1668 Y44.1641
G01 X3.0896 Y44.1276
G01 X3.0723 Y44.1184
G01 X2.9908 Y44.0693
G01 X2.9065 Y44.0067
G01 X2.8287 Y43.9363
G01 X2.7614 Y43.8622
G01 X2.7522 Y43.8508
G01 X2.6957 Y43.7742
G01 X2.6418 Y43.6842
G01 X2.5969 Y43.5893
G01 X2.5616 Y43.4905
G01 X2.5361 Y43.3886
G01 X2.5207 Y43.2848
G01 X2.5155 Y43.1800
G01 X2.5199 Y43.0849
G01 X2.5214 Y43.0691
G01 X1.3202 Y41.8680
G01 X1.2741 Y41.8171
G01 X1.2332 Y41.7619
G01 X1.2027 Y41.7115
G01 X1.1935 Y41.6943
G01 X1.1704 Y41.6454
G01 X1.1650 Y41.6318
G01 X1.1454 Y41.5763
G01 X1.1287 Y41.5097
G01 X1.1186 Y41.4417
G01 X1.1155 Y41.3830
G00 Z2.0000
G00 X3.5850 Y46.7895
G01 F80.00
G01 Z-0.1017
G01 F240.00
G01 X3.4802 Y46.7843
G01 X3.3764 Y46.7689
G01 X3.2745 Y46.7434
G01 X3.1757 Y46.7081
G01 X3.0808 Y46.6632
G01 X2.9908 Y46.6093
G01 X2.9065 Y46.5467
G01 X2.8358 Y46.4830
G01 X2.8220 Y46.4692
G01 X2.7583 Y46.3985
G01 X2.6957 Y46.3142
G01 X2.6418 Y46.2242
G01 X2.6009 Y46.1382
G01 X2.5934 Y46.1201
G01 X2.5616 Y46.0305
G01 X2.5382 Y45.9382
G01 X2.5344 Y45.9190
G01 X2.5218 Y45.8345
G01 X2.5199 Y45.8151
G01 X2.5155 Y45.7200
G01 X2.5207 Y45.6152
G01 X2.5361 Y45.5114
G01 X2.5616 Y45.4095
G01 X2.5969 Y45.3107
G01 X2.6418 Y45.2158
G01 X2.6957 Y45.1258
G01 X2.7583 Y45.0415
G01 X2.8287 Y44.9637
G01 X2.9065 Y44.8933
G01 X2.9908 Y44.8307
G01 X3.0808 Y44.7768
G01 X3.1757 Y44.7319
G01 X3.2745 Y44.6966
G01 X3.3764 Y44.6711
G01 X3.4753 Y44.6562
G01 X3.4899 Y44.6549
G01 X3.5850 Y44.6505
G01 X4.0350 Y44.6505
G01 X4.1398 Y44.6557
G01 X4.2436 Y44.6711
G01 X4.3455 Y44.6966
G01 X4.4443 Y44.7319
G01 X4.5256 Y44.7701
G01 X9.7161 Y44.7701
G01 X9.7494 Y44.7544
G01 X9.7629 Y44.7486
G01 X9.8507 Y44.7172
G01 X9.8648 Y44.7131
G01 X9.9505 Y44.6917
G01 X9.9649 Y44.6890
G01 X10.0571 Y44.6756
G01 X10.1600 Y44.6705
G01 X10.2629 Y44.6756
G01 X10.3551 Y44.6890
G01 X10.3695 Y44.6917
G01 X10.4552 Y44.7131
G01 X10.4693 Y44.7172
G01 X10.5571 Y44.7486
G01 X10.5706 Y44.7544
G01 X10.6039 Y44.7701
G01 X12.2561 Y44.7701
G01 X12.2894 Y44.7544
G01 X12.3029 Y44.7486
G01 X12.3907 Y44.7172
G01 X12.4048 Y44.7131
G01 X12.4905 Y44.6917
G01 X12.5049 Y44.6890
G01 X12.5971 Y44.6756
G01 X12.7000 Y44.6705
G01 X12.8029 Y44.6756
G01 X12.8951 Y44.6890
G01 X12.9095 Y44.6917
G01 X12.9952 Y44.7131
G01 X13.0093 Y44.7172
G01 X13.0971 Y44.7486
G01 X13.1106 Y44.7544
G01 X13.1439 Y44.7701
G01 X14.7961 Y44.7701
G01 X14.8294 Y44.7544
G01 X14.8429 Y44.7486
G01 X14.9307 Y44.7172
G01 X14.9448 Y44.7131
G01 X15.0305 Y44.6917
G01 X15.0449 Y44.6890
G01 X15.1371 Y44.6756
G01 X15.2400 Y44.6705
G01 X15.3429 Y44.6756
G01 X15.4351 Y44.6890
G01 X15.4495 Y44.6917
G01 X15.5352 Y44.7131
G01 X15.5493 Y44.7172
G01 X15.6371 Y44.7486
G01 X15.6506 Y44.7544
G01 X15.6839 Y44.7701
G01 X17.3361 Y44.7701
G01 X17.3694 Y44.7544
G01 X17.3829 Y44.7486
G01 X17.4707 Y44.7172
G01 X17.4848 Y44.7131
G01 X17.5705 Y44.6917
G01 X17.5849 Y44.6890
G01 X17.6771 Y44.6756
G01 X17.7800 Y44.6705
G01 X17.8829 Y44.6756
G01 X17.9751 Y44.6890
G01 X17.9895 Y44.6917
G01 X18.0752 Y44.7131
G01 X18.0893 Y44.7172
G01 X18.1771 Y44.7486
G01 X18.1906 Y44.7544
G01 X18.2239 Y44.7701
G01 X19.7682 Y44.7701
G01 X19.7974 Y44.7527
G01 X19.8060 Y44.7481
G01 X19.8947 Y44.7061
G01 X19.9084 Y44.7007
G01 X19.9915 Y44.6709
G01 X20.0055 Y44.6665
G01 X20.1055 Y44.6416
G01 X20.2025 Y44.6270
G01 X20.2220 Y44.6251
G01 X20.3200 Y44.6205
G01 X20.4180 Y44.6251
G01 X20.4375 Y44.6270
G01 X20.5345 Y44.6416
G01 X20.6345 Y44.6665
G01 X20.6485 Y44.6709
G01 X20.7316 Y44.7007
G01 X20.7453 Y44.7061
G01 X20.8340 Y44.7481
G01 X20.8426 Y44.7527
G01 X20.8718 Y44.7701
G01 X21.4906 Y44.7701
G01 X27.5624 Y38.6983
G01 X27.6314 Y38.6357
G01 X27.7063 Y38.5802
G01 X27.7863 Y38.5323
G01 X27.8660 Y38.4944
G01 X27.8797 Y38.4889
G01 X27.9583 Y38.4610
G01 X28.0487 Y38.4384
G01 X28.1409 Y38.4247
G01 X28.2340 Y38.4201
G01 X35.6606 Y38.4201
G01 X37.5058 Y36.5749
G01 X37.5714 Y36.5157
G01 X37.6463 Y36.4602
G01 X37.7262 Y36.4123
G01 X37.8105 Y36.3724
G01 X37.8983 Y36.3410
G01 X37.9887 Y36.3184
G01 X38.0809 Y36.3047
G01 X38.1691 Y36.3002
G01 X40.7647 Y36.3001
G01 X40.7625 Y36.2880
G01 X40.7577 Y36.2541
G01 X40.7555 Y36.2100
G01 X40.7555 Y34.9100
G01 X40.7577 Y34.8659
G01 X40.7632 Y34.8271
G01 X40.7663 Y34.8128
G01 X40.7749 Y34.7795
G01 X40.7897 Y34.7380
G01 X40.8086 Y34.6981
G01 X40.8286 Y34.6644
G01 X40.8369 Y34.6523
G01 X40.8545 Y34.6287
G01 X40.8607 Y34.6211
G01 X40.8804 Y34.5992
G01 X40.8942 Y34.5854
G01 X40.9161 Y34.5657
G01 X40.9237 Y34.5595
G01 X40.9553 Y34.5363
G01 X40.9931 Y34.5136
G01 X41.0330 Y34.4947
G01 X41.0652 Y34.4829
G01 X41.0840 Y34.4772
G01 X41.1125 Y34.4702
G01 X41.1270 Y34.4675
G01 X41.1561 Y34.4632
G01 X41.1658 Y34.4622
G01 X41.1952 Y34.4607
G01 X41.2102 Y34.4605
G01 X41.2102 Y32.5308
G01 X41.1750 Y32.4989
G01 X41.1645 Y32.4886
G01 X41.1051 Y32.4232
