(G-CODE GENERATED BY FLATCAM v8.994 - www.flatcam.org - Version Date: 2020/11/7)

(Name: zvire-vetrnik-control.drl_cnc)
(Type: G-code from Geometry)
(Units: MM)

(Created on Sobota, 04 února 2023 at 20:04)

(This preprocessor is the default preprocessor used by FlatCAM.)
(It is made to work with MACH3 compatible motion controllers.)


(TOOLS DIAMETER: )
(Tool: 1 -> Dia: 0.762)
(Tool: 2 -> Dia: 0.8)
(Tool: 3 -> Dia: 0.9)
(Tool: 4 -> Dia: 1.0)
(Tool: 5 -> Dia: 1.1)
(Tool: 6 -> Dia: 1.19)
(Tool: 7 -> Dia: 1.3)
(Tool: 8 -> Dia: 3.2)

(FEEDRATE Z: )
(Tool: 1 -> Feedrate: 120.0)
(Tool: 2 -> Feedrate: 120.0)
(Tool: 3 -> Feedrate: 120.0)
(Tool: 4 -> Feedrate: 120.0)
(Tool: 5 -> Feedrate: 120.0)
(Tool: 6 -> Feedrate: 120.0)
(Tool: 7 -> Feedrate: 120.0)
(Tool: 8 -> Feedrate: 120.0)

(FEEDRATE RAPIDS: )
(Tool: 1 -> Feedrate Rapids: 1500)
(Tool: 2 -> Feedrate Rapids: 1500)
(Tool: 3 -> Feedrate Rapids: 1500)
(Tool: 4 -> Feedrate Rapids: 1500)
(Tool: 5 -> Feedrate Rapids: 1500)
(Tool: 6 -> Feedrate Rapids: 1500)
(Tool: 7 -> Feedrate Rapids: 1500)
(Tool: 8 -> Feedrate Rapids: 1500)

(Z_CUT: )
(Tool: 1 -> Z_Cut: -1.65)
(Tool: 2 -> Z_Cut: -1.65)
(Tool: 3 -> Z_Cut: -1.65)
(Tool: 4 -> Z_Cut: -1.65)
(Tool: 5 -> Z_Cut: -1.65)
(Tool: 6 -> Z_Cut: -1.65)
(Tool: 7 -> Z_Cut: -1.65)
(Tool: 8 -> Z_Cut: -1.65)

(Tools Offset: )
(Tool: 1 -> Offset Z: 0.0)
(Tool: 2 -> Offset Z: 0.0)
(Tool: 3 -> Offset Z: 0.0)

(Z_MOVE: )
(Tool: 1 -> Z_Move: 2)
(Tool: 2 -> Z_Move: 2)
(Tool: 3 -> Z_Move: 2)
(Tool: 4 -> Z_Move: 2)
(Tool: 5 -> Z_Move: 2)
(Tool: 6 -> Z_Move: 2)
(Tool: 7 -> Z_Move: 2)
(Tool: 8 -> Z_Move: 2)

(Z Toolchange: 5.0 mm)
(X,Y Toolchange: 0.0000, 0.0000 mm)
(Z Start: None mm)
(Z End: 0.5 mm)
(X,Y End: None mm)
(Steps per circle: 64)
(Preprocessor Excellon: default)

(X range:    2.2100 ...   97.0200  mm)
(Y range:    2.1590 ...   74.2100  mm)

(Spindle Speed: 10000 RPM)
G21
G90
G94

G01 F120.00

M5
G00 Z5.0000
T1
G00 X0.0000 Y0.0000                
M6
(MSG, Change to Tool Dia = 0.7620 ||| Total drills for tool T1 = 66)
M0
G00 Z5.0000

G01 F120.00
M03 S10000
G4 P1
G00 X80.0100 Y2.5400
G01 Z-1.6500
G01 Z0
G00 Z2.0000
G00 X82.5500 Y2.5400
G01 Z-1.6500
G01 Z0
G00 Z2.0000
G00 X85.0900 Y2.5400
G01 Z-1.6500
G01 Z0
G00 Z2.0000
G00 X87.6300 Y2.5400
G01 Z-1.6500
G01 Z0
G00 Z2.0000
G00 X90.1700 Y2.5400
G01 Z-1.6500
G01 Z0
G00 Z2.0000
G00 X92.7100 Y2.5400
G01 Z-1.6500
G01 Z0
G00 Z2.0000
G00 X87.6300 Y17.7800
G01 Z-1.6500
G01 Z0
G00 Z2.0000
G00 X95.2500 Y20.3200
G01 Z-1.6500
G01 Z0
G00 Z2.0000
G00 X92.7100 Y22.8600
G01 Z-1.6500
G01 Z0
G00 Z2.0000
G00 X90.1700 Y22.8600
G01 Z-1.6500
G01 Z0
G00 Z2.0000
G00 X87.6300 Y22.8600
G01 Z-1.6500
G01 Z0
G00 Z2.0000
G00 X85.0900 Y22.8600
G01 Z-1.6500
G01 Z0
G00 Z2.0000
G00 X82.5500 Y22.8600
G01 Z-1.6500
G01 Z0
G00 Z2.0000
G00 X80.0100 Y22.8600
G01 Z-1.6500
G01 Z0
G00 Z2.0000
G00 X82.5500 Y34.2900
G01 Z-1.6500
G01 Z0
G00 Z2.0000
G00 X71.1200 Y25.4000
G01 Z-1.6500
G01 Z0
G00 Z2.0000
G00 X71.1200 Y22.8600
G01 Z-1.6500
G01 Z0
G00 Z2.0000
G00 X71.1200 Y20.3200
G01 Z-1.6500
G01 Z0
G00 Z2.0000
G00 X71.1200 Y17.7800
G01 Z-1.6500
G01 Z0
G00 Z2.0000
G00 X59.6900 Y25.4000
G01 Z-1.6500
G01 Z0
G00 Z2.0000
G00 X44.4500 Y29.2100
G01 Z-1.6500
G01 Z0
G00 Z2.0000
G00 X41.9100 Y29.2100
G01 Z-1.6500
G01 Z0
G00 Z2.0000
G00 X38.1000 Y34.2900
G01 Z-1.6500
G01 Z0
G00 Z2.0000
G00 X39.3700 Y39.3700
G01 Z-1.6500
G01 Z0
G00 Z2.0000
G00 X59.6900 Y40.2100
G01 Z-1.6500
G01 Z0
G00 Z2.0000
G00 X59.6900 Y50.8000
G01 Z-1.6500
G01 Z0
G00 Z2.0000
G00 X67.3070 Y62.2270
G01 Z-1.6500
G01 Z0
G00 Z2.0000
G00 X71.1200 Y64.7700
G01 Z-1.6500
G01 Z0
G00 Z2.0000
G00 X73.6600 Y64.7700
G01 Z-1.6500
G01 Z0
G00 Z2.0000
G00 X76.2000 Y64.7700
G01 Z-1.6500
G01 Z0
G00 Z2.0000
G00 X80.0100 Y62.2300
G01 Z-1.6500
G01 Z0
G00 Z2.0000
G00 X78.7400 Y64.7700
G01 Z-1.6500
G01 Z0
G00 Z2.0000
G00 X78.7400 Y72.3900
G01 Z-1.6500
G01 Z0
G00 Z2.0000
G00 X76.2000 Y72.3900
G01 Z-1.6500
G01 Z0
G00 Z2.0000
G00 X73.6600 Y72.3900
G01 Z-1.6500
G01 Z0
G00 Z2.0000
G00 X71.1200 Y72.3900
G01 Z-1.6500
G01 Z0
G00 Z2.0000
G00 X68.5800 Y72.3900
G01 Z-1.6500
G01 Z0
G00 Z2.0000
G00 X67.3100 Y67.3100
G01 Z-1.6500
G01 Z0
G00 Z2.0000
G00 X53.3400 Y70.8820
G01 Z-1.6500
G01 Z0
G00 Z2.0000
G00 X41.9130 Y67.3070
G01 Z-1.6500
G01 Z0
G00 Z2.0000
G00 X39.3700 Y64.7700
G01 Z-1.6500
G01 Z0
G00 Z2.0000
G00 X35.5600 Y58.4200
G01 Z-1.6500
G01 Z0
G00 Z2.0000
G00 X27.9400 Y54.6500
G01 Z-1.6500
G01 Z0
G00 Z2.0000
G00 X27.9400 Y57.1500
G01 Z-1.6500
G01 Z0
G00 Z2.0000
G00 X21.5900 Y60.9600
G01 Z-1.6500
G01 Z0
G00 Z2.0000
G00 X22.8600 Y54.6100
G01 Z-1.6500
G01 Z0
G00 Z2.0000
G00 X20.3200 Y54.6100
G01 Z-1.6500
G01 Z0
G00 Z2.0000
G00 X22.8600 Y48.2600
G01 Z-1.6500
G01 Z0
G00 Z2.0000
G00 X20.3200 Y45.7200
G01 Z-1.6500
G01 Z0
G00 Z2.0000
G00 X33.0200 Y43.1800
G01 Z-1.6500
G01 Z0
G00 Z2.0000
G00 X35.5600 Y44.4500
G01 Z-1.6500
G01 Z0
G00 Z2.0000
G00 X35.5600 Y36.8300
G01 Z-1.6500
G01 Z0
G00 Z2.0000
G00 X33.0200 Y36.8300
G01 Z-1.6500
G01 Z0
G00 Z2.0000
G00 X29.2100 Y35.5600
G01 Z-1.6500
G01 Z0
G00 Z2.0000
G00 X12.7000 Y25.4000
G01 Z-1.6500
G01 Z0
G00 Z2.0000
G00 X15.2400 Y25.4000
G01 Z-1.6500
G01 Z0
G00 Z2.0000
G00 X29.2100 Y6.3500
G01 Z-1.6500
G01 Z0
G00 Z2.0000
G00 X46.9900 Y6.3500
G01 Z-1.6500
G01 Z0
G00 Z2.0000
G00 X46.9900 Y8.8500
G01 Z-1.6500
G01 Z0
G00 Z2.0000
G00 X46.9900 Y13.9700
G01 Z-1.6500
G01 Z0
G00 Z2.0000
G00 X44.4500 Y15.2400
G01 Z-1.6500
G01 Z0
G00 Z2.0000
G00 X41.9100 Y20.3200
G01 Z-1.6500
G01 Z0
G00 Z2.0000
G00 X44.4500 Y21.5900
G01 Z-1.6500
G01 Z0
G00 Z2.0000
G00 X44.4500 Y23.9910
G01 Z-1.6500
G01 Z0
G00 Z2.0000
G00 X46.9900 Y23.9910
G01 Z-1.6500
G01 Z0
G00 Z2.0000
G00 X59.6900 Y15.2400
G01 Z-1.6500
G01 Z0
G00 Z2.0000
M05
G00 Z0.50


