(G-CODE GENERATED BY FLATCAM v8.994 - www.flatcam.org - Version Date: 2020/11/7)

(Name: zvire-vetrnik-power-supply-B_Cu.gbr_iso_combined_cnc)
(Type: G-code from Geometry)
(Units: MM)

(Created on Sobota, 04 února 2023 at 20:13)

(This preprocessor is the default preprocessor used by FlatCAM.)
(It is made to work with MACH3 compatible motion controllers.)

(TOOL DIAMETER: 0.399 mm)
(Feedrate_XY: 240.0 mm/min)
(Feedrate_Z: 80.0 mm/min)
(Feedrate rapids 1500.0 mm/min)

(Z_Cut: -0.1017 mm)
(Z_Move: 2.0 mm)
(Z Start: None mm)
(Z End: 5.0 mm)
(X,Y End: None mm)
(Steps per circle: 64)
(Preprocessor Geometry: default)

(X range:    2.3559 ...   79.5545  mm)
(Y range:    1.9159 ...   21.0870  mm)

(Spindle Speed: 10000.0 RPM)
G21
G90
G94

G01 F240.00

M5
G00 Z15.0000
G00 X0.0000 Y0.0000
T2
M6    
(MSG, Change to Tool Dia = 0.3990)
M0
G00 Z15.0000

M03 S10000.0
G4 P1.0
G01 F240.00
G00 X8.5865 Y6.2094
G01 F80.00
G01 Z-0.1017
G01 F240.00
G01 X8.5917 Y6.1743
G01 X8.5944 Y6.1599
G01 X8.6147 Y6.0790
G01 X8.6191 Y6.0650
G01 X8.6439 Y5.9956
G01 X8.6494 Y5.9820
G01 X8.6873 Y5.9022
G01 X8.7300 Y5.8306
G01 X8.7408 Y5.8143
G01 X8.7847 Y5.7551
G01 X8.7939 Y5.7437
G01 X8.8533 Y5.6783
G01 X9.4918 Y5.0399
G01 X9.5500 Y4.9871
G01 X9.5651 Y4.9747
G01 X9.6323 Y4.9252
G01 X9.7079 Y4.8796
G01 X9.7210 Y4.8729
G01 X9.7965 Y4.8374
G01 X9.8843 Y4.8060
G01 X9.9747 Y4.7834
G01 X10.0572 Y4.7709
G01 X10.0718 Y4.7693
G01 X10.1600 Y4.7651
G01 X11.1151 Y4.7651
G01 X11.1151 Y3.6189
G01 X11.0994 Y3.5856
G01 X11.0936 Y3.5721
G01 X11.0638 Y3.4890
G01 X11.0593 Y3.4750
G01 X11.0357 Y3.3797
G01 X11.0211 Y3.2827
G01 X11.0198 Y3.2681
G01 X11.0157 Y3.1848
G01 X11.0157 Y3.1652
G01 X11.0206 Y3.0721
G01 X11.0348 Y2.9751
G01 X11.0378 Y2.9607
G01 X11.0607 Y2.8703
G01 X11.0954 Y2.7734
G01 X11.1394 Y2.6803
G01 X11.1871 Y2.6002
G01 X11.1980 Y2.5839
G01 X11.2477 Y2.5169
G01 X11.2601 Y2.5018
G01 X11.3229 Y2.4329
G01 X11.3918 Y2.3701
G01 X11.4069 Y2.3577
G01 X11.4819 Y2.3024
G01 X11.5660 Y2.2518
G01 X11.5790 Y2.2450
G01 X11.6634 Y2.2054
G01 X11.7510 Y2.1738
G01 X11.7698 Y2.1681
G01 X11.8603 Y2.1457
G01 X11.9524 Y2.1318
G01 X11.9719 Y2.1298
G01 X12.0650 Y2.1255
G01 X12.1679 Y2.1306
G01 X12.2601 Y2.1440
G01 X12.2745 Y2.1467
G01 X12.3602 Y2.1681
G01 X12.3743 Y2.1722
G01 X12.4621 Y2.2036
G01 X12.4756 Y2.2094
G01 X12.5089 Y2.2251
G01 X14.0532 Y2.2251
G01 X14.0824 Y2.2077
G01 X14.0910 Y2.2031
G01 X14.1797 Y2.1611
G01 X14.1934 Y2.1557
G01 X14.2765 Y2.1259
G01 X14.2905 Y2.1215
G01 X14.3905 Y2.0966
G01 X14.4875 Y2.0820
G01 X14.5070 Y2.0801
G01 X14.5952 Y2.0757
G01 X14.6099 Y2.0756
G01 X14.7128 Y2.0808
G01 X14.8195 Y2.0966
G01 X14.9242 Y2.1228
G01 X15.0166 Y2.1557
G01 X15.0347 Y2.1632
G01 X15.1146 Y2.2009
G01 X15.1318 Y2.2102
G01 X15.2158 Y2.2608
G01 X15.3025 Y2.3251
G01 X15.3825 Y2.3975
G01 X15.4485 Y2.4701
G01 X15.4609 Y2.4852
G01 X15.5136 Y2.5561
G01 X15.5244 Y2.5724
G01 X15.5747 Y2.6567
G01 X15.6168 Y2.7453
G01 X15.6243 Y2.7634
G01 X15.6572 Y2.8558
G01 X15.6834 Y2.9605
G01 X15.6992 Y3.0672
G01 X15.7045 Y3.1750
G01 X15.6992 Y3.2828
G01 X15.6850 Y3.3799
G01 X15.6812 Y3.3991
G01 X15.6572 Y3.4942
G01 X15.6243 Y3.5866
G01 X15.6168 Y3.6047
G01 X15.5791 Y3.6846
G01 X15.5698 Y3.7018
G01 X15.5192 Y3.7858
G01 X15.4549 Y3.8725
G01 X15.3825 Y3.9525
G01 X15.3099 Y4.0185
G01 X15.2987 Y4.0280
G01 X15.2158 Y4.0892
G01 X15.1318 Y4.1398
G01 X15.1146 Y4.1491
G01 X15.0347 Y4.1868
G01 X15.0166 Y4.1943
G01 X14.9242 Y4.2272
G01 X14.8195 Y4.2534
G01 X14.7128 Y4.2692
G01 X14.6148 Y4.2743
G01 X14.5952 Y4.2743
G01 X14.5070 Y4.2699
G01 X14.4875 Y4.2680
G01 X14.3905 Y4.2534
G01 X14.2905 Y4.2285
G01 X14.2765 Y4.2241
G01 X14.1934 Y4.1943
G01 X14.1797 Y4.1889
G01 X14.0910 Y4.1469
G01 X14.0824 Y4.1423
G01 X14.0532 Y4.1249
G01 X13.0149 Y4.1249
G01 X13.0149 Y13.0201
G01 X19.0549 Y13.0202
G01 X19.1333 Y13.0240
G01 X19.1528 Y13.0259
G01 X19.2353 Y13.0384
G01 X19.3163 Y13.0584
G01 X19.3350 Y13.0641
G01 X19.4135 Y13.0924
G01 X19.4978 Y13.1323
G01 X19.5777 Y13.1802
G01 X19.6449 Y13.2297
G01 X19.6600 Y13.2421
G01 X19.7217 Y13.2983
G01 X23.1038 Y16.6805
G01 X23.4975 Y16.6805
G01 X23.5122 Y16.6810
G01 X23.5268 Y16.6827
G01 X23.5460 Y16.6865
G01 X23.5647 Y16.6922
G01 X23.5828 Y16.6997
G01 X23.6001 Y16.7089
G01 X23.6163 Y16.7198
G01 X23.6315 Y16.7322
G01 X23.6453 Y16.7460
G01 X23.6577 Y16.7612
G01 X23.6634 Y16.7692
G01 X23.6711 Y16.7817
G01 X23.6778 Y16.7947
G01 X23.6836 Y16.8082
G01 X23.6884 Y16.8221
G01 X23.6922 Y16.8363
G01 X23.6948 Y16.8507
G01 X23.6965 Y16.8653
G01 X23.6970 Y16.8800
G01 X23.6970 Y17.4778
G01 X23.7031 Y17.5024
G01 X23.7050 Y17.5120
G01 X23.7166 Y17.5897
G01 X23.7182 Y17.6043
G01 X23.7223 Y17.6876
G01 X23.7224 Y17.7800
G01 X23.7185 Y17.8633
G01 X23.7173 Y17.8780
G01 X23.7050 Y17.9605
G01 X23.7031 Y17.9701
G01 X23.6970 Y17.9947
G01 X23.6970 Y18.6800
G01 X23.6965 Y18.6947
G01 X23.6948 Y18.7093
G01 X23.6922 Y18.7237
G01 X23.6884 Y18.7379
G01 X23.6836 Y18.7518
G01 X23.6778 Y18.7653
G01 X23.6686 Y18.7826
G01 X23.6606 Y18.7949
G01 X23.6517 Y18.8066
G01 X23.6453 Y18.8140
G01 X23.6351 Y18.8245
G01 X23.6202 Y18.8373
G01 X23.6124 Y18.8431
G01 X23.6001 Y18.8511
G01 X23.5828 Y18.8603
G01 X23.5647 Y18.8678
G01 X23.5460 Y18.8735
G01 X23.5268 Y18.8773
G01 X23.5122 Y18.8790
G01 X23.5024 Y18.8794
G01 X22.2176 Y18.8794
G01 X22.2029 Y18.8785
G01 X22.1884 Y18.8766
G01 X22.1740 Y18.8735
G01 X22.1553 Y18.8678
G01 X22.1417 Y18.8624
G01 X22.1285 Y18.8559
G01 X22.1117 Y18.8459
G01 X22.0998 Y18.8373
G01 X22.0885 Y18.8278
G01 X22.0747 Y18.8140
G01 X22.0623 Y18.7988
G01 X22.0514 Y18.7826
G01 X22.0422 Y18.7653
G01 X22.0347 Y18.7472
G01 X22.0290 Y18.7285
G01 X22.0259 Y18.7141
G01 X22.0235 Y18.6947
G01 X22.0230 Y18.6800
G01 X22.0230 Y18.3625
G01 X21.9855 Y18.3118
G01 X21.9775 Y18.2994
G01 X21.9348 Y18.2278
G01 X21.9076 Y18.1710
G01 X18.6565 Y14.9199
G01 X13.0645 Y14.9199
G01 X13.0645 Y16.0400
G01 X13.0640 Y16.0547
G01 X13.0623 Y16.0693
G01 X13.0607 Y16.0789
G01 X13.0573 Y16.0932
G01 X13.0544 Y16.1026
G01 X13.0511 Y16.1118
G01 X13.0453 Y16.1253
G01 X13.0361 Y16.1426
G01 X13.0281 Y16.1549
G01 X13.0223 Y16.1627
G01 X13.0095 Y16.1776
G01 X12.9953 Y16.1911
G01 X12.9838 Y16.2002
G01 X12.9758 Y16.2059
G01 X12.9633 Y16.2136
G01 X12.9503 Y16.2203
G01 X12.9368 Y16.2261
G01 X12.9229 Y16.2309
G01 X12.9087 Y16.2347
G01 X12.8943 Y16.2373
G01 X12.8797 Y16.2390
G01 X12.8699 Y16.2394
G01 X11.2650 Y16.2395
G01 X11.2503 Y16.2390
G01 X11.2309 Y16.2366
G01 X11.2118 Y16.2323
G01 X11.1978 Y16.2278
G01 X11.1797 Y16.2203
G01 X11.1667 Y16.2136
G01 X11.1542 Y16.2059
G01 X11.1384 Y16.1942
G01 X11.1239 Y16.1811
G01 X11.1139 Y16.1703
G01 X11.1077 Y16.1627
G01 X11.0965 Y16.1467
G01 X11.0891 Y16.1340
G01 X11.0847 Y16.1253
G01 X11.0807 Y16.1163
G01 X11.0756 Y16.1026
G01 X11.0703 Y16.0837
G01 X11.0677 Y16.0693
G01 X11.0665 Y16.0596
G01 X11.0655 Y16.0400
G01 X11.0656 Y14.4351
G01 X11.0665 Y14.4204
G01 X11.0693 Y14.4011
G01 X11.0727 Y14.3868
G01 X11.0789 Y14.3682
G01 X11.0847 Y14.3547
G01 X11.0939 Y14.3374
G01 X11.1048 Y14.3212
G01 X11.1151 Y14.3083
G01 X11.1151 Y6.6649
G01 X10.5535 Y6.6649
G01 X10.5245 Y6.6938
G01 X10.5244 Y9.4399
G01 X10.5223 Y9.4791
G01 X10.5175 Y9.5130
G01 X10.5148 Y9.5275
G01 X10.5051 Y9.5655
G01 X10.4903 Y9.6070
G01 X10.4758 Y9.6381
G01 X10.4666 Y9.6554
G01 X10.4514 Y9.6806
G01 X10.4460 Y9.6888
G01 X10.4225 Y9.7202
G01 X10.3996 Y9.7458
G01 X10.3893 Y9.7563
G01 X10.3676 Y9.7761
G01 X10.3563 Y9.7855
G01 X10.3288 Y9.8060
G01 X10.3165 Y9.8140
G01 X10.2912 Y9.8291
G01 X10.2781 Y9.8358
G01 X10.2470 Y9.8503
G01 X10.2148 Y9.8621
G01 X10.2008 Y9.8665
G01 X10.1675 Y9.8748
G01 X10.1530 Y9.8775
G01 X10.1239 Y9.8818
G01 X10.1093 Y9.8831
G01 X10.0750 Y9.8845
G01 X8.9750 Y9.8845
G01 X8.9309 Y9.8823
G01 X8.8921 Y9.8768
G01 X8.8825 Y9.8748
G01 X8.8540 Y9.8678
G01 X8.8352 Y9.8621
G01 X8.8030 Y9.8503
G01 X8.7631 Y9.8314
G01 X8.7253 Y9.8087
G01 X8.6976 Y9.7885
G01 X8.6861 Y9.7793
G01 X8.6642 Y9.7596
G01 X8.6504 Y9.7458
G01 X8.6275 Y9.7202
G01 X8.6013 Y9.6847
G01 X8.5786 Y9.6469
G01 X8.5616 Y9.6115
G01 X8.5562 Y9.5979
G01 X8.5463 Y9.5702
G01 X8.5435 Y9.5608
G01 X8.5363 Y9.5322
G01 X8.5325 Y9.5130
G01 X8.5282 Y9.4839
G01 X8.5272 Y9.4742
G01 X8.5255 Y9.4350
G01 X8.5256 Y6.4301
G01 X8.5272 Y6.3958
G01 X8.5289 Y6.3812
G01 X8.5341 Y6.3473
G01 X8.5435 Y6.3092
G01 X8.5463 Y6.2998
G01 X8.5562 Y6.2721
G01 X8.5616 Y6.2585
G01 X8.5763 Y6.2275
G01 X8.5865 Y6.2094
G00 Z2.0000
G00 X6.4633 Y10.9555
G01 F80.00
G01 Z-0.1017
G01 F240.00
G01 X6.5200 Y10.9135
G01 X6.5339 Y10.9026
G01 X6.5472 Y10.8911
G01 X6.6018 Y10.8417
G01 X6.6145 Y10.8295
G01 X8.3659 Y9.0780
G01 X8.3659 Y9.4350
G01 X8.3663 Y9.4526
G01 X8.3681 Y9.4859
G01 X8.3698 Y9.5035
G01 X8.3746 Y9.5365
G01 X8.3776 Y9.5538
G01 X8.3815 Y9.5710
G01 X8.3897 Y9.6033
G01 X8.3948 Y9.6202
G01 X8.4059 Y9.6516
G01 X8.4123 Y9.6681
G01 X8.4194 Y9.6842
G01 X8.4299 Y9.7064
G01 X8.4378 Y9.7221
G01 X8.4465 Y9.7375
G01 X8.4591 Y9.7585
G01 X8.4686 Y9.7734
G01 X8.4787 Y9.7878
G01 X8.4933 Y9.8075
G01 X8.5042 Y9.8214
G01 X8.5157 Y9.8348
G01 X8.5321 Y9.8529
G01 X8.5443 Y9.8657
G01 X8.5571 Y9.8779
G01 X8.5752 Y9.8943
G01 X8.5886 Y9.9058
G01 X8.6025 Y9.9167
G01 X8.6222 Y9.9313
G01 X8.6366 Y9.9414
G01 X8.6515 Y9.9509
G01 X8.6725 Y9.9635
G01 X8.6879 Y9.9722
G01 X8.7036 Y9.9801
G01 X8.7258 Y9.9906
G01 X8.7501 Y10.0010
G01 X8.7815 Y10.0123
G01 X8.7982 Y10.0179
G01 X8.8152 Y10.0226
G01 X8.8390 Y10.0285
G01 X8.8562 Y10.0324
G01 X8.8735 Y10.0354
G01 X8.8978 Y10.0390
G01 X8.9153 Y10.0412
G01 X8.9329 Y10.0425
G01 X8.9662 Y10.0440
G01 X10.0750 Y10.0441
G01 X10.0926 Y10.0437
G01 X10.1259 Y10.0419
G01 X10.1435 Y10.0402
G01 X10.1765 Y10.0354
G01 X10.1938 Y10.0324
G01 X10.2110 Y10.0285
G01 X10.2433 Y10.0203
G01 X10.2602 Y10.0152
G01 X10.2999 Y10.0010
G01 X10.3162 Y9.9943
G01 X10.3464 Y9.9801
G01 X10.3621 Y9.9722
G01 X10.3775 Y9.9635
G01 X10.3985 Y9.9509
G01 X10.4134 Y9.9414
G01 X10.4278 Y9.9313
G01 X10.4545 Y9.9113
G01 X10.4682 Y9.9002
G01 X10.4929 Y9.8779
G01 X10.5119 Y9.8594
G01 X10.5402 Y9.8282
G01 X10.5513 Y9.8145
G01 X10.5713 Y9.7878
G01 X10.5814 Y9.7734
G01 X10.5909 Y9.7585
G01 X10.6079 Y9.7298
G01 X10.6201 Y9.7064
G01 X10.6343 Y9.6762
G01 X10.6410 Y9.6599
G01 X10.6552 Y9.6202
G01 X10.6603 Y9.6033
G01 X10.6706 Y9.5625
G01 X10.6740 Y9.5452
G01 X10.6802 Y9.5035
G01 X10.6819 Y9.4859
G01 X10.6837 Y9.4526
G01 X10.6841 Y9.4350
G01 X10.6841 Y6.8245
G01 X10.9555 Y6.8245
G01 X10.9555 Y14.2579
G01 X10.9442 Y14.2785
G01 X10.9332 Y14.3026
G01 X10.9269 Y14.3190
G01 X10.9189 Y14.3442
G01 X10.9128 Y14.3699
G01 X10.9098 Y14.3873
G01 X10.9076 Y14.4048
G01 X10.9060 Y14.4312
G01 X10.9059 Y16.0400
G01 X10.9063 Y16.0576
G01 X10.9076 Y16.0752
G01 X10.9098 Y16.0927
G01 X10.9128 Y16.1101
G01 X10.9167 Y16.1273
G01 X10.9214 Y16.1442
G01 X10.9300 Y16.1692
G01 X10.9367 Y16.1855
G01 X10.9442 Y16.2015
G01 X10.9570 Y16.2246
G01 X10.9664 Y16.2395
G01 X10.9766 Y16.2539
G01 X10.9874 Y16.2678
G01 X10.9989 Y16.2812
G01 X11.0111 Y16.2939
G01 X11.0238 Y16.3061
G01 X11.0372 Y16.3176
G01 X11.0511 Y16.3284
G01 X11.0655 Y16.3386
G01 X11.0804 Y16.3480
G01 X11.0957 Y16.3567
G01 X11.1115 Y16.3646
G01 X11.1276 Y16.3718
G01 X11.1440 Y16.3781
G01 X11.1608 Y16.3836
G01 X11.1777 Y16.3883
G01 X11.1949 Y16.3922
G01 X11.2123 Y16.3952
G01 X11.2298 Y16.3974
G01 X11.2474 Y16.3987
G01 X11.2650 Y16.3991
G01 X12.8738 Y16.3990
G01 X12.8914 Y16.3981
G01 X12.9090 Y16.3964
G01 X12.9351 Y16.3922
G01 X12.9523 Y16.3883
G01 X12.9776 Y16.3810
G01 X12.9942 Y16.3750
G01 X13.0185 Y16.3646
G01 X13.0343 Y16.3567
G01 X13.0496 Y16.3480
G01 X13.0645 Y16.3386
G01 X13.0789 Y16.3284
G01 X13.0996 Y16.3119
G01 X13.1189 Y16.2939
G01 X13.1311 Y16.2812
G01 X13.1481 Y16.2609
G01 X13.1586 Y16.2468
G01 X13.1730 Y16.2246
G01 X13.1817 Y16.2093
G01 X13.1933 Y16.1855
G01 X13.2000 Y16.1692
G01 X13.2060 Y16.1526
G01 X13.2111 Y16.1358
G01 X13.2154 Y16.1187
G01 X13.2202 Y16.0927
G01 X13.2231 Y16.0664
G01 X13.2241 Y16.0400
G01 X13.2241 Y15.0795
G01 X18.5904 Y15.0795
G01 X21.7752 Y18.2642
G01 X21.7900 Y18.2952
G01 X21.8027 Y18.3183
G01 X21.8452 Y18.3890
G01 X21.8550 Y18.4037
G01 X21.8634 Y18.4152
G01 X21.8634 Y18.6800
G01 X21.8638 Y18.6976
G01 X21.8657 Y18.7205
G01 X19.1541 Y18.7205
G01 X19.1541 Y16.1200
G01 X19.1537 Y16.1024
G01 X19.1514 Y16.0760
G01 X19.1488 Y16.0586
G01 X19.1454 Y16.0413
G01 X19.1386 Y16.0158
G01 X19.1331 Y15.9990
G01 X19.1268 Y15.9826
G01 X19.1158 Y15.9585
G01 X19.1074 Y15.9430
G01 X19.0984 Y15.9279
G01 X19.0886 Y15.9132
G01 X19.0781 Y15.8991
G01 X19.0611 Y15.8788
G01 X19.0489 Y15.8661
G01 X19.0362 Y15.8539
G01 X19.0159 Y15.8369
G01 X19.0018 Y15.8264
G01 X18.9871 Y15.8166
G01 X18.9720 Y15.8076
G01 X18.9565 Y15.7992
G01 X18.9405 Y15.7917
G01 X18.9242 Y15.7850
G01 X18.9076 Y15.7790
G01 X18.8908 Y15.7739
G01 X18.8651 Y15.7678
G01 X18.8477 Y15.7648
G01 X18.8302 Y15.7626
G01 X18.8126 Y15.7613
G01 X18.7950 Y15.7609
G01 X15.4950 Y15.7609
G01 X15.4774 Y15.7613
G01 X15.4510 Y15.7636
G01 X15.4336 Y15.7662
G01 X15.4077 Y15.7717
G01 X15.3908 Y15.7764
G01 X15.3658 Y15.7850
G01 X15.3495 Y15.7917
G01 X15.3257 Y15.8033
G01 X15.3029 Y15.8166
G01 X15.2882 Y15.8264
G01 X15.2672 Y15.8424
G01 X15.2474 Y15.8599
G01 X15.2349 Y15.8724
G01 X15.2174 Y15.8922
G01 X15.2066 Y15.9061
G01 X15.1916 Y15.9279
G01 X15.1826 Y15.9430
G01 X15.1704 Y15.9665
G01 X15.1600 Y15.9908
G01 X15.1540 Y16.0074
G01 X15.1467 Y16.0327
G01 X15.1428 Y16.0499
G01 X15.1398 Y16.0673
G01 X15.1369 Y16.0936
G01 X15.1359 Y16.1200
G01 X15.1359 Y18.7205
G01 X13.2236 Y18.7205
G01 X13.2198 Y18.6440
G01 X13.2185 Y18.6264
G01 X13.2164 Y18.6089
G01 X13.2048 Y18.5312
G01 X13.2000 Y18.5052
G01 X13.1789 Y18.4205
G01 X13.1715 Y18.3951
G01 X13.1391 Y18.3046
G01 X13.1287 Y18.2803
G01 X13.0952 Y18.2093
G01 X13.0872 Y18.1936
G01 X13.0785 Y18.1783
G01 X13.0382 Y18.1109
G01 X13.0288 Y18.0960
G01 X13.0186 Y18.0816
G01 X12.9718 Y18.0186
G01 X12.9610 Y18.0047
G01 X12.9495 Y17.9913
G01 X12.8968 Y17.9332
G01 X12.8846 Y17.9204
G01 X12.8718 Y17.9082
G01 X12.8137 Y17.8555
G01 X12.8003 Y17.8440
G01 X12.7864 Y17.8332
G01 X12.7234 Y17.7864
G01 X12.7090 Y17.7762
G01 X12.6941 Y17.7668
G01 X12.6267 Y17.7265
G01 X12.6114 Y17.7178
G01 X12.5957 Y17.7098
G01 X12.5247 Y17.6763
G01 X12.5086 Y17.6691
G01 X12.4921 Y17.6628
G01 X12.4182 Y17.6363
G01 X12.4015 Y17.6308
G01 X12.3845 Y17.6261
G01 X12.3083 Y17.6070
G01 X12.2911 Y17.6032
G01 X12.2738 Y17.6002
G01 X12.1961 Y17.5886
G01 X12.1786 Y17.5865
G01 X12.1610 Y17.5852
G01 X12.0826 Y17.5813
G01 X12.0650 Y17.5809
G01 X12.0474 Y17.5813
G01 X11.9690 Y17.5852
G01 X11.9514 Y17.5865
G01 X11.9339 Y17.5886
G01 X11.8562 Y17.6002
G01 X11.8389 Y17.6032
G01 X11.8217 Y17.6070
G01 X11.7455 Y17.6261
G01 X11.7285 Y17.6308
G01 X11.7118 Y17.6363
G01 X11.6481 Y17.6591
G01 X10.6345 Y16.6454
G01 X10.6345 Y15.0757
G01 X10.6441 Y15.0516
G01 X10.6523 Y15.0285
G01 X10.6579 Y15.0118
G01 X10.6626 Y14.9948
G01 X10.6685 Y14.9710
G01 X10.6724 Y14.9538
G01 X10.6754 Y14.9365
G01 X10.6790 Y14.9122
G01 X10.6812 Y14.8947
G01 X10.6825 Y14.8771
G01 X10.6837 Y14.8526
G01 X10.6841 Y14.8350
G01 X10.6840 Y11.8262
G01 X10.6825 Y11.7929
G01 X10.6812 Y11.7753
G01 X10.6790 Y11.7578
G01 X10.6754 Y11.7335
G01 X10.6724 Y11.7162
G01 X10.6685 Y11.6990
G01 X10.6626 Y11.6752
G01 X10.6579 Y11.6582
G01 X10.6523 Y11.6415
G01 X10.6410 Y11.6101
G01 X10.6343 Y11.5938
G01 X10.6162 Y11.5557
G01 X10.6079 Y11.5402
G01 X10.5909 Y11.5115
G01 X10.5814 Y11.4966
G01 X10.5713 Y11.4822
G01 X10.5513 Y11.4555
G01 X10.5402 Y11.4418
G01 X10.5179 Y11.4171
G01 X10.5057 Y11.4043
G01 X10.4929 Y11.3921
G01 X10.4748 Y11.3757
G01 X10.4614 Y11.3642
G01 X10.4475 Y11.3533
G01 X10.4278 Y11.3387
G01 X10.4134 Y11.3286
G01 X10.3985 Y11.3191
G01 X10.3775 Y11.3065
G01 X10.3621 Y11.2978
G01 X10.3464 Y11.2899
G01 X10.3242 Y11.2794
G01 X10.3081 Y11.2723
G01 X10.2916 Y11.2659
G01 X10.2602 Y11.2548
G01 X10.2433 Y11.2497
G01 X10.2025 Y11.2394
G01 X10.1852 Y11.2360
G01 X10.1522 Y11.2310
G01 X10.1259 Y11.2281
G01 X10.0926 Y11.2263
G01 X10.0750 Y11.2259
G01 X8.9799 Y11.2259
G01 X8.9588 Y11.2074
G01 X8.9449 Y11.1965
G01 X8.8858 Y11.1527
G01 X8.8640 Y11.1377
G01 X8.7933 Y11.0952
G01 X8.7780 Y11.0865
G01 X8.7623 Y11.0786
G01 X8.6877 Y11.0435
G01 X8.6631 Y11.0336
G01 X8.5938 Y11.0088
G01 X8.5771 Y11.0033
G01 X8.5601 Y10.9986
G01 X8.4886 Y10.9807
G01 X8.4714 Y10.9768
G01 X8.4541 Y10.9738
G01 X8.3725 Y10.9618
G01 X8.3462 Y10.9596
G01 X8.2726 Y10.9560
G01 X8.2550 Y10.9555
G01 X6.4633 Y10.9555
G00 Z2.0000
G00 X4.6648 Y13.1343
G01 F80.00
G01 Z-0.1017
G01 F240.00
G01 X2.9650 Y13.1345
G01 X2.9258 Y13.1328
G01 X2.9112 Y13.1311
G01 X2.8821 Y13.1268
G01 X2.8725 Y13.1248
G01 X2.8440 Y13.1178
G01 X2.8252 Y13.1121
G01 X2.7975 Y13.1021
G01 X2.7840 Y13.0963
G01 X2.7531 Y13.0814
G01 X2.7153 Y13.0587
G01 X2.6798 Y13.0325
G01 X2.6472 Y13.0028
G01 X2.6175 Y12.9702
G01 X2.5913 Y12.9347
G01 X2.5686 Y12.8969
G01 X2.5497 Y12.8570
G01 X2.5349 Y12.8155
G01 X2.5241 Y12.7727
G01 X2.5177 Y12.7291
G01 X2.5155 Y12.6850
G01 X2.5155 Y11.4450
G01 X2.5172 Y11.4058
G01 X2.5189 Y11.3912
G01 X2.5232 Y11.3621
G01 X2.5252 Y11.3525
G01 X2.5322 Y11.3240
G01 X2.5379 Y11.3052
G01 X2.5479 Y11.2775
G01 X2.5537 Y11.2640
G01 X2.5686 Y11.2331
G01 X2.5913 Y11.1953
G01 X2.6175 Y11.1598
G01 X2.6472 Y11.1272
G01 X2.6798 Y11.0975
G01 X2.7153 Y11.0713
G01 X2.7531 Y11.0486
G01 X2.7930 Y11.0297
G01 X2.8345 Y11.0149
G01 X2.8773 Y11.0041
G01 X2.9209 Y10.9977
G01 X2.9650 Y10.9955
G01 X4.6550 Y10.9955
G01 X4.6893 Y10.9969
G01 X4.7088 Y10.9989
G01 X4.7379 Y11.0032
G01 X4.7522 Y11.0063
G01 X4.7808 Y11.0135
G01 X4.7902 Y11.0163
G01 X4.8179 Y11.0262
G01 X4.8315 Y11.0316
G01 X4.8669 Y11.0486
G01 X4.9006 Y11.0686
G01 X4.9127 Y11.0769
G01 X4.9363 Y11.0945
G01 X4.9439 Y11.1007
G01 X4.9599 Y11.1151
G01 X8.2648 Y11.1154
G01 X8.3481 Y11.1197
G01 X8.4403 Y11.1334
G01 X8.5307 Y11.1560
G01 X8.6185 Y11.1874
G01 X8.7028 Y11.2273
G01 X8.7827 Y11.2752
G01 X8.8576 Y11.3307
G01 X8.9219 Y11.3888
G01 X8.9358 Y11.3872
G01 X8.9750 Y11.3855
G01 X10.0750 Y11.3855
G01 X10.1093 Y11.3869
G01 X10.1239 Y11.3882
G01 X10.1627 Y11.3941
G01 X10.2008 Y11.4035
G01 X10.2148 Y11.4079
G01 X10.2470 Y11.4197
G01 X10.2781 Y11.4342
G01 X10.2912 Y11.4409
G01 X10.3247 Y11.4613
G01 X10.3602 Y11.4875
G01 X10.3893 Y11.5137
G01 X10.3996 Y11.5242
G01 X10.4225 Y11.5498
G01 X10.4431 Y11.5773
G01 X10.4514 Y11.5894
G01 X10.4714 Y11.6231
G01 X10.4903 Y11.6630
G01 X10.5037 Y11.6998
G01 X10.5078 Y11.7140
G01 X10.5159 Y11.7473
G01 X10.5211 Y11.7812
G01 X10.5228 Y11.7958
G01 X10.5244 Y11.8301
G01 X10.5245 Y14.8350
G01 X10.5223 Y14.8791
G01 X10.5168 Y14.9179
G01 X10.5137 Y14.9322
G01 X10.5051 Y14.9655
G01 X10.4938 Y14.9979
G01 X10.4884 Y15.0115
G01 X10.4749 Y15.0401
G01 X10.4749 Y16.7116
G01 X11.6127 Y17.8493
G01 X11.6825 Y17.8166
G01 X11.7656 Y17.7866
G01 X11.7843 Y17.7809
G01 X11.8700 Y17.7597
G01 X11.9670 Y17.7453
G01 X12.0552 Y17.7407
G01 X12.0748 Y17.7407
G01 X12.1630 Y17.7453
G01 X12.2600 Y17.7597
G01 X12.3457 Y17.7809
G01 X12.3644 Y17.7866
G01 X12.4475 Y17.8166
G01 X12.5274 Y17.8541
G01 X12.5447 Y17.8633
G01 X12.6203 Y17.9089
G01 X12.6991 Y17.9674
G01 X12.7647 Y18.0265
G01 X12.7785 Y18.0403
G01 X12.8376 Y18.1059
G01 X12.8904 Y18.1767
G01 X12.9013 Y18.1930
G01 X12.9465 Y18.2688
G01 X12.9844 Y18.3486
G01 X12.9902 Y18.3621
G01 X13.0184 Y18.4406
G01 X13.0241 Y18.4593
G01 X13.0453 Y18.5450
G01 X13.0591 Y18.6372
G01 X13.0604 Y18.6518
G01 X13.0643 Y18.7302
G01 X13.0644 Y18.7449
G01 X13.0601 Y18.8331
G01 X13.0585 Y18.8477
G01 X13.0537 Y18.8801
G01 X15.2955 Y18.8801
G01 X15.2955 Y16.1200
G01 X15.2960 Y16.1053
G01 X15.2984 Y16.0859
G01 X15.3027 Y16.0668
G01 X15.3089 Y16.0482
G01 X15.3168 Y16.0303
G01 X15.3239 Y16.0174
G01 X15.3348 Y16.0012
G01 X15.3472 Y15.9860
G01 X15.3610 Y15.9722
G01 X15.3762 Y15.9598
G01 X15.3924 Y15.9489
G01 X15.4097 Y15.9397
G01 X15.4232 Y15.9339
G01 X15.4418 Y15.9277
G01 X15.4609 Y15.9234
G01 X15.4803 Y15.9210
G01 X15.4950 Y15.9205
G01 X18.7999 Y15.9206
G01 X18.8146 Y15.9215
G01 X18.8339 Y15.9243
G01 X18.8529 Y15.9291
G01 X18.8668 Y15.9339
G01 X18.8803 Y15.9397
G01 X18.8976 Y15.9489
G01 X18.9099 Y15.9569
G01 X18.9253 Y15.9689
G01 X18.9395 Y15.9824
G01 X18.9461 Y15.9897
G01 X18.9552 Y16.0012
G01 X18.9661 Y16.0174
G01 X18.9753 Y16.0347
G01 X18.9828 Y16.0528
G01 X18.9885 Y16.0715
G01 X18.9916 Y16.0859
G01 X18.9930 Y16.0956
G01 X18.9944 Y16.1151
G01 X18.9945 Y18.8801
G01 X25.4602 Y18.8801
G01 X25.4602 Y18.2891
G01 X25.4564 Y18.2760
G01 X25.4412 Y18.2153
G01 X25.4374 Y18.1961
G01 X25.4270 Y18.1245
G01 X25.4232 Y18.0523
G01 X25.4231 Y17.5126
G01 X25.4270 Y17.4355
G01 X25.4391 Y17.3542
G01 X25.4590 Y17.2745
G01 X25.4832 Y17.2063
G01 X25.4907 Y17.1882
G01 X25.5174 Y17.1317
G01 X25.5267 Y17.1144
G01 X25.5641 Y17.0525
G01 X25.6130 Y16.9865
G01 X25.6682 Y16.9257
G01 X25.7216 Y16.8769
G01 X25.7367 Y16.8645
G01 X25.7950 Y16.8216
G01 X25.8654 Y16.7793
G01 X25.9307 Y16.7482
G01 X25.9488 Y16.7407
G01 X26.0170 Y16.7165
G01 X26.0872 Y16.6987
G01 X26.1064 Y16.6949
G01 X26.1780 Y16.6845
G01 X26.2600 Y16.6805
G01 X26.3420 Y16.6845
G01 X26.4136 Y16.6949
G01 X26.4328 Y16.6987
G01 X26.5030 Y16.7165
G01 X26.5712 Y16.7407
G01 X26.5893 Y16.7482
G01 X26.6546 Y16.7793
G01 X26.7250 Y16.8216
G01 X26.7833 Y16.8645
G01 X26.7984 Y16.8769
G01 X26.8518 Y16.9257
G01 X26.9070 Y16.9865
G01 X26.9559 Y17.0525
G01 X26.9933 Y17.1144
G01 X27.0026 Y17.1317
G01 X27.0293 Y17.1882
G01 X27.0368 Y17.2063
G01 X27.0610 Y17.2745
G01 X27.0809 Y17.3542
G01 X27.0930 Y17.4355
G01 X27.0969 Y17.5126
G01 X27.0968 Y18.0523
G01 X27.0930 Y18.1245
G01 X27.0826 Y18.1961
G01 X27.0788 Y18.2153
G01 X27.0636 Y18.2760
G01 X27.0598 Y18.2891
G01 X27.0598 Y18.8801
G01 X28.8602 Y18.8801
G01 X28.8602 Y18.2891
G01 X28.8564 Y18.2760
G01 X28.8412 Y18.2153
G01 X28.8374 Y18.1961
G01 X28.8270 Y18.1245
G01 X28.8232 Y18.0523
G01 X28.8231 Y17.5126
G01 X28.8263 Y17.4452
G01 X28.8282 Y17.4257
G01 X28.8391 Y17.3542
G01 X28.8564 Y17.2840
G01 X28.8621 Y17.2652
G01 X28.8867 Y17.1972
G01 X28.9174 Y17.1317
G01 X28.9242 Y17.1187
G01 X28.9641 Y17.0525
G01 X29.0130 Y16.9865
G01 X29.0682 Y16.9257
G01 X29.1290 Y16.8705
G01 X29.1950 Y16.8216
G01 X29.2654 Y16.7793
G01 X29.3397 Y16.7442
G01 X29.4170 Y16.7165
G01 X29.4967 Y16.6966
G01 X29.5780 Y16.6845
G01 X29.6600 Y16.6805
G01 X29.7420 Y16.6845
G01 X29.8233 Y16.6966
G01 X29.9030 Y16.7165
G01 X29.9803 Y16.7442
G01 X30.0458 Y16.7749
G01 X30.0588 Y16.7817
G01 X30.1250 Y16.8216
G01 X30.1833 Y16.8645
G01 X30.1984 Y16.8769
G01 X30.2518 Y16.9257
G01 X30.3006 Y16.9791
G01 X30.3130 Y16.9942
G01 X30.3503 Y17.0445
G01 X30.3612 Y17.0608
G01 X30.3982 Y17.1229
G01 X30.4333 Y17.1972
G01 X30.4610 Y17.2745
G01 X30.4788 Y17.3447
G01 X30.4818 Y17.3590
G01 X30.4930 Y17.4355
G01 X30.4969 Y17.5126
G01 X30.4969 Y18.0474
G01 X30.4930 Y18.1245
G01 X30.4826 Y18.1961
G01 X30.4788 Y18.2153
G01 X30.4636 Y18.2760
G01 X30.4598 Y18.2891
G01 X30.4598 Y19.0276
G01 X37.7851 Y19.0276
G01 X37.7851 Y18.0893
G01 X37.7800 Y18.0748
G01 X37.7759 Y18.0607
G01 X37.7569 Y17.9845
G01 X37.7530 Y17.9653
G01 X37.7403 Y17.8780
G01 X37.7357 Y17.7898
G01 X37.7356 Y17.7751
G01 X37.7403 Y17.6820
G01 X37.7547 Y17.5850
G01 X37.7785 Y17.4899
G01 X37.8116 Y17.3975
G01 X37.8491 Y17.3176
G01 X37.8583 Y17.3003
G01 X37.9039 Y17.2247
G01 X37.9624 Y17.1459
G01 X38.0282 Y17.0732
G01 X38.0935 Y17.0138
G01 X38.1086 Y17.0014
G01 X38.1797 Y16.9489
G01 X38.2553 Y16.9033
G01 X38.2726 Y16.8941
G01 X38.3525 Y16.8566
G01 X38.4449 Y16.8235
G01 X38.5305 Y16.8019
G01 X38.5497 Y16.7980
G01 X38.6370 Y16.7853
G01 X38.7350 Y16.7805
G01 X38.8330 Y16.7853
G01 X38.9203 Y16.7980
G01 X38.9395 Y16.8019
G01 X39.0251 Y16.8235
G01 X39.1175 Y16.8566
G01 X39.1974 Y16.8941
G01 X39.2147 Y16.9033
G01 X39.2903 Y16.9489
G01 X39.3614 Y17.0014
G01 X39.3765 Y17.0138
G01 X39.4418 Y17.0732
G01 X39.5076 Y17.1459
G01 X39.5661 Y17.2247
G01 X39.6117 Y17.3003
G01 X39.6209 Y17.3176
G01 X39.6584 Y17.3975
G01 X39.6915 Y17.4899
G01 X39.7153 Y17.5850
G01 X39.7297 Y17.6820
G01 X39.7344 Y17.7751
G01 X39.7343 Y17.7898
G01 X39.7297 Y17.8780
G01 X39.7170 Y17.9653
G01 X39.7131 Y17.9845
G01 X39.6941 Y18.0607
G01 X39.6900 Y18.0748
G01 X39.6849 Y18.0893
G01 X39.6849 Y19.0276
G01 X48.6500 Y19.0276
G01 X48.6741 Y18.9952
G01 X48.6832 Y18.9837
G01 X48.7491 Y18.9110
G01 X48.7596 Y18.9008
G01 X48.8287 Y18.8382
G01 X48.8402 Y18.8291
G01 X48.9192 Y18.7708
G01 X49.0032 Y18.7202
G01 X49.0160 Y18.7131
G01 X49.1003 Y18.6732
G01 X49.1184 Y18.6657
G01 X49.2108 Y18.6328
G01 X49.3059 Y18.6088
G01 X49.3251 Y18.6050
G01 X49.4222 Y18.5908
G01 X49.5300 Y18.5855
G01 X49.6378 Y18.5908
G01 X49.7445 Y18.6066
G01 X49.8492 Y18.6328
G01 X49.9416 Y18.6657
G01 X49.9597 Y18.6732
G01 X50.0483 Y18.7153
G01 X50.1326 Y18.7656
G01 X50.1489 Y18.7764
G01 X50.2198 Y18.8291
G01 X50.2313 Y18.8382
G01 X50.2434 Y18.8491
G01 X76.8683 Y18.8501
G01 X77.4951 Y18.2233
G01 X77.4951 Y11.5285
G01 X77.1765 Y11.2098
G01 X77.1422 Y11.2187
G01 X77.1230 Y11.2225
G01 X77.0891 Y11.2273
G01 X77.0450 Y11.2295
G01 X75.3452 Y11.2293
G01 X75.3109 Y11.2273
G01 X75.2673 Y11.2209
G01 X75.2245 Y11.2101
G01 X75.1830 Y11.1953
G01 X75.1431 Y11.1764
G01 X75.1094 Y11.1564
G01 X75.0973 Y11.1481
G01 X75.0737 Y11.1305
G01 X75.0661 Y11.1243
G01 X75.0501 Y11.1099
G01 X69.7299 Y11.1099
G01 X69.7139 Y11.1243
G01 X69.7063 Y11.1305
G01 X69.6827 Y11.1481
G01 X69.6706 Y11.1564
G01 X69.6369 Y11.1764
G01 X69.6015 Y11.1934
G01 X69.5879 Y11.1988
G01 X69.5602 Y11.2087
G01 X69.5508 Y11.2115
G01 X69.5222 Y11.2187
G01 X69.5079 Y11.2218
G01 X69.4788 Y11.2261
G01 X69.4593 Y11.2281
G01 X69.4250 Y11.2295
G01 X67.7350 Y11.2295
G01 X67.6909 Y11.2273
G01 X67.6473 Y11.2209
G01 X67.6045 Y11.2101
G01 X67.5675 Y11.1971
G01 X67.5540 Y11.1913
G01 X67.5231 Y11.1764
G01 X67.4894 Y11.1564
G01 X67.4773 Y11.1481
G01 X67.4537 Y11.1305
G01 X67.4461 Y11.1243
G01 X67.4301 Y11.1099
G01 X62.1099 Y11.1099
G01 X62.0939 Y11.1243
G01 X62.0863 Y11.1305
G01 X62.0627 Y11.1481
G01 X62.0506 Y11.1564
G01 X62.0169 Y11.1764
G01 X61.9815 Y11.1934
G01 X61.9679 Y11.1988
G01 X61.9402 Y11.2087
G01 X61.9308 Y11.2115
G01 X61.9022 Y11.2187
G01 X61.8879 Y11.2218
G01 X61.8588 Y11.2261
G01 X61.8393 Y11.2281
G01 X61.8050 Y11.2295
G01 X60.1150 Y11.2295
G01 X60.0709 Y11.2273
G01 X60.0273 Y11.2209
G01 X59.9940 Y11.2128
G01 X59.9798 Y11.2087
G01 X59.9430 Y11.1953
G01 X59.9031 Y11.1764
G01 X59.8735 Y11.1590
G01 X59.8573 Y11.1481
G01 X59.8337 Y11.1305
G01 X59.8224 Y11.1211
G01 X59.7972 Y11.0978
G01 X59.7675 Y11.0652
G01 X59.7413 Y11.0297
G01 X59.7234 Y11.0004
G01 X59.7142 Y10.9831
G01 X59.7016 Y10.9565
G01 X59.6979 Y10.9475
G01 X59.6849 Y10.9105
G01 X59.6763 Y10.8772
G01 X59.6732 Y10.8629
G01 X59.6677 Y10.8241
G01 X59.6655 Y10.7800
G01 X59.6656 Y9.5351
G01 X59.6677 Y9.4959
G01 X59.6741 Y9.4523
G01 X59.6849 Y9.4095
G01 X59.6997 Y9.3680
G01 X59.7186 Y9.3281
G01 X59.7413 Y9.2903
G01 X59.7675 Y9.2548
G01 X59.7972 Y9.2222
G01 X59.8298 Y9.1925
G01 X59.8653 Y9.1663
G01 X59.9031 Y9.1436
G01 X59.9430 Y9.1247
G01 X59.9845 Y9.1099
G01 X60.0273 Y9.0991
G01 X60.0709 Y9.0927
G01 X60.1101 Y9.0906
G01 X61.8050 Y9.0905
G01 X61.8393 Y9.0919
G01 X61.8588 Y9.0939
G01 X61.8879 Y9.0982
G01 X61.9022 Y9.1013
G01 X61.9308 Y9.1085
G01 X61.9402 Y9.1113
G01 X61.9679 Y9.1212
G01 X61.9815 Y9.1266
G01 X62.0169 Y9.1436
G01 X62.0506 Y9.1636
G01 X62.0627 Y9.1719
G01 X62.0863 Y9.1895
G01 X62.0939 Y9.1957
G01 X62.1099 Y9.2101
G01 X67.4301 Y9.2101
G01 X67.4461 Y9.1957
G01 X67.4537 Y9.1895
G01 X67.4773 Y9.1719
G01 X67.4894 Y9.1636
G01 X67.5231 Y9.1436
G01 X67.5585 Y9.1266
G01 X67.5721 Y9.1212
G01 X67.5998 Y9.1113
G01 X67.6092 Y9.1085
G01 X67.6378 Y9.1013
G01 X67.6521 Y9.0982
G01 X67.6812 Y9.0939
G01 X67.7007 Y9.0919
G01 X67.7350 Y9.0905
G01 X69.4250 Y9.0905
G01 X69.4691 Y9.0927
G01 X69.5127 Y9.0991
G01 X69.5555 Y9.1099
G01 X69.5925 Y9.1229
G01 X69.6060 Y9.1287
G01 X69.6369 Y9.1436
G01 X69.6706 Y9.1636
G01 X69.6827 Y9.1719
G01 X69.7063 Y9.1895
G01 X69.7139 Y9.1957
G01 X69.7299 Y9.2101
G01 X75.0501 Y9.2101
G01 X75.0661 Y9.1957
G01 X75.0737 Y9.1895
G01 X75.0973 Y9.1719
G01 X75.1094 Y9.1636
G01 X75.1431 Y9.1436
G01 X75.1785 Y9.1266
G01 X75.1921 Y9.1212
G01 X75.2198 Y9.1113
G01 X75.2292 Y9.1085
G01 X75.2578 Y9.1013
G01 X75.2721 Y9.0982
G01 X75.3012 Y9.0939
G01 X75.3207 Y9.0919
G01 X75.3550 Y9.0905
G01 X77.0450 Y9.0905
G01 X77.0842 Y9.0922
G01 X77.0988 Y9.0939
G01 X77.1279 Y9.0982
G01 X77.1375 Y9.1002
G01 X77.1660 Y9.1072
G01 X77.1848 Y9.1129
G01 X77.2125 Y9.1229
G01 X77.2215 Y9.1266
G01 X77.2569 Y9.1436
G01 X77.2906 Y9.1636
G01 X77.3027 Y9.1719
G01 X77.3263 Y9.1895
G01 X77.3339 Y9.1957
G01 X77.3499 Y9.2101
G01 X77.4749 Y9.2102
G01 X77.5631 Y9.2147
G01 X77.6553 Y9.2284
G01 X77.7363 Y9.2484
G01 X77.7504 Y9.2525
G01 X77.8335 Y9.2824
G01 X77.9178 Y9.3223
G01 X77.9977 Y9.3702
G01 X78.0726 Y9.4257
G01 X78.1417 Y9.4883
G01 X79.1167 Y10.4633
G01 X79.1761 Y10.5287
G01 X79.1853 Y10.5401
G01 X79.2348 Y10.6073
G01 X79.2779 Y10.6787
G01 X79.2871 Y10.6960
G01 X79.3226 Y10.7715
G01 X79.3509 Y10.8500
G01 X79.3566 Y10.8687
G01 X79.3745 Y10.9401
G01 X79.3783 Y10.9593
G01 X79.3903 Y11.0419
G01 X79.3949 Y11.1350
G01 X79.3949 Y18.6167
G01 X79.3907 Y18.7049
G01 X79.3891 Y18.7195
G01 X79.3783 Y18.7924
G01 X79.3745 Y18.8116
G01 X79.3540 Y18.8924
G01 X79.3226 Y18.9802
G01 X79.2871 Y19.0557
G01 X79.2779 Y19.0730
G01 X79.2348 Y19.1444
G01 X79.1793 Y19.2193
G01 X79.1167 Y19.2884
G01 X77.9299 Y20.4751
G01 X77.8643 Y20.5343
G01 X77.7894 Y20.5898
G01 X77.7095 Y20.6377
G01 X77.6252 Y20.6776
G01 X77.5374 Y20.7090
G01 X77.4470 Y20.7316
G01 X77.3548 Y20.7453
G01 X77.2666 Y20.7498
G01 X49.7993 Y20.7499
G01 X49.7839 Y20.7538
G01 X49.7693 Y20.7645
G01 X49.7569 Y20.7725
G01 X49.6938 Y20.8104
G01 X49.6765 Y20.8196
G01 X49.6010 Y20.8551
G01 X49.5132 Y20.8865
G01 X49.4228 Y20.9091
G01 X49.3403 Y20.9216
G01 X49.3208 Y20.9235
G01 X49.2375 Y20.9274
G01 X29.8475 Y20.9274
G01 X29.7641 Y20.9235
G01 X29.7447 Y20.9216
G01 X29.6622 Y20.9091
G01 X29.5717 Y20.8865
G01 X29.4931 Y20.8586
G01 X29.4750 Y20.8511
G01 X29.3997 Y20.8152
G01 X29.3403 Y20.7799
G01 X18.9143 Y20.7799
G01 X18.9017 Y20.7885
G01 X18.8890 Y20.7959
G01 X18.8713 Y20.8043
G01 X18.8576 Y20.8094
G01 X18.8435 Y20.8135
G01 X18.8291 Y20.8166
G01 X18.8146 Y20.8185
G01 X18.7950 Y20.8195
G01 X15.4950 Y20.8195
G01 X15.4803 Y20.8190
G01 X15.4657 Y20.8173
G01 X15.4513 Y20.8147
G01 X15.4324 Y20.8094
G01 X15.4142 Y20.8024
G01 X15.4010 Y20.7959
G01 X15.3883 Y20.7885
G01 X15.3757 Y20.7799
G01 X12.2500 Y20.7799
G01 X12.1618 Y20.7757
G01 X12.1472 Y20.7741
G01 X12.0647 Y20.7616
G01 X11.9837 Y20.7416
G01 X11.9650 Y20.7359
G01 X11.8956 Y20.7111
G01 X11.8776 Y20.7036
G01 X11.8022 Y20.6677
G01 X11.7223 Y20.6198
G01 X11.6474 Y20.5643
G01 X11.5854 Y20.5084
G01 X8.8533 Y17.7767
G01 X8.7907 Y17.7076
G01 X8.7408 Y17.6407
G01 X8.7300 Y17.6245
G01 X8.6921 Y17.5613
G01 X8.6850 Y17.5484
G01 X8.6474 Y17.4685
G01 X8.6191 Y17.3900
G01 X8.6134 Y17.3713
G01 X8.5934 Y17.2903
G01 X8.5809 Y17.2078
G01 X8.5790 Y17.1883
G01 X8.5754 Y17.1148
G01 X8.5751 Y15.0401
G01 X8.5616 Y15.0115
G01 X8.5562 Y14.9979
G01 X8.5449 Y14.9655
G01 X8.5363 Y14.9322
G01 X8.5332 Y14.9179
G01 X8.5282 Y14.8839
G01 X8.5269 Y14.8693
G01 X8.5256 Y14.8399
G01 X8.5255 Y13.6788
G01 X7.8615 Y13.0149
G01 X4.9599 Y13.0149
G01 X4.9439 Y13.0293
G01 X4.9363 Y13.0355
G01 X4.9127 Y13.0531
G01 X4.9006 Y13.0614
G01 X4.8669 Y13.0814
G01 X4.8270 Y13.1003
G01 X4.7855 Y13.1151
G01 X4.7427 Y13.1259
G01 X4.6991 Y13.1323
G01 X4.6648 Y13.1343
G00 Z2.0000
G00 X3.4641 Y10.7481
G01 F80.00
G01 Z-0.1017
G01 F240.00
G01 X3.4470 Y10.7460
G01 X3.3626 Y10.7335
G01 X3.3452 Y10.7305
G01 X3.3280 Y10.7266
G01 X3.2452 Y10.7059
G01 X3.2282 Y10.7012
G01 X3.2115 Y10.6956
G01 X3.1311 Y10.6669
G01 X3.1146 Y10.6605
G01 X3.0985 Y10.6534
G01 X3.0213 Y10.6169
G01 X3.0056 Y10.6090
G01 X2.9903 Y10.6003
G01 X2.9170 Y10.5564
G01 X2.9021 Y10.5470
G01 X2.8877 Y10.5368
G01 X2.8192 Y10.4860
G01 X2.8053 Y10.4751
G01 X2.7919 Y10.4636
G01 X2.7287 Y10.4063
G01 X2.7159 Y10.3941
G01 X2.7037 Y10.3813
G01 X2.6464 Y10.3181
G01 X2.6349 Y10.3047
G01 X2.6240 Y10.2908
G01 X2.5732 Y10.2223
G01 X2.5630 Y10.2079
G01 X2.5536 Y10.1930
G01 X2.5097 Y10.1197
G01 X2.5010 Y10.1044
G01 X2.4931 Y10.0887
G01 X2.4566 Y10.0115
G01 X2.4495 Y9.9954
G01 X2.4431 Y9.9789
G01 X2.4144 Y9.8985
G01 X2.4088 Y9.8818
G01 X2.4041 Y9.8648
G01 X2.3834 Y9.7820
G01 X2.3795 Y9.7648
G01 X2.3765 Y9.7474
G01 X2.3640 Y9.6630
G01 X2.3618 Y9.6455
G01 X2.3605 Y9.6279
G01 X2.3563 Y9.5426
G01 X2.3559 Y9.5250
G01 X2.3563 Y9.5074
G01 X2.3605 Y9.4221
G01 X2.3618 Y9.4045
G01 X2.3640 Y9.3870
G01 X2.3765 Y9.3026
G01 X2.3795 Y9.2852
G01 X2.3834 Y9.2680
G01 X2.4041 Y9.1852
G01 X2.4088 Y9.1682
G01 X2.4144 Y9.1515
G01 X2.4431 Y9.0711
G01 X2.4495 Y9.0546
G01 X2.4566 Y9.0385
G01 X2.4931 Y8.9613
G01 X2.5053 Y8.9379
G01 X2.5536 Y8.8570
G01 X2.5630 Y8.8421
G01 X2.5732 Y8.8277
G01 X2.6240 Y8.7592
G01 X2.6349 Y8.7453
G01 X2.6464 Y8.7319
G01 X2.7037 Y8.6687
G01 X2.7159 Y8.6559
G01 X2.7287 Y8.6437
G01 X2.7919 Y8.5864
G01 X2.8053 Y8.5749
G01 X2.8192 Y8.5640
G01 X2.8877 Y8.5132
G01 X2.9021 Y8.5030
G01 X2.9170 Y8.4936
G01 X2.9903 Y8.4497
G01 X3.0056 Y8.4410
G01 X3.0213 Y8.4331
G01 X3.0985 Y8.3966
G01 X3.1146 Y8.3895
G01 X3.1311 Y8.3831
G01 X3.2115 Y8.3544
G01 X3.2282 Y8.3488
G01 X3.2452 Y8.3441
G01 X3.3280 Y8.3234
G01 X3.3452 Y8.3195
G01 X3.3626 Y8.3165
G01 X3.4470 Y8.3040
G01 X3.4645 Y8.3018
G01 X3.4821 Y8.3005
G01 X3.5674 Y8.2963
G01 X3.5850 Y8.2959
G01 X4.0438 Y8.2960
G01 X4.1467 Y8.3011
G01 X4.1730 Y8.3040
G01 X4.2574 Y8.3165
G01 X4.2748 Y8.3195
G01 X4.2920 Y8.3234
G01 X4.3833 Y8.3464
G01 X4.4085 Y8.3544
G01 X4.4972 Y8.3862
G01 X4.5215 Y8.3966
G01 X4.5801 Y8.4243
G01 X4.6441 Y8.4338
G01 X4.6701 Y8.4387
G01 X4.7586 Y8.4608
G01 X4.7838 Y8.4688
G01 X4.8531 Y8.4936
G01 X4.8696 Y8.5000
G01 X4.8857 Y8.5071
G01 X4.9523 Y8.5386
G01 X4.9680 Y8.5465
G01 X4.9833 Y8.5552
G01 X5.0465 Y8.5931
G01 X5.0614 Y8.6025
G01 X5.0758 Y8.6127
G01 X5.1420 Y8.6619
G01 X5.1622 Y8.6789
G01 X5.2168 Y8.7283
G01 X5.2295 Y8.7405
G01 X5.2417 Y8.7532
G01 X5.2911 Y8.8078
G01 X5.3081 Y8.8280
G01 X5.3573 Y8.8942
G01 X5.3675 Y8.9086
G01 X5.3790 Y8.9270
G01 X6.4655 Y7.8405
G01 X6.4656 Y5.6042
G01 X6.4696 Y5.5218
G01 X6.4709 Y5.5042
G01 X6.4730 Y5.4868
G01 X6.4838 Y5.4139
G01 X6.4868 Y5.3965
G01 X6.4907 Y5.3793
G01 X6.5086 Y5.3079
G01 X6.5160 Y5.2825
G01 X6.5436 Y5.2049
G01 X6.5534 Y5.1803
G01 X6.5925 Y5.0978
G01 X6.6052 Y5.0747
G01 X6.6431 Y5.0115
G01 X6.6525 Y4.9966
G01 X6.6626 Y4.9822
G01 X6.7065 Y4.9230
G01 X6.7230 Y4.9024
G01 X6.7783 Y4.8412
G01 X6.7905 Y4.8285
G01 X8.3159 Y3.3030
G01 X8.3159 Y2.3250
G01 X8.3163 Y2.3074
G01 X8.3176 Y2.2898
G01 X8.3212 Y2.2636
G01 X8.3246 Y2.2463
G01 X8.3289 Y2.2292
G01 X8.3340 Y2.2124
G01 X8.3400 Y2.1958
G01 X8.3467 Y2.1795
G01 X8.3542 Y2.1635
G01 X8.3626 Y2.1480
G01 X8.3716 Y2.1329
G01 X8.3814 Y2.1182
G01 X8.3919 Y2.1041
G01 X8.4031 Y2.0904
G01 X8.4149 Y2.0774
G01 X8.4274 Y2.0649
G01 X8.4404 Y2.0531
G01 X8.4541 Y2.0419
G01 X8.4755 Y2.0264
G01 X8.4980 Y2.0126
G01 X8.5215 Y2.0004
G01 X8.5458 Y1.9900
G01 X8.5708 Y1.9814
G01 X8.5963 Y1.9746
G01 X8.6223 Y1.9698
G01 X8.6398 Y1.9676
G01 X8.6574 Y1.9663
G01 X8.6750 Y1.9659
G01 X10.3838 Y1.9660
G01 X10.4014 Y1.9669
G01 X10.4190 Y1.9686
G01 X10.4364 Y1.9712
G01 X10.4537 Y1.9746
G01 X10.4708 Y1.9789
G01 X10.4876 Y1.9840
G01 X10.5042 Y1.9900
G01 X10.5205 Y1.9967
G01 X10.5365 Y2.0042
G01 X10.5520 Y2.0126
G01 X10.5671 Y2.0216
G01 X10.5818 Y2.0314
G01 X10.5959 Y2.0419
G01 X10.6096 Y2.0531
G01 X10.6226 Y2.0649
G01 X10.6351 Y2.0774
G01 X10.6469 Y2.0904
G01 X10.6581 Y2.1041
G01 X10.6686 Y2.1182
G01 X10.6784 Y2.1329
G01 X10.6917 Y2.1557
G01 X10.6996 Y2.1715
G01 X10.7068 Y2.1876
G01 X10.7160 Y2.2124
G01 X10.7211 Y2.2292
G01 X10.7254 Y2.2463
G01 X10.7288 Y2.2636
G01 X10.7314 Y2.2810
G01 X10.7337 Y2.3074
G01 X10.7341 Y2.3250
G01 X10.7341 Y4.0250
G01 X10.7337 Y4.0426
G01 X10.7324 Y4.0602
G01 X10.7302 Y4.0777
G01 X10.7272 Y4.0951
G01 X10.7211 Y4.1208
G01 X10.7131 Y4.1460
G01 X10.7033 Y4.1705
G01 X10.6958 Y4.1865
G01 X10.6874 Y4.2020
G01 X10.6736 Y4.2245
G01 X10.6581 Y4.2459
G01 X10.6469 Y4.2596
G01 X10.6351 Y4.2726
G01 X10.6162 Y4.2911
G01 X10.5959 Y4.3081
G01 X10.5818 Y4.3186
G01 X10.5671 Y4.3284
G01 X10.5520 Y4.3374
G01 X10.5365 Y4.3458
G01 X10.5205 Y4.3533
G01 X10.5042 Y4.3600
G01 X10.4876 Y4.3660
G01 X10.4708 Y4.3711
G01 X10.4537 Y4.3754
G01 X10.4364 Y4.3788
G01 X10.4190 Y4.3814
G01 X10.4014 Y4.3831
G01 X10.3838 Y4.3840
G01 X10.3676 Y4.3841
G01 X10.3217 Y4.4347
G01 X10.3095 Y4.4475
G01 X10.1514 Y4.6056
G01 X10.9555 Y4.6055
G01 X10.9555 Y3.6548
G01 X10.9479 Y3.6377
G01 X10.9416 Y3.6213
G01 X10.9106 Y3.5344
G01 X10.9033 Y3.5090
G01 X10.8830 Y3.4281
G01 X10.8791 Y3.4109
G01 X10.8761 Y3.3935
G01 X10.8639 Y3.3110
G01 X10.8617 Y3.2935
G01 X10.8604 Y3.2759
G01 X10.8563 Y3.1926
G01 X10.8559 Y3.1750
G01 X10.8563 Y3.1574
G01 X10.8604 Y3.0741
G01 X10.8617 Y3.0565
G01 X10.8639 Y3.0390
G01 X10.8775 Y2.9478
G01 X10.8830 Y2.9219
G01 X10.9033 Y2.8410
G01 X10.9080 Y2.8240
G01 X10.9135 Y2.8073
G01 X10.9416 Y2.7287
G01 X10.9479 Y2.7123
G01 X10.9551 Y2.6962
G01 X10.9907 Y2.6208
G01 X10.9987 Y2.6050
G01 X11.0074 Y2.5897
G01 X11.0502 Y2.5182
G01 X11.0597 Y2.5033
G01 X11.0698 Y2.4888
G01 X11.1195 Y2.4219
G01 X11.1304 Y2.4080
G01 X11.1419 Y2.3946
G01 X11.1979 Y2.3328
G01 X11.2100 Y2.3200
G01 X11.2228 Y2.3079
G01 X11.2846 Y2.2519
G01 X11.2980 Y2.2404
G01 X11.3119 Y2.2295
G01 X11.3788 Y2.1798
G01 X11.3933 Y2.1697
G01 X11.4082 Y2.1602
G01 X11.4797 Y2.1174
G01 X11.4950 Y2.1087
G01 X11.5108 Y2.1007
G01 X11.5862 Y2.0651
G01 X11.6023 Y2.0579
G01 X11.6187 Y2.0516
G01 X11.6973 Y2.0235
G01 X11.7140 Y2.0180
G01 X11.7310 Y2.0133
G01 X11.8119 Y1.9930
G01 X11.8291 Y1.9891
G01 X11.8465 Y1.9861
G01 X11.9290 Y1.9739
G01 X11.9465 Y1.9717
G01 X11.9641 Y1.9704
G01 X12.0474 Y1.9663
G01 X12.0650 Y1.9659
G01 X12.0826 Y1.9663
G01 X12.1659 Y1.9704
G01 X12.1923 Y1.9727
G01 X12.2922 Y1.9875
G01 X12.3181 Y1.9930
G01 X12.3990 Y2.0133
G01 X12.4160 Y2.0180
G01 X12.4327 Y2.0235
G01 X12.5113 Y2.0516
G01 X12.5277 Y2.0579
G01 X12.5448 Y2.0655
G01 X14.0097 Y2.0655
G01 X14.0272 Y2.0566
G01 X14.1070 Y2.0189
G01 X14.1232 Y2.0117
G01 X14.1396 Y2.0054
G01 X14.2228 Y1.9756
G01 X14.2395 Y1.9701
G01 X14.2565 Y1.9654
G01 X14.3422 Y1.9440
G01 X14.3594 Y1.9401
G01 X14.3767 Y1.9371
G01 X14.4641 Y1.9241
G01 X14.4816 Y1.9220
G01 X14.4992 Y1.9207
G01 X14.5874 Y1.9163
G01 X14.6050 Y1.9159
G01 X14.6226 Y1.9163
G01 X14.7108 Y1.9207
G01 X14.7284 Y1.9220
G01 X14.7459 Y1.9241
G01 X14.8333 Y1.9371
G01 X14.8506 Y1.9401
G01 X14.8678 Y1.9440
G01 X14.9535 Y1.9654
G01 X14.9705 Y1.9701
G01 X14.9872 Y1.9756
G01 X15.0704 Y2.0054
G01 X15.0868 Y2.0117
G01 X15.1030 Y2.0189
G01 X15.1828 Y2.0566
G01 X15.1985 Y2.0646
G01 X15.2139 Y2.0733
G01 X15.2896 Y2.1187
G01 X15.3045 Y2.1281
G01 X15.3189 Y2.1382
G01 X15.3899 Y2.1909
G01 X15.4038 Y2.2017
G01 X15.4171 Y2.2132
G01 X15.4826 Y2.2725
G01 X15.4953 Y2.2847
G01 X15.5075 Y2.2974
G01 X15.5668 Y2.3629
G01 X15.5783 Y2.3762
G01 X15.5891 Y2.3901
G01 X15.6418 Y2.4611
G01 X15.6519 Y2.4755
G01 X15.6613 Y2.4904
G01 X15.7067 Y2.5661
G01 X15.7154 Y2.5815
G01 X15.7234 Y2.5972
G01 X15.7611 Y2.6770
G01 X15.7683 Y2.6932
G01 X15.7746 Y2.7096
G01 X15.8044 Y2.7928
G01 X15.8099 Y2.8095
G01 X15.8146 Y2.8265
G01 X15.8360 Y2.9122
G01 X15.8399 Y2.9294
G01 X15.8429 Y2.9467
G01 X15.8559 Y3.0341
G01 X15.8580 Y3.0516
G01 X15.8593 Y3.0692
G01 X15.8637 Y3.1574
G01 X15.8641 Y3.1750
G01 X15.8637 Y3.1926
G01 X15.8593 Y3.2808
G01 X15.8580 Y3.2984
G01 X15.8559 Y3.3159
G01 X15.8429 Y3.4033
G01 X15.8399 Y3.4206
G01 X15.8360 Y3.4378
G01 X15.8146 Y3.5235
G01 X15.8099 Y3.5405
G01 X15.8044 Y3.5572
G01 X15.7746 Y3.6404
G01 X15.7683 Y3.6568
G01 X15.7611 Y3.6730
G01 X15.7234 Y3.7528
G01 X15.7154 Y3.7685
G01 X15.7067 Y3.7839
G01 X15.6613 Y3.8596
G01 X15.6519 Y3.8745
G01 X15.6418 Y3.8889
G01 X15.5838 Y3.9669
G01 X15.5668 Y3.9871
G01 X15.5075 Y4.0526
G01 X15.4953 Y4.0653
G01 X15.4826 Y4.0775
G01 X15.4171 Y4.1368
G01 X15.4038 Y4.1483
G01 X15.3899 Y4.1591
G01 X15.3189 Y4.2118
G01 X15.3045 Y4.2219
G01 X15.2896 Y4.2313
G01 X15.2139 Y4.2767
G01 X15.1985 Y4.2854
G01 X15.1828 Y4.2934
G01 X15.1030 Y4.3311
G01 X15.0868 Y4.3383
G01 X15.0704 Y4.3446
G01 X14.9872 Y4.3744
G01 X14.9705 Y4.3799
G01 X14.9535 Y4.3846
G01 X14.8678 Y4.4060
G01 X14.8506 Y4.4099
G01 X14.8333 Y4.4129
G01 X14.7372 Y4.4271
G01 X14.7108 Y4.4293
G01 X14.6226 Y4.4337
G01 X14.6050 Y4.4341
G01 X14.5874 Y4.4337
G01 X14.4992 Y4.4293
G01 X14.4816 Y4.4280
G01 X14.4641 Y4.4259
G01 X14.3767 Y4.4129
G01 X14.3594 Y4.4099
G01 X14.3422 Y4.4060
G01 X14.2565 Y4.3846
G01 X14.2395 Y4.3799
G01 X14.2228 Y4.3744
G01 X14.1396 Y4.3446
G01 X14.1232 Y4.3383
G01 X14.1070 Y4.3311
G01 X14.0272 Y4.2934
G01 X14.0097 Y4.2845
G01 X13.1745 Y4.2845
G01 X13.1745 Y12.8605
G01 X19.0500 Y12.8605
G01 X19.0676 Y12.8610
G01 X19.1412 Y12.8646
G01 X19.1587 Y12.8659
G01 X19.1762 Y12.8680
G01 X19.2491 Y12.8788
G01 X19.2664 Y12.8818
G01 X19.2836 Y12.8857
G01 X19.3636 Y12.9058
G01 X19.3888 Y12.9138
G01 X19.4581 Y12.9386
G01 X19.4746 Y12.9450
G01 X19.4907 Y12.9521
G01 X19.5573 Y12.9836
G01 X19.5807 Y12.9958
G01 X19.6515 Y13.0381
G01 X19.6737 Y13.0525
G01 X19.7470 Y13.1069
G01 X19.7672 Y13.1239
G01 X19.8282 Y13.1793
G01 X23.1699 Y16.5209
G01 X23.5063 Y16.5210
G01 X23.5327 Y16.5226
G01 X23.5502 Y16.5248
G01 X23.5762 Y16.5296
G01 X23.6006 Y16.5360
G01 X23.6006 Y11.9491
G01 X21.5312 Y11.9490
G01 X21.5048 Y11.9474
G01 X21.4873 Y11.9452
G01 X21.4699 Y11.9422
G01 X21.4442 Y11.9361
G01 X21.4190 Y11.9281
G01 X21.3945 Y11.9183
G01 X21.3785 Y11.9108
G01 X21.3630 Y11.9024
G01 X21.3479 Y11.8934
G01 X21.3332 Y11.8836
G01 X21.3122 Y11.8676
G01 X21.2988 Y11.8561
G01 X21.2861 Y11.8439
G01 X21.2739 Y11.8312
G01 X21.2624 Y11.8178
G01 X21.2516 Y11.8039
G01 X21.2414 Y11.7895
G01 X21.2320 Y11.7746
G01 X21.2233 Y11.7593
G01 X21.2117 Y11.7355
G01 X21.2050 Y11.7192
G01 X21.1990 Y11.7026
G01 X21.1939 Y11.6858
G01 X21.1896 Y11.6687
G01 X21.1862 Y11.6514
G01 X21.1836 Y11.6340
G01 X21.1819 Y11.6164
G01 X21.1809 Y11.5900
G01 X21.1809 Y9.9995
G01 X19.1541 Y9.9995
G01 X19.1541 Y11.8200
G01 X19.1537 Y11.8376
G01 X19.1524 Y11.8552
G01 X19.1488 Y11.8814
G01 X19.1433 Y11.9073
G01 X19.1386 Y11.9242
G01 X19.1300 Y11.9492
G01 X19.1196 Y11.9735
G01 X19.1074 Y11.9970
G01 X19.0936 Y12.0195
G01 X19.0781 Y12.0409
G01 X19.0611 Y12.0612
G01 X19.0426 Y12.0801
G01 X19.0296 Y12.0919
G01 X19.0089 Y12.1084
G01 X18.9871 Y12.1234
G01 X18.9643 Y12.1367
G01 X18.9405 Y12.1483
G01 X18.9160 Y12.1581
G01 X18.8992 Y12.1636
G01 X18.8823 Y12.1683
G01 X18.8564 Y12.1738
G01 X18.8390 Y12.1764
G01 X18.8214 Y12.1781
G01 X18.7950 Y12.1791
G01 X15.4862 Y12.1790
G01 X15.4686 Y12.1781
G01 X15.4510 Y12.1764
G01 X15.4336 Y12.1738
G01 X15.4163 Y12.1704
G01 X15.3992 Y12.1661
G01 X15.3824 Y12.1610
G01 X15.3658 Y12.1550
G01 X15.3495 Y12.1483
G01 X15.3257 Y12.1367
G01 X15.3104 Y12.1280
G01 X15.2955 Y12.1186
G01 X15.2811 Y12.1084
G01 X15.2672 Y12.0976
G01 X15.2538 Y12.0861
G01 X15.2411 Y12.0739
G01 X15.2289 Y12.0612
G01 X15.2119 Y12.0409
G01 X15.2014 Y12.0268
G01 X15.1916 Y12.0121
G01 X15.1783 Y11.9893
G01 X15.1704 Y11.9735
G01 X15.1632 Y11.9574
G01 X15.1540 Y11.9326
G01 X15.1489 Y11.9158
G01 X15.1446 Y11.8987
G01 X15.1412 Y11.8814
G01 X15.1386 Y11.8640
G01 X15.1369 Y11.8464
G01 X15.1360 Y11.8288
G01 X15.1359 Y7.3200
G01 X15.1363 Y7.3024
G01 X15.1376 Y7.2848
G01 X15.1398 Y7.2673
G01 X15.1428 Y7.2499
G01 X15.1489 Y7.2242
G01 X15.1569 Y7.1990
G01 X15.1632 Y7.1826
G01 X15.1704 Y7.1665
G01 X15.1783 Y7.1507
G01 X15.1870 Y7.1354
G01 X15.2014 Y7.1132
G01 X15.2119 Y7.0991
G01 X15.2231 Y7.0854
G01 X15.2411 Y7.0661
G01 X15.2604 Y7.0481
G01 X15.2741 Y7.0369
G01 X15.2882 Y7.0264
G01 X15.3029 Y7.0166
G01 X15.3180 Y7.0076
G01 X15.3415 Y6.9954
G01 X15.3658 Y6.9850
G01 X15.3824 Y6.9790
G01 X15.3992 Y6.9739
G01 X15.4249 Y6.9678
G01 X15.4423 Y6.9648
G01 X15.4598 Y6.9626
G01 X15.4774 Y6.9613
G01 X15.4950 Y6.9609
G01 X18.7950 Y6.9609
G01 X18.8214 Y6.9619
G01 X18.8477 Y6.9648
G01 X18.8737 Y6.9696
G01 X18.8992 Y6.9764
G01 X18.9242 Y6.9850
G01 X18.9485 Y6.9954
G01 X18.9643 Y7.0033
G01 X18.9871 Y7.0166
G01 X19.0089 Y7.0316
G01 X19.0296 Y7.0481
G01 X19.0426 Y7.0599
G01 X19.0611 Y7.0788
G01 X19.0781 Y7.0991
G01 X19.0936 Y7.1205
G01 X19.1074 Y7.1430
G01 X19.1196 Y7.1665
G01 X19.1268 Y7.1826
G01 X19.1331 Y7.1990
G01 X19.1386 Y7.2158
G01 X19.1454 Y7.2413
G01 X19.1488 Y7.2586
G01 X19.1514 Y7.2760
G01 X19.1537 Y7.3024
G01 X19.1541 Y7.3200
G01 X19.1541 Y7.7805
G01 X21.1809 Y7.7805
G01 X21.1809 Y6.1900
G01 X21.1813 Y6.1724
G01 X21.1826 Y6.1548
G01 X21.1848 Y6.1373
G01 X21.1896 Y6.1113
G01 X21.1939 Y6.0942
G01 X21.2019 Y6.0690
G01 X21.2082 Y6.0526
G01 X21.2192 Y6.0285
G01 X21.2276 Y6.0130
G01 X21.2414 Y5.9905
G01 X21.2516 Y5.9761
G01 X21.2681 Y5.9554
G01 X21.2861 Y5.9361
G01 X21.2988 Y5.9239
G01 X21.3122 Y5.9124
G01 X21.3261 Y5.9016
G01 X21.3405 Y5.8914
G01 X21.3630 Y5.8776
G01 X21.3865 Y5.8654
G01 X21.4026 Y5.8582
G01 X21.4274 Y5.8490
G01 X21.4442 Y5.8439
G01 X21.4613 Y5.8396
G01 X21.4873 Y5.8348
G01 X21.5136 Y5.8319
G01 X21.5400 Y5.8309
G01 X24.4400 Y5.8309
G01 X24.4576 Y5.8313
G01 X24.4840 Y5.8336
G01 X24.5101 Y5.8378
G01 X24.5358 Y5.8439
G01 X24.5610 Y5.8519
G01 X24.5855 Y5.8617
G01 X24.6093 Y5.8733
G01 X24.6246 Y5.8820
G01 X24.6395 Y5.8914
G01 X24.6609 Y5.9069
G01 X24.6812 Y5.9239
G01 X24.7001 Y5.9424
G01 X24.7176 Y5.9622
G01 X24.7336 Y5.9832
G01 X24.7480 Y6.0054
G01 X24.7567 Y6.0207
G01 X24.7646 Y6.0365
G01 X24.7750 Y6.0608
G01 X24.7836 Y6.0858
G01 X24.7904 Y6.1113
G01 X24.7952 Y6.1373
G01 X24.7981 Y6.1636
G01 X24.7991 Y6.1900
G01 X24.7991 Y9.3423
G01 X25.2446 Y9.7879
G01 X25.2901 Y9.8380
G01 X25.3016 Y9.8514
G01 X25.3125 Y9.8653
G01 X25.3527 Y9.9197
G01 X25.3671 Y9.9419
G01 X25.3974 Y9.9924
G01 X25.4061 Y10.0077
G01 X25.4140 Y10.0235
G01 X25.4392 Y10.0767
G01 X25.4464 Y10.0929
G01 X25.4527 Y10.1093
G01 X25.4726 Y10.1648
G01 X25.4781 Y10.1815
G01 X25.4828 Y10.1985
G01 X25.4971 Y10.2556
G01 X25.5010 Y10.2728
G01 X25.5040 Y10.2902
G01 X25.5126 Y10.3485
G01 X25.5148 Y10.3660
G01 X25.5161 Y10.3835
G01 X25.5190 Y10.4424
G01 X25.5194 Y10.4600
G01 X25.5194 Y16.8518
G01 X25.5491 Y16.8191
G01 X25.5616 Y16.8066
G01 X25.6210 Y16.7528
G01 X25.6417 Y16.7363
G01 X25.6991 Y16.6938
G01 X25.7212 Y16.6794
G01 X25.7749 Y16.6473
G01 X25.7902 Y16.6386
G01 X25.8059 Y16.6307
G01 X25.8705 Y16.6002
G01 X25.8951 Y16.5904
G01 X25.9540 Y16.5693
G01 X25.9707 Y16.5638
G01 X25.9877 Y16.5591
G01 X26.0484 Y16.5439
G01 X26.0656 Y16.5400
G01 X26.0829 Y16.5370
G01 X26.1448 Y16.5279
G01 X26.1623 Y16.5257
G01 X26.1799 Y16.5244
G01 X26.2424 Y16.5213
G01 X26.2600 Y16.5209
G01 X26.2776 Y16.5213
G01 X26.3401 Y16.5244
G01 X26.3577 Y16.5257
G01 X26.3752 Y16.5279
G01 X26.4371 Y16.5370
G01 X26.4544 Y16.5400
G01 X26.4716 Y16.5439
G01 X26.5323 Y16.5591
G01 X26.5493 Y16.5638
G01 X26.5660 Y16.5693
G01 X26.6249 Y16.5904
G01 X26.6495 Y16.6002
G01 X26.7141 Y16.6307
G01 X26.7298 Y16.6386
G01 X26.7451 Y16.6473
G01 X26.7988 Y16.6794
G01 X26.8209 Y16.6938
G01 X26.8783 Y16.7363
G01 X26.8990 Y16.7528
G01 X26.9584 Y16.8066
G01 X26.9709 Y16.8191
G01 X27.0006 Y16.8518
G01 X27.0007 Y16.4812
G01 X27.0039 Y16.4135
G01 X27.0052 Y16.3960
G01 X27.0074 Y16.3785
G01 X27.0174 Y16.3115
G01 X27.0229 Y16.2856
G01 X27.0372 Y16.2285
G01 X27.0419 Y16.2115
G01 X27.0474 Y16.1948
G01 X27.0673 Y16.1393
G01 X27.0736 Y16.1229
G01 X27.0808 Y16.1067
G01 X27.1060 Y16.0535
G01 X27.1139 Y16.0377
G01 X27.1226 Y16.0224
G01 X27.1529 Y15.9719
G01 X27.1673 Y15.9497
G01 X27.2075 Y15.8953
G01 X27.2184 Y15.8814
G01 X27.2299 Y15.8680
G01 X27.2694 Y15.8244
G01 X27.2816 Y15.8116
G01 X28.5316 Y14.5616
G01 X28.5444 Y14.5494
G01 X28.5880 Y14.5099
G01 X28.6014 Y14.4984
G01 X28.6153 Y14.4875
G01 X28.6626 Y14.4524
G01 X28.6770 Y14.4423
G01 X28.6919 Y14.4329
G01 X28.7424 Y14.4026
G01 X28.7577 Y14.3939
G01 X28.7735 Y14.3860
G01 X28.8267 Y14.3608
G01 X28.8429 Y14.3536
G01 X28.8593 Y14.3473
G01 X28.9148 Y14.3274
G01 X28.9315 Y14.3219
G01 X28.9485 Y14.3172
G01 X29.0056 Y14.3029
G01 X29.0228 Y14.2990
G01 X29.0402 Y14.2960
G01 X29.0985 Y14.2874
G01 X29.1160 Y14.2852
G01 X29.1335 Y14.2839
G01 X29.1924 Y14.2810
G01 X29.2100 Y14.2806
G01 X31.3526 Y14.2806
G01 X32.5096 Y13.1236
G01 X32.0993 Y12.7132
G01 X32.0439 Y12.6522
G01 X32.0324 Y12.6388
G01 X32.0215 Y12.6249
G01 X31.9777 Y12.5658
G01 X31.9627 Y12.5440
G01 X31.9202 Y12.4733
G01 X31.9115 Y12.4580
G01 X31.9036 Y12.4423
G01 X31.8721 Y12.3757
G01 X31.8650 Y12.3596
G01 X31.8586 Y12.3431
G01 X31.8338 Y12.2738
G01 X31.8283 Y12.2571
G01 X31.8236 Y12.2401
G01 X31.8057 Y12.1686
G01 X31.8018 Y12.1514
G01 X31.7988 Y12.1341
G01 X31.7880 Y12.0612
G01 X31.7859 Y12.0437
G01 X31.7846 Y12.0262
G01 X31.7808 Y11.9491
G01 X31.4400 Y11.9491
G01 X31.4224 Y11.9487
G01 X31.4048 Y11.9474
G01 X31.3873 Y11.9452
G01 X31.3613 Y11.9404
G01 X31.3358 Y11.9336
G01 X31.3190 Y11.9281
G01 X31.3026 Y11.9218
G01 X31.2865 Y11.9146
G01 X31.2630 Y11.9024
G01 X31.2479 Y11.8934
G01 X31.2261 Y11.8784
G01 X31.2054 Y11.8619
G01 X31.1924 Y11.8501
G01 X31.1739 Y11.8312
G01 X31.1624 Y11.8178
G01 X31.1516 Y11.8039
G01 X31.1366 Y11.7821
G01 X31.1276 Y11.7670
G01 X31.1154 Y11.7435
G01 X31.1082 Y11.7274
G01 X31.0990 Y11.7026
G01 X31.0917 Y11.6773
G01 X31.0862 Y11.6514
G01 X31.0826 Y11.6252
G01 X31.0813 Y11.6076
G01 X31.0809 Y11.5900
G01 X31.0810 Y6.1812
G01 X31.0826 Y6.1548
G01 X31.0848 Y6.1373
G01 X31.0878 Y6.1199
G01 X31.0939 Y6.0942
G01 X31.1019 Y6.0690
G01 X31.1082 Y6.0526
G01 X31.1154 Y6.0365
G01 X31.1276 Y6.0130
G01 X31.1414 Y5.9905
G01 X31.1516 Y5.9761
G01 X31.1624 Y5.9622
G01 X31.1799 Y5.9424
G01 X31.1988 Y5.9239
G01 X31.2122 Y5.9124
G01 X31.2261 Y5.9016
G01 X31.2479 Y5.8866
G01 X31.2707 Y5.8733
G01 X31.2945 Y5.8617
G01 X31.3108 Y5.8550
G01 X31.3358 Y5.8464
G01 X31.3613 Y5.8396
G01 X31.3873 Y5.8348
G01 X31.4136 Y5.8319
G01 X31.4312 Y5.8310
G01 X34.3488 Y5.8310
G01 X34.3664 Y5.8319
G01 X34.3927 Y5.8348
G01 X34.4101 Y5.8378
G01 X34.4273 Y5.8417
G01 X34.4526 Y5.8490
G01 X34.4692 Y5.8550
G01 X34.4935 Y5.8654
G01 X34.5093 Y5.8733
G01 X34.5321 Y5.8866
G01 X34.5468 Y5.8964
G01 X34.5678 Y5.9124
G01 X34.5812 Y5.9239
G01 X34.5939 Y5.9361
G01 X34.6119 Y5.9554
G01 X34.6231 Y5.9691
G01 X34.6386 Y5.9905
G01 X34.6524 Y6.0130
G01 X34.6646 Y6.0365
G01 X34.6750 Y6.0608
G01 X34.6836 Y6.0858
G01 X34.6904 Y6.1113
G01 X34.6952 Y6.1373
G01 X34.6981 Y6.1636
G01 X34.6991 Y6.1900
G01 X34.6990 Y11.5988
G01 X34.6974 Y11.6252
G01 X34.6938 Y11.6514
G01 X34.6883 Y11.6773
G01 X34.6810 Y11.7026
G01 X34.6718 Y11.7274
G01 X34.6608 Y11.7515
G01 X34.6480 Y11.7746
G01 X34.6386 Y11.7895
G01 X34.6284 Y11.8039
G01 X34.6119 Y11.8246
G01 X34.5939 Y11.8439
G01 X34.5746 Y11.8619
G01 X34.5539 Y11.8784
G01 X34.5321 Y11.8934
G01 X34.5093 Y11.9067
G01 X34.4855 Y11.9183
G01 X34.4692 Y11.9250
G01 X34.4544 Y11.9304
G01 X34.6075 Y12.0835
G01 X35.0855 Y11.6054
G01 X35.0855 Y4.2732
G01 X35.0674 Y4.2528
G01 X35.0566 Y4.2389
G01 X35.0464 Y4.2245
G01 X35.0370 Y4.2096
G01 X35.0283 Y4.1943
G01 X35.0167 Y4.1705
G01 X35.0069 Y4.1460
G01 X35.0014 Y4.1292
G01 X34.9967 Y4.1123
G01 X34.9928 Y4.0951
G01 X34.9898 Y4.0777
G01 X34.9876 Y4.0602
G01 X34.9863 Y4.0426
G01 X34.9859 Y4.0250
G01 X34.9859 Y2.3250
G01 X34.9863 Y2.3074
G01 X34.9876 Y2.2898
G01 X34.9898 Y2.2723
G01 X34.9928 Y2.2549
G01 X34.9989 Y2.2292
G01 X35.0069 Y2.2040
G01 X35.0167 Y2.1795
G01 X35.0283 Y2.1557
G01 X35.0416 Y2.1329
G01 X35.0566 Y2.1111
G01 X35.0674 Y2.0972
G01 X35.0789 Y2.0838
G01 X35.0974 Y2.0649
G01 X35.1172 Y2.0474
G01 X35.1382 Y2.0314
G01 X35.1604 Y2.0170
G01 X35.1835 Y2.0042
G01 X35.2076 Y1.9932
G01 X35.2324 Y1.9840
G01 X35.2577 Y1.9767
G01 X35.2749 Y1.9728
G01 X35.2923 Y1.9698
G01 X35.3186 Y1.9669
G01 X35.3450 Y1.9659
G01 X37.0450 Y1.9659
G01 X37.0714 Y1.9669
G01 X37.0890 Y1.9686
G01 X37.1064 Y1.9712
G01 X37.1237 Y1.9746
G01 X37.1408 Y1.9789
G01 X37.1660 Y1.9869
G01 X37.1824 Y1.9932
G01 X37.1985 Y2.0004
G01 X37.2220 Y2.0126
G01 X37.2371 Y2.0216
G01 X37.2518 Y2.0314
G01 X37.2659 Y2.0419
G01 X37.2796 Y2.0531
G01 X37.2926 Y2.0649
G01 X37.3051 Y2.0774
G01 X37.3169 Y2.0904
G01 X37.3281 Y2.1041
G01 X37.3386 Y2.1182
G01 X37.3484 Y2.1329
G01 X37.3617 Y2.1557
G01 X37.3696 Y2.1715
G01 X37.3768 Y2.1876
G01 X37.3860 Y2.2124
G01 X37.3911 Y2.2292
G01 X37.3954 Y2.2463
G01 X37.3988 Y2.2636
G01 X37.4014 Y2.2810
G01 X37.4031 Y2.2986
G01 X37.4040 Y2.3162
G01 X37.4041 Y4.0250
G01 X37.4037 Y4.0426
G01 X37.4024 Y4.0602
G01 X37.4002 Y4.0777
G01 X37.3954 Y4.1037
G01 X37.3911 Y4.1208
G01 X37.3860 Y4.1376
G01 X37.3800 Y4.1542
G01 X37.3733 Y4.1705
G01 X37.3617 Y4.1943
G01 X37.3530 Y4.2096
G01 X37.3436 Y4.2245
G01 X37.3334 Y4.2389
G01 X37.3226 Y4.2528
G01 X37.3045 Y4.2732
G01 X37.3045 Y12.0650
G01 X37.3040 Y12.0826
G01 X37.3004 Y12.1562
G01 X37.2991 Y12.1737
G01 X37.2970 Y12.1912
G01 X37.2862 Y12.2641
G01 X37.2813 Y12.2901
G01 X37.2592 Y12.3786
G01 X37.2512 Y12.4038
G01 X37.2264 Y12.4731
G01 X37.2200 Y12.4896
G01 X37.2129 Y12.5057
G01 X37.1814 Y12.5723
G01 X37.1735 Y12.5880
G01 X37.1648 Y12.6033
G01 X37.1269 Y12.6665
G01 X37.1125 Y12.6887
G01 X37.0581 Y12.7620
G01 X37.0411 Y12.7822
G01 X36.9917 Y12.8368
G01 X36.9795 Y12.8495
G01 X36.6585 Y13.1705
G01 X37.7529 Y13.1705
G01 X37.7735 Y13.1592
G01 X37.7976 Y13.1482
G01 X37.8140 Y13.1419
G01 X37.8392 Y13.1339
G01 X37.8563 Y13.1296
G01 X37.8823 Y13.1248
G01 X37.8998 Y13.1226
G01 X37.9262 Y13.1210
G01 X39.5350 Y13.1209
G01 X39.5614 Y13.1219
G01 X39.5877 Y13.1248
G01 X39.6137 Y13.1296
G01 X39.6392 Y13.1364
G01 X39.6642 Y13.1450
G01 X39.6885 Y13.1554
G01 X39.7120 Y13.1676
G01 X39.7271 Y13.1766
G01 X39.7489 Y13.1916
G01 X39.7628 Y13.2024
G01 X39.7762 Y13.2139
G01 X39.7889 Y13.2261
G01 X39.8069 Y13.2454
G01 X39.8181 Y13.2591
G01 X39.8286 Y13.2732
G01 X39.8430 Y13.2954
G01 X39.8558 Y13.3185
G01 X39.8633 Y13.3345
G01 X39.8700 Y13.3508
G01 X39.8786 Y13.3758
G01 X39.8833 Y13.3927
G01 X39.8888 Y13.4186
G01 X39.8914 Y13.4360
G01 X39.8931 Y13.4536
G01 X39.8941 Y13.4800
G01 X39.8940 Y15.0888
G01 X39.8924 Y15.1152
G01 X39.8902 Y15.1327
G01 X39.8872 Y15.1501
G01 X39.8811 Y15.1758
G01 X39.8760 Y15.1926
G01 X39.8700 Y15.2092
G01 X39.8596 Y15.2335
G01 X39.8474 Y15.2570
G01 X39.8336 Y15.2795
G01 X39.8181 Y15.3009
G01 X39.8011 Y15.3212
G01 X39.7826 Y15.3401
G01 X39.7628 Y15.3576
G01 X39.7418 Y15.3736
G01 X39.7196 Y15.3880
G01 X39.6965 Y15.4008
G01 X39.6724 Y15.4118
G01 X39.6476 Y15.4210
G01 X39.6223 Y15.4283
G01 X39.5964 Y15.4338
G01 X39.5702 Y15.4374
G01 X39.5438 Y15.4390
G01 X37.9262 Y15.4390
G01 X37.8998 Y15.4374
G01 X37.8823 Y15.4352
G01 X37.8563 Y15.4304
G01 X37.8392 Y15.4261
G01 X37.8224 Y15.4210
G01 X37.7976 Y15.4118
G01 X37.7735 Y15.4008
G01 X37.7529 Y15.3895
G01 X35.2262 Y15.3894
G01 X35.1350 Y15.3849
G01 X35.1088 Y15.3820
G01 X35.0359 Y15.3712
G01 X35.0186 Y15.3682
G01 X35.0014 Y15.3643
G01 X34.9319 Y15.3469
G01 X34.9319 Y15.5575
G01 X34.9315 Y15.5751
G01 X34.9286 Y15.6340
G01 X34.9273 Y15.6515
G01 X34.9251 Y15.6690
G01 X34.9151 Y15.7360
G01 X34.9096 Y15.7619
G01 X34.8953 Y15.8190
G01 X34.8906 Y15.8360
G01 X34.8851 Y15.8527
G01 X34.8652 Y15.9082
G01 X34.8589 Y15.9246
G01 X34.8517 Y15.9408
G01 X34.8227 Y16.0019
G01 X34.8099 Y16.0251
G01 X34.7796 Y16.0756
G01 X34.7702 Y16.0905
G01 X34.7601 Y16.1049
G01 X34.7250 Y16.1522
G01 X34.7141 Y16.1661
G01 X34.7026 Y16.1795
G01 X34.6631 Y16.2231
G01 X34.6509 Y16.2359
G01 X34.2791 Y16.6077
G01 X34.2791 Y17.2650
G01 X34.2787 Y17.2826
G01 X34.2769 Y17.3159
G01 X34.2752 Y17.3335
G01 X34.2690 Y17.3752
G01 X34.2656 Y17.3925
G01 X34.2553 Y17.4333
G01 X34.2502 Y17.4502
G01 X34.2360 Y17.4899
G01 X34.2293 Y17.5062
G01 X34.2151 Y17.5364
G01 X34.2029 Y17.5598
G01 X34.1859 Y17.5885
G01 X34.1764 Y17.6034
G01 X34.1663 Y17.6178
G01 X34.1517 Y17.6375
G01 X34.1352 Y17.6582
G01 X34.1069 Y17.6894
G01 X34.0879 Y17.7079
G01 X34.0698 Y17.7243
G01 X34.0564 Y17.7358
G01 X34.0425 Y17.7467
G01 X34.0157 Y17.7665
G01 X33.9935 Y17.7809
G01 X33.9725 Y17.7935
G01 X33.9571 Y17.8022
G01 X33.9414 Y17.8101
G01 X33.9112 Y17.8243
G01 X33.8866 Y17.8341
G01 X33.8635 Y17.8423
G01 X33.8468 Y17.8479
G01 X33.8298 Y17.8526
G01 X33.7975 Y17.8606
G01 X33.7715 Y17.8654
G01 X33.7472 Y17.8690
G01 X33.7297 Y17.8712
G01 X33.7121 Y17.8725
G01 X33.6876 Y17.8737
G01 X33.6700 Y17.8741
G01 X32.3700 Y17.8741
G01 X32.3524 Y17.8737
G01 X32.3191 Y17.8719
G01 X32.3015 Y17.8702
G01 X32.2685 Y17.8654
G01 X32.2512 Y17.8624
G01 X32.2340 Y17.8585
G01 X32.2017 Y17.8503
G01 X32.1848 Y17.8452
G01 X32.1534 Y17.8341
G01 X32.1369 Y17.8277
G01 X32.1208 Y17.8206
G01 X32.0907 Y17.8062
G01 X32.0752 Y17.7979
G01 X32.0465 Y17.7809
G01 X32.0316 Y17.7714
G01 X32.0172 Y17.7613
G01 X31.9905 Y17.7413
G01 X31.9768 Y17.7302
G01 X31.9521 Y17.7079
G01 X31.9393 Y17.6957
G01 X31.9271 Y17.6829
G01 X31.9107 Y17.6648
G01 X31.8992 Y17.6514
G01 X31.8883 Y17.6375
G01 X31.8737 Y17.6178
G01 X31.8636 Y17.6034
G01 X31.8541 Y17.5885
G01 X31.8415 Y17.5675
G01 X31.8328 Y17.5521
G01 X31.8249 Y17.5364
G01 X31.8144 Y17.5142
G01 X31.8073 Y17.4981
G01 X31.8009 Y17.4816
G01 X31.7927 Y17.4585
G01 X31.7871 Y17.4418
G01 X31.7824 Y17.4248
G01 X31.7765 Y17.4010
G01 X31.7726 Y17.3838
G01 X31.7696 Y17.3665
G01 X31.7660 Y17.3422
G01 X31.7638 Y17.3247
G01 X31.7625 Y17.3071
G01 X31.7613 Y17.2826
G01 X31.7609 Y17.2650
G01 X31.7609 Y16.4400
G01 X31.7613 Y16.4224
G01 X31.7631 Y16.3891
G01 X31.7648 Y16.3715
G01 X31.7710 Y16.3298
G01 X31.7744 Y16.3125
G01 X31.7847 Y16.2717
G01 X31.7898 Y16.2548
G01 X31.8040 Y16.2151
G01 X31.8117 Y16.1968
G01 X31.7676 Y16.1990
G01 X31.7500 Y16.1994
G01 X29.6074 Y16.1994
G01 X29.1366 Y16.6702
G01 X29.1825 Y16.6428
G01 X29.1980 Y16.6345
G01 X29.2625 Y16.6039
G01 X29.2868 Y16.5935
G01 X29.3540 Y16.5693
G01 X29.3707 Y16.5638
G01 X29.3877 Y16.5591
G01 X29.4484 Y16.5439
G01 X29.4742 Y16.5384
G01 X29.5448 Y16.5279
G01 X29.5623 Y16.5257
G01 X29.5799 Y16.5244
G01 X29.6424 Y16.5213
G01 X29.6600 Y16.5209
G01 X29.6776 Y16.5213
G01 X29.7401 Y16.5244
G01 X29.7577 Y16.5257
G01 X29.7752 Y16.5279
G01 X29.8371 Y16.5370
G01 X29.8630 Y16.5419
G01 X29.9323 Y16.5591
G01 X29.9493 Y16.5638
G01 X29.9660 Y16.5693
G01 X30.0249 Y16.5904
G01 X30.0414 Y16.5968
G01 X30.0575 Y16.6039
G01 X30.1141 Y16.6307
G01 X30.1298 Y16.6386
G01 X30.1451 Y16.6473
G01 X30.1988 Y16.6794
G01 X30.2137 Y16.6889
G01 X30.2281 Y16.6990
G01 X30.2783 Y16.7363
G01 X30.2922 Y16.7471
G01 X30.3056 Y16.7586
G01 X30.3519 Y16.8006
G01 X30.3647 Y16.8128
G01 X30.3769 Y16.8256
G01 X30.4189 Y16.8719
G01 X30.4304 Y16.8853
G01 X30.4412 Y16.8992
G01 X30.4785 Y16.9494
G01 X30.4886 Y16.9638
G01 X30.4981 Y16.9787
G01 X30.5302 Y17.0324
G01 X30.5389 Y17.0477
G01 X30.5468 Y17.0634
G01 X30.5736 Y17.1200
G01 X30.5807 Y17.1361
G01 X30.5871 Y17.1526
G01 X30.6082 Y17.2115
G01 X30.6137 Y17.2282
G01 X30.6184 Y17.2452
G01 X30.6336 Y17.3059
G01 X30.6375 Y17.3231
G01 X30.6405 Y17.3404
G01 X30.6496 Y17.4023
G01 X30.6526 Y17.4286
G01 X30.6562 Y17.4999
G01 X30.6566 Y17.5175
G01 X30.6565 Y18.0513
G01 X30.6526 Y18.1314
G01 X30.6496 Y18.1577
G01 X30.6405 Y18.2196
G01 X30.6375 Y18.2369
G01 X30.6336 Y18.2541
G01 X30.6194 Y18.3108
G01 X30.6194 Y18.8680
G01 X37.6255 Y18.8680
G01 X37.6255 Y18.1155
G01 X37.6211 Y18.0995
G01 X37.6020 Y18.0233
G01 X37.5982 Y18.0061
G01 X37.5952 Y17.9888
G01 X37.5836 Y17.9111
G01 X37.5815 Y17.8936
G01 X37.5802 Y17.8760
G01 X37.5763 Y17.7976
G01 X37.5759 Y17.7800
G01 X37.5763 Y17.7624
G01 X37.5802 Y17.6840
G01 X37.5815 Y17.6664
G01 X37.5836 Y17.6489
G01 X37.5952 Y17.5712
G01 X37.5982 Y17.5539
G01 X37.6020 Y17.5367
G01 X37.6211 Y17.4605
G01 X37.6258 Y17.4435
G01 X37.6313 Y17.4268
G01 X37.6578 Y17.3529
G01 X37.6641 Y17.3364
G01 X37.6713 Y17.3203
G01 X37.7087 Y17.2414
G01 X37.7215 Y17.2183
G01 X37.7618 Y17.1509
G01 X37.7712 Y17.1360
G01 X37.7814 Y17.1216
G01 X37.8282 Y17.0586
G01 X37.8390 Y17.0447
G01 X37.8505 Y17.0313
G01 X37.9032 Y16.9732
G01 X37.9154 Y16.9604
G01 X37.9282 Y16.9482
G01 X37.9863 Y16.8955
G01 X37.9997 Y16.8840
G01 X38.0136 Y16.8732
G01 X38.0766 Y16.8264
G01 X38.0910 Y16.8162
G01 X38.1059 Y16.8068
G01 X38.1733 Y16.7665
G01 X38.1886 Y16.7578
G01 X38.2043 Y16.7498
G01 X38.2753 Y16.7163
G01 X38.2914 Y16.7091
G01 X38.3079 Y16.7028
G01 X38.3818 Y16.6763
G01 X38.3985 Y16.6708
G01 X38.4155 Y16.6661
G01 X38.4917 Y16.6470
G01 X38.5089 Y16.6432
G01 X38.5262 Y16.6402
G01 X38.6039 Y16.6286
G01 X38.6214 Y16.6265
G01 X38.6390 Y16.6252
G01 X38.7174 Y16.6213
G01 X38.7350 Y16.6209
G01 X38.7526 Y16.6213
G01 X38.8310 Y16.6252
G01 X38.8486 Y16.6265
G01 X38.8661 Y16.6286
G01 X38.9438 Y16.6402
G01 X38.9611 Y16.6432
G01 X38.9783 Y16.6470
G01 X39.0545 Y16.6661
G01 X39.0715 Y16.6708
G01 X39.0882 Y16.6763
G01 X39.1621 Y16.7028
G01 X39.1786 Y16.7091
G01 X39.1947 Y16.7163
G01 X39.2657 Y16.7498
G01 X39.2814 Y16.7578
G01 X39.2967 Y16.7665
G01 X39.3641 Y16.8068
G01 X39.3790 Y16.8162
G01 X39.3934 Y16.8264
G01 X39.4564 Y16.8732
G01 X39.4703 Y16.8840
G01 X39.4837 Y16.8955
G01 X39.5418 Y16.9482
G01 X39.5546 Y16.9604
G01 X39.5668 Y16.9732
G01 X39.6195 Y17.0313
G01 X39.6310 Y17.0447
G01 X39.6418 Y17.0586
G01 X39.6886 Y17.1216
G01 X39.6988 Y17.1360
G01 X39.7082 Y17.1509
G01 X39.7485 Y17.2183
G01 X39.7613 Y17.2414
G01 X39.7987 Y17.3203
G01 X39.8059 Y17.3364
G01 X39.8122 Y17.3529
G01 X39.8387 Y17.4268
G01 X39.8442 Y17.4435
G01 X39.8489 Y17.4605
G01 X39.8680 Y17.5367
G01 X39.8718 Y17.5539
G01 X39.8748 Y17.5712
G01 X39.8864 Y17.6489
G01 X39.8885 Y17.6664
G01 X39.8898 Y17.6840
G01 X39.8937 Y17.7624
G01 X39.8941 Y17.7800
G01 X39.8937 Y17.7976
G01 X39.8898 Y17.8760
G01 X39.8885 Y17.8936
G01 X39.8864 Y17.9111
G01 X39.8748 Y17.9888
G01 X39.8718 Y18.0061
G01 X39.8680 Y18.0233
G01 X39.8489 Y18.0995
G01 X39.8445 Y18.1155
G01 X39.8445 Y18.8680
G01 X48.5726 Y18.8680
G01 X48.6275 Y18.8074
G01 X48.6397 Y18.7947
G01 X48.6524 Y18.7825
G01 X48.7183 Y18.7229
G01 X48.6992 Y18.7191
G01 X48.6335 Y18.7028
G01 X48.6165 Y18.6981
G01 X48.5998 Y18.6926
G01 X48.5443 Y18.6727
G01 X48.5279 Y18.6664
G01 X48.5117 Y18.6592
G01 X48.4585 Y18.6340
G01 X48.4427 Y18.6261
G01 X48.4274 Y18.6174
G01 X48.3769 Y18.5871
G01 X48.3620 Y18.5777
G01 X48.3476 Y18.5676
G01 X48.3003 Y18.5325
G01 X48.2864 Y18.5216
G01 X48.2730 Y18.5101
G01 X48.2229 Y18.4646
G01 X46.3054 Y16.5471
G01 X46.2599 Y16.4970
G01 X46.2484 Y16.4836
G01 X46.2375 Y16.4697
G01 X46.2024 Y16.4224
G01 X46.1923 Y16.4080
G01 X46.1829 Y16.3931
G01 X46.1526 Y16.3426
G01 X46.1439 Y16.3273
G01 X46.1360 Y16.3115
G01 X46.1108 Y16.2583
G01 X46.1004 Y16.2340
G01 X46.0774 Y16.1702
G01 X46.0719 Y16.1535
G01 X46.0672 Y16.1365
G01 X46.0529 Y16.0794
G01 X46.0490 Y16.0622
G01 X46.0460 Y16.0448
G01 X46.0374 Y15.9865
G01 X46.0352 Y15.9690
G01 X46.0339 Y15.9515
G01 X46.0307 Y15.8838
G01 X46.0306 Y13.9031
G01 X45.9979 Y13.8872
G01 X45.9825 Y13.8785
G01 X45.9540 Y13.8613
G01 X45.9322 Y13.8463
G01 X45.9125 Y13.8317
G01 X45.8986 Y13.8208
G01 X45.8852 Y13.8093
G01 X45.8606 Y13.7869
G01 X45.8421 Y13.7679
G01 X45.8257 Y13.7498
G01 X45.8142 Y13.7364
G01 X45.8033 Y13.7225
G01 X45.7835 Y13.6957
G01 X45.7737 Y13.6810
G01 X45.7565 Y13.6525
G01 X45.7438 Y13.6293
G01 X45.7294 Y13.5992
G01 X45.7223 Y13.5831
G01 X45.7159 Y13.5666
G01 X45.7077 Y13.5435
G01 X45.6997 Y13.5183
G01 X45.6915 Y13.4860
G01 X45.6876 Y13.4688
G01 X45.6846 Y13.4515
G01 X45.6810 Y13.4272
G01 X45.6781 Y13.4009
G01 X45.6763 Y13.3676
G01 X45.6759 Y13.3500
G01 X45.6759 Y12.0500
G01 X45.6763 Y12.0324
G01 X45.6775 Y12.0079
G01 X45.6788 Y11.9903
G01 X45.6810 Y11.9728
G01 X45.6860 Y11.9398
G01 X45.6894 Y11.9225
G01 X45.6974 Y11.8902
G01 X45.7021 Y11.8732
G01 X45.7077 Y11.8565
G01 X45.7190 Y11.8251
G01 X45.7257 Y11.8088
G01 X45.7399 Y11.7786
G01 X45.7478 Y11.7629
G01 X45.7565 Y11.7475
G01 X45.7691 Y11.7265
G01 X45.7786 Y11.7116
G01 X45.7887 Y11.6972
G01 X45.8087 Y11.6705
G01 X45.8198 Y11.6568
G01 X45.8381 Y11.6365
G01 X45.8381 Y11.4587
G01 X45.8166 Y11.4431
G01 X45.8029 Y11.4319
G01 X45.7899 Y11.4201
G01 X45.7714 Y11.4012
G01 X45.7599 Y11.3878
G01 X45.7491 Y11.3739
G01 X45.7389 Y11.3595
G01 X45.7295 Y11.3446
G01 X45.7167 Y11.3215
G01 X45.7057 Y11.2974
G01 X45.6994 Y11.2810
G01 X45.6955 Y11.2695
G01 X43.7753 Y11.2695
G01 X43.7578 Y11.2784
G01 X43.6780 Y11.3161
G01 X43.6618 Y11.3233
G01 X43.6454 Y11.3296
G01 X43.5622 Y11.3594
G01 X43.5455 Y11.3649
G01 X43.5285 Y11.3696
G01 X43.4428 Y11.3910
G01 X43.4256 Y11.3949
G01 X43.4083 Y11.3979
G01 X43.3209 Y11.4109
G01 X43.2946 Y11.4138
G01 X43.1976 Y11.4187
G01 X43.1800 Y11.4191
G01 X43.1624 Y11.4187
G01 X43.0742 Y11.4143
G01 X43.0566 Y11.4130
G01 X43.0391 Y11.4109
G01 X42.9517 Y11.3979
G01 X42.9257 Y11.3931
G01 X42.8315 Y11.3696
G01 X42.8145 Y11.3649
G01 X42.7978 Y11.3594
G01 X42.7146 Y11.3296
G01 X42.6982 Y11.3233
G01 X42.6820 Y11.3161
G01 X42.6022 Y11.2784
G01 X42.5865 Y11.2704
G01 X42.5711 Y11.2617
G01 X42.4954 Y11.2163
G01 X42.4805 Y11.2069
G01 X42.4661 Y11.1968
G01 X42.3951 Y11.1441
G01 X42.3812 Y11.1333
G01 X42.3679 Y11.1218
G01 X42.3024 Y11.0625
G01 X42.2897 Y11.0503
G01 X42.2775 Y11.0376
G01 X42.2182 Y10.9721
G01 X42.2067 Y10.9588
G01 X42.1959 Y10.9449
G01 X42.1432 Y10.8739
G01 X42.1331 Y10.8595
G01 X42.1237 Y10.8446
G01 X42.0783 Y10.7689
G01 X42.0696 Y10.7535
G01 X42.0616 Y10.7378
G01 X42.0239 Y10.6580
G01 X42.0167 Y10.6418
G01 X42.0104 Y10.6254
G01 X41.9806 Y10.5422
G01 X41.9751 Y10.5255
G01 X41.9704 Y10.5085
G01 X41.9490 Y10.4228
G01 X41.9435 Y10.3970
G01 X41.9291 Y10.3009
G01 X41.9270 Y10.2834
G01 X41.9257 Y10.2658
G01 X41.9213 Y10.1776
G01 X41.9209 Y10.1600
G01 X41.9213 Y10.1424
G01 X41.9257 Y10.0542
G01 X41.9270 Y10.0366
G01 X41.9291 Y10.0191
G01 X41.9421 Y9.9317
G01 X41.9451 Y9.9144
G01 X41.9490 Y9.8972
G01 X41.9727 Y9.8030
G01 X41.9806 Y9.7778
G01 X42.0104 Y9.6946
G01 X42.0167 Y9.6782
G01 X42.0239 Y9.6620
G01 X42.0616 Y9.5822
G01 X42.0696 Y9.5665
G01 X42.0783 Y9.5511
G01 X42.1237 Y9.4754
G01 X42.1331 Y9.4605
G01 X42.1432 Y9.4461
G01 X42.1959 Y9.3751
G01 X42.2067 Y9.3612
G01 X42.2182 Y9.3479
G01 X42.2775 Y9.2824
G01 X42.2897 Y9.2697
G01 X42.3024 Y9.2575
G01 X42.3679 Y9.1982
G01 X42.3881 Y9.1812
G01 X42.4661 Y9.1232
G01 X42.4805 Y9.1131
G01 X42.4954 Y9.1037
G01 X42.5711 Y9.0583
G01 X42.5943 Y9.0455
G01 X42.6820 Y9.0039
G01 X42.6982 Y8.9967
G01 X42.7146 Y8.9904
G01 X42.7978 Y8.9606
G01 X42.8145 Y8.9551
G01 X42.8315 Y8.9504
G01 X42.9172 Y8.9290
G01 X42.9344 Y8.9251
G01 X42.9517 Y8.9221
G01 X43.0391 Y8.9091
G01 X43.0566 Y8.9070
G01 X43.0742 Y8.9057
G01 X43.1624 Y8.9013
G01 X43.1888 Y8.9010
G01 X43.2858 Y8.9057
G01 X43.3034 Y8.9070
G01 X43.3209 Y8.9091
G01 X43.4083 Y8.9221
G01 X43.4256 Y8.9251
G01 X43.4428 Y8.9290
G01 X43.5285 Y8.9504
G01 X43.5455 Y8.9551
G01 X43.5622 Y8.9606
G01 X43.6454 Y8.9904
G01 X43.6618 Y8.9967
G01 X43.6780 Y9.0039
G01 X43.7578 Y9.0416
G01 X43.7753 Y9.0505
G01 X45.6955 Y9.0505
G01 X45.6994 Y9.0390
G01 X45.7057 Y9.0226
G01 X45.7167 Y8.9985
G01 X45.7251 Y8.9830
G01 X45.7341 Y8.9679
G01 X45.7491 Y8.9461
G01 X45.7656 Y8.9254
G01 X45.7774 Y8.9124
G01 X45.7899 Y8.8999
G01 X45.8029 Y8.8881
G01 X45.8166 Y8.8769
G01 X45.8381 Y8.8613
G01 X45.8381 Y8.6788
G01 X45.8198 Y8.6585
G01 X45.8087 Y8.6448
G01 X45.7887 Y8.6181
G01 X45.7786 Y8.6037
G01 X45.7691 Y8.5888
G01 X45.7565 Y8.5678
G01 X45.7478 Y8.5524
G01 X45.7399 Y8.5367
G01 X45.7257 Y8.5065
G01 X45.7190 Y8.4902
G01 X45.7077 Y8.4589
G01 X45.7021 Y8.4421
G01 X45.6974 Y8.4251
G01 X45.6894 Y8.3928
G01 X45.6860 Y8.3755
G01 X45.6798 Y8.3338
G01 X45.6781 Y8.3162
G01 X45.6763 Y8.2829
G01 X45.6759 Y8.2653
G01 X45.6759 Y6.9653
G01 X45.6763 Y6.9477
G01 X45.6775 Y6.9232
G01 X45.6788 Y6.9056
G01 X45.6810 Y6.8881
G01 X45.6846 Y6.8638
G01 X45.6894 Y6.8378
G01 X45.6974 Y6.8055
G01 X45.7021 Y6.7885
G01 X45.7077 Y6.7718
G01 X45.7159 Y6.7487
G01 X45.7223 Y6.7322
G01 X45.7294 Y6.7161
G01 X45.7438 Y6.6860
G01 X45.7521 Y6.6705
G01 X45.7691 Y6.6418
G01 X45.7786 Y6.6269
G01 X45.7887 Y6.6125
G01 X45.8087 Y6.5858
G01 X45.8198 Y6.5721
G01 X45.8421 Y6.5474
G01 X45.8543 Y6.5346
G01 X45.8671 Y6.5224
G01 X45.8852 Y6.5060
G01 X45.8986 Y6.4945
G01 X45.9125 Y6.4836
G01 X45.9393 Y6.4638
G01 X45.9540 Y6.4540
G01 X45.9825 Y6.4368
G01 X45.9979 Y6.4281
G01 X46.0136 Y6.4202
G01 X46.0438 Y6.4060
G01 X46.0601 Y6.3993
G01 X46.0915 Y6.3880
G01 X46.1082 Y6.3824
G01 X46.1252 Y6.3777
G01 X46.1490 Y6.3718
G01 X46.1662 Y6.3679
G01 X46.1835 Y6.3649
G01 X46.2165 Y6.3601
G01 X46.2341 Y6.3584
G01 X46.2674 Y6.3566
G01 X46.2850 Y6.3562
G01 X47.1100 Y6.3562
G01 X47.1276 Y6.3566
G01 X47.1521 Y6.3578
G01 X47.1697 Y6.3591
G01 X47.1872 Y6.3613
G01 X47.2115 Y6.3649
G01 X47.2288 Y6.3679
G01 X47.2460 Y6.3718
G01 X47.2698 Y6.3777
G01 X47.2868 Y6.3824
G01 X47.3035 Y6.3880
G01 X47.3266 Y6.3962
G01 X47.3431 Y6.4026
G01 X47.3592 Y6.4097
G01 X47.3814 Y6.4202
G01 X47.3971 Y6.4281
G01 X47.4125 Y6.4368
G01 X47.4335 Y6.4494
G01 X47.4484 Y6.4589
G01 X47.4628 Y6.4690
G01 X47.4825 Y6.4836
G01 X47.4964 Y6.4945
G01 X47.5098 Y6.5060
G01 X47.5279 Y6.5224
G01 X47.5407 Y6.5346
G01 X47.5529 Y6.5474
G01 X47.5693 Y6.5655
G01 X47.5808 Y6.5789
G01 X47.5917 Y6.5928
G01 X47.6063 Y6.6125
G01 X47.6213 Y6.6343
G01 X47.6429 Y6.6705
G01 X47.6551 Y6.6939
G01 X47.6656 Y6.7161
G01 X47.6727 Y6.7322
G01 X47.6791 Y6.7487
G01 X47.6902 Y6.7801
G01 X47.6976 Y6.8055
G01 X47.7035 Y6.8293
G01 X47.7074 Y6.8465
G01 X47.7104 Y6.8638
G01 X47.7152 Y6.8968
G01 X47.7175 Y6.9232
G01 X47.7187 Y6.9477
G01 X47.7191 Y6.9653
G01 X47.7190 Y8.2741
G01 X47.7175 Y8.3074
G01 X47.7162 Y8.3250
G01 X47.7140 Y8.3425
G01 X47.7104 Y8.3668
G01 X47.7074 Y8.3841
G01 X47.7035 Y8.4013
G01 X47.6976 Y8.4251
G01 X47.6929 Y8.4421
G01 X47.6873 Y8.4589
G01 X47.6791 Y8.4820
G01 X47.6727 Y8.4984
G01 X47.6656 Y8.5145
G01 X47.6551 Y8.5367
G01 X47.6472 Y8.5524
G01 X47.6385 Y8.5678
G01 X47.6213 Y8.5963
G01 X47.6115 Y8.6110
G01 X47.5863 Y8.6448
G01 X47.5752 Y8.6585
G01 X47.5569 Y8.6788
G01 X47.5569 Y8.8009
G01 X47.9513 Y8.8010
G01 X47.9777 Y8.8026
G01 X47.9952 Y8.8048
G01 X48.0126 Y8.8078
G01 X48.0383 Y8.8139
G01 X48.0551 Y8.8190
G01 X48.0717 Y8.8250
G01 X48.0960 Y8.8354
G01 X48.1118 Y8.8433
G01 X48.1271 Y8.8520
G01 X48.1493 Y8.8664
G01 X48.1703 Y8.8824
G01 X48.1837 Y8.8939
G01 X48.1964 Y8.9061
G01 X48.2144 Y8.9254
G01 X48.2309 Y8.9461
G01 X48.2459 Y8.9679
G01 X48.2592 Y8.9907
G01 X48.2708 Y9.0145
G01 X48.2806 Y9.0390
G01 X48.2886 Y9.0642
G01 X48.2947 Y9.0899
G01 X48.2989 Y9.1160
G01 X48.3012 Y9.1424
G01 X48.3016 Y9.1600
G01 X48.3016 Y9.6558
G01 X48.3150 Y9.6188
G01 X48.3217 Y9.6025
G01 X48.3692 Y9.5020
G01 X48.3820 Y9.4789
G01 X48.4300 Y9.3987
G01 X48.4444 Y9.3765
G01 X48.5053 Y9.2943
G01 X48.5161 Y9.2804
G01 X48.5276 Y9.2671
G01 X48.5904 Y9.1978
G01 X48.6026 Y9.1851
G01 X48.6153 Y9.1729
G01 X48.6706 Y9.1228
G01 X48.6707 Y7.9078
G01 X48.6711 Y7.8902
G01 X48.6740 Y7.8324
G01 X48.6769 Y7.8061
G01 X48.6841 Y7.7575
G01 X48.6872 Y7.7402
G01 X48.6910 Y7.7230
G01 X48.7030 Y7.6753
G01 X48.7103 Y7.6499
G01 X48.7328 Y7.5871
G01 X48.7432 Y7.5628
G01 X48.7642 Y7.5185
G01 X48.7721 Y7.5027
G01 X48.7808 Y7.4874
G01 X48.8009 Y7.4539
G01 X48.8010 Y6.9565
G01 X48.8025 Y6.9232
G01 X48.8038 Y6.9056
G01 X48.8060 Y6.8881
G01 X48.8096 Y6.8638
G01 X48.8144 Y6.8378
G01 X48.8247 Y6.7970
G01 X48.8327 Y6.7718
G01 X48.8409 Y6.7487
G01 X48.8473 Y6.7322
G01 X48.8544 Y6.7161
G01 X48.8649 Y6.6939
G01 X48.8771 Y6.6705
G01 X48.8987 Y6.6343
G01 X48.9137 Y6.6125
G01 X48.9283 Y6.5928
G01 X48.9392 Y6.5789
G01 X48.9507 Y6.5655
G01 X48.9671 Y6.5474
G01 X48.9856 Y6.5284
G01 X49.0168 Y6.5001
G01 X49.0375 Y6.4836
G01 X49.0572 Y6.4690
G01 X49.0716 Y6.4589
G01 X49.0865 Y6.4494
G01 X49.1075 Y6.4368
G01 X49.1229 Y6.4281
G01 X49.1386 Y6.4202
G01 X49.1608 Y6.4097
G01 X49.1851 Y6.3993
G01 X49.2165 Y6.3880
G01 X49.2332 Y6.3824
G01 X49.2502 Y6.3777
G01 X49.2740 Y6.3718
G01 X49.2912 Y6.3679
G01 X49.3085 Y6.3649
G01 X49.3328 Y6.3613
G01 X49.3503 Y6.3591
G01 X49.3679 Y6.3578
G01 X49.4012 Y6.3563
G01 X50.2350 Y6.3562
G01 X50.2526 Y6.3566
G01 X50.2771 Y6.3578
G01 X50.2947 Y6.3591
G01 X50.3122 Y6.3613
G01 X50.3365 Y6.3649
G01 X50.3538 Y6.3679
G01 X50.3710 Y6.3718
G01 X50.3948 Y6.3777
G01 X50.4202 Y6.3851
G01 X50.4516 Y6.3962
G01 X50.4681 Y6.4026
G01 X50.4842 Y6.4097
G01 X50.5064 Y6.4202
G01 X50.5298 Y6.4324
G01 X50.5660 Y6.4540
G01 X50.5878 Y6.4690
G01 X50.6075 Y6.4836
G01 X50.6214 Y6.4945
G01 X50.6348 Y6.5060
G01 X50.6529 Y6.5224
G01 X50.6719 Y6.5409
G01 X50.6943 Y6.5655
G01 X50.7058 Y6.5789
G01 X50.7167 Y6.5928
G01 X50.7313 Y6.6125
G01 X50.7463 Y6.6343
G01 X50.7635 Y6.6628
G01 X50.7722 Y6.6782
G01 X50.7801 Y6.6939
G01 X50.7906 Y6.7161
G01 X50.8009 Y6.7402
G01 X50.8057 Y6.7288
G01 X50.8199 Y6.6986
G01 X50.8321 Y6.6752
G01 X50.8537 Y6.6390
G01 X50.8687 Y6.6172
G01 X50.8833 Y6.5975
G01 X50.8942 Y6.5836
G01 X50.9057 Y6.5702
G01 X50.9281 Y6.5456
G01 X50.9471 Y6.5271
G01 X50.9652 Y6.5107
G01 X50.9786 Y6.4992
G01 X50.9925 Y6.4883
G01 X51.0193 Y6.4685
G01 X51.0415 Y6.4541
G01 X51.0625 Y6.4415
G01 X51.0779 Y6.4328
G01 X51.0936 Y6.4249
G01 X51.1238 Y6.4107
G01 X51.1484 Y6.4009
G01 X51.1715 Y6.3927
G01 X51.1882 Y6.3871
G01 X51.2052 Y6.3824
G01 X51.2375 Y6.3744
G01 X51.2635 Y6.3696
G01 X51.2965 Y6.3648
G01 X51.3141 Y6.3631
G01 X51.3474 Y6.3613
G01 X51.3650 Y6.3609
G01 X52.1900 Y6.3609
G01 X52.2076 Y6.3613
G01 X52.2409 Y6.3631
G01 X52.2672 Y6.3660
G01 X52.3002 Y6.3710
G01 X52.3175 Y6.3744
G01 X52.3498 Y6.3824
G01 X52.3668 Y6.3871
G01 X52.3835 Y6.3927
G01 X52.4066 Y6.4009
G01 X52.4312 Y6.4107
G01 X52.4614 Y6.4249
G01 X52.4771 Y6.4328
G01 X52.4925 Y6.4415
G01 X52.5210 Y6.4587
G01 X52.5428 Y6.4737
G01 X52.5695 Y6.4937
G01 X52.5832 Y6.5048
G01 X52.6144 Y6.5331
G01 X52.6329 Y6.5521
G01 X52.6493 Y6.5702
G01 X52.6608 Y6.5836
G01 X52.6717 Y6.5975
G01 X52.6863 Y6.6172
G01 X52.7013 Y6.6390
G01 X52.7185 Y6.6675
G01 X52.7312 Y6.6907
G01 X52.7493 Y6.7288
G01 X52.7560 Y6.7451
G01 X52.7702 Y6.7848
G01 X52.7753 Y6.8017
G01 X52.7856 Y6.8425
G01 X52.7890 Y6.8598
G01 X52.7940 Y6.8928
G01 X52.7969 Y6.9191
G01 X52.7987 Y6.9524
G01 X52.7991 Y6.9700
G01 X52.7991 Y8.2700
G01 X52.7987 Y8.2876
G01 X52.7969 Y8.3209
G01 X52.7940 Y8.3472
G01 X52.7890 Y8.3802
G01 X52.7856 Y8.3975
G01 X52.7776 Y8.4298
G01 X52.7729 Y8.4468
G01 X52.7673 Y8.4635
G01 X52.7560 Y8.4949
G01 X52.7493 Y8.5112
G01 X52.7351 Y8.5414
G01 X52.7229 Y8.5648
G01 X52.7059 Y8.5935
G01 X52.6964 Y8.6084
G01 X52.6863 Y8.6228
G01 X52.6663 Y8.6495
G01 X52.6552 Y8.6632
G01 X52.6329 Y8.6879
G01 X52.6144 Y8.7069
G01 X52.5898 Y8.7293
G01 X52.5764 Y8.7408
G01 X52.5625 Y8.7517
G01 X52.5357 Y8.7715
G01 X52.5210 Y8.7813
G01 X52.4925 Y8.7985
G01 X52.4693 Y8.8112
G01 X52.4312 Y8.8293
G01 X52.4149 Y8.8360
G01 X52.3955 Y8.8431
G01 X52.4423 Y8.8549
G01 X52.4591 Y8.8600
G01 X52.5555 Y8.8944
G01 X52.5800 Y8.9042
G01 X52.6725 Y8.9478
G01 X52.6883 Y8.9558
G01 X52.7036 Y8.9645
G01 X52.7913 Y9.0171
G01 X52.8131 Y9.0321
G01 X52.8882 Y9.0878
G01 X52.9021 Y9.0986
G01 X52.9154 Y9.1101
G01 X52.9847 Y9.1729
G01 X53.0036 Y9.1914
G01 X53.0724 Y9.2671
G01 X53.0839 Y9.2804
G01 X53.0994 Y9.3006
G01 X53.6190 Y9.3006
G01 X54.0431 Y8.8765
G01 X54.0431 Y8.6835
G01 X54.0248 Y8.6632
G01 X54.0137 Y8.6495
G01 X53.9937 Y8.6228
G01 X53.9836 Y8.6084
G01 X53.9741 Y8.5935
G01 X53.9615 Y8.5725
G01 X53.9528 Y8.5571
G01 X53.9449 Y8.5414
G01 X53.9307 Y8.5112
G01 X53.9240 Y8.4949
G01 X53.9127 Y8.4635
G01 X53.9071 Y8.4468
G01 X53.9024 Y8.4298
G01 X53.8944 Y8.3975
G01 X53.8910 Y8.3802
G01 X53.8848 Y8.3385
G01 X53.8831 Y8.3209
G01 X53.8813 Y8.2876
G01 X53.8809 Y8.2700
G01 X53.8810 Y6.9612
G01 X53.8831 Y6.9191
G01 X53.8848 Y6.9015
G01 X53.8910 Y6.8598
G01 X53.8944 Y6.8425
G01 X53.9047 Y6.8017
G01 X53.9098 Y6.7848
G01 X53.9240 Y6.7451
G01 X53.9344 Y6.7208
G01 X53.9488 Y6.6907
G01 X53.9571 Y6.6752
G01 X53.9787 Y6.6390
G01 X53.9937 Y6.6172
G01 X54.0083 Y6.5975
G01 X54.0192 Y6.5836
G01 X54.0307 Y6.5702
G01 X54.0471 Y6.5521
G01 X54.0656 Y6.5331
G01 X54.0902 Y6.5107
G01 X54.1036 Y6.4992
G01 X54.1175 Y6.4883
G01 X54.1443 Y6.4685
G01 X54.1590 Y6.4587
G01 X54.1875 Y6.4415
G01 X54.2029 Y6.4328
G01 X54.2186 Y6.4249
G01 X54.2488 Y6.4107
G01 X54.2651 Y6.4040
G01 X54.2965 Y6.3927
G01 X54.3132 Y6.3871
G01 X54.3302 Y6.3824
G01 X54.3625 Y6.3744
G01 X54.3798 Y6.3710
G01 X54.4128 Y6.3660
G01 X54.4303 Y6.3638
G01 X54.4479 Y6.3625
G01 X54.4724 Y6.3613
G01 X54.4900 Y6.3609
G01 X55.3150 Y6.3609
G01 X55.3326 Y6.3613
G01 X55.3659 Y6.3631
G01 X55.3835 Y6.3648
G01 X55.4165 Y6.3696
G01 X55.4338 Y6.3726
G01 X55.4510 Y6.3765
G01 X55.4833 Y6.3847
G01 X55.5002 Y6.3898
G01 X55.5316 Y6.4009
G01 X55.5481 Y6.4073
G01 X55.5642 Y6.4144
G01 X55.5864 Y6.4249
G01 X55.6098 Y6.4371
G01 X55.6385 Y6.4541
G01 X55.6534 Y6.4636
G01 X55.6678 Y6.4737
G01 X55.6945 Y6.4937
G01 X55.7148 Y6.5107
G01 X55.7329 Y6.5271
G01 X55.7457 Y6.5393
G01 X55.7579 Y6.5521
G01 X55.7802 Y6.5768
G01 X55.7913 Y6.5905
G01 X55.8113 Y6.6172
G01 X55.8263 Y6.6390
G01 X55.8435 Y6.6675
G01 X55.8522 Y6.6829
G01 X55.8601 Y6.6986
G01 X55.8743 Y6.7288
G01 X55.8810 Y6.7451
G01 X55.8923 Y6.7765
G01 X55.9003 Y6.8017
G01 X55.9085 Y6.8340
G01 X55.9124 Y6.8512
G01 X55.9154 Y6.8685
G01 X55.9190 Y6.8928
G01 X55.9219 Y6.9191
G01 X55.9240 Y6.9612
G01 X55.9241 Y8.2700
G01 X55.9237 Y8.2876
G01 X55.9225 Y8.3121
G01 X55.9212 Y8.3297
G01 X55.9190 Y8.3472
G01 X55.9140 Y8.3802
G01 X55.9106 Y8.3975
G01 X55.9026 Y8.4298
G01 X55.8979 Y8.4468
G01 X55.8923 Y8.4635
G01 X55.8810 Y8.4949
G01 X55.8743 Y8.5112
G01 X55.8601 Y8.5414
G01 X55.8522 Y8.5571
G01 X55.8435 Y8.5725
G01 X55.8309 Y8.5935
G01 X55.8214 Y8.6084
G01 X55.8113 Y8.6228
G01 X55.7913 Y8.6495
G01 X55.7802 Y8.6632
G01 X55.7619 Y8.6835
G01 X55.7618 Y9.2325
G01 X55.7614 Y9.2501
G01 X55.7585 Y9.3080
G01 X55.7556 Y9.3342
G01 X55.7470 Y9.3915
G01 X55.7415 Y9.4173
G01 X55.7295 Y9.4650
G01 X55.7248 Y9.4820
G01 X55.7193 Y9.4987
G01 X55.7028 Y9.5449
G01 X55.6930 Y9.5695
G01 X55.6683 Y9.6219
G01 X55.6604 Y9.6376
G01 X55.6517 Y9.6529
G01 X55.6265 Y9.6950
G01 X55.6170 Y9.7099
G01 X55.6069 Y9.7243
G01 X55.5776 Y9.7638
G01 X55.5668 Y9.7777
G01 X55.5553 Y9.7910
G01 X55.5223 Y9.8274
G01 X55.5102 Y9.8402
G01 X54.5827 Y10.7677
G01 X54.5699 Y10.7798
G01 X54.5269 Y10.8186
G01 X54.5063 Y10.8351
G01 X54.4668 Y10.8644
G01 X54.4524 Y10.8745
G01 X54.4375 Y10.8840
G01 X54.3954 Y10.9092
G01 X54.3801 Y10.9179
G01 X54.3644 Y10.9258
G01 X54.3200 Y10.9468
G01 X54.3039 Y10.9539
G01 X54.2874 Y10.9603
G01 X54.2412 Y10.9768
G01 X54.2245 Y10.9823
G01 X54.2075 Y10.9870
G01 X54.1598 Y10.9990
G01 X54.1427 Y11.0028
G01 X54.1253 Y11.0059
G01 X54.0767 Y11.0131
G01 X54.0505 Y11.0160
G01 X53.9926 Y11.0189
G01 X53.9750 Y11.0193
G01 X53.0994 Y11.0193
G01 X53.0894 Y11.0327
G01 X53.0782 Y11.0463
G01 X53.0294 Y11.1003
G01 X53.0294 Y12.3026
G01 X53.3834 Y12.6566
G01 X53.3956 Y12.6694
G01 X53.4410 Y12.7196
G01 X53.4575 Y12.7403
G01 X53.4926 Y12.7876
G01 X53.5027 Y12.8020
G01 X53.5121 Y12.8169
G01 X53.5424 Y12.8674
G01 X53.5511 Y12.8827
G01 X53.5590 Y12.8985
G01 X53.5879 Y12.9598
G01 X53.5977 Y12.9843
G01 X53.6176 Y13.0398
G01 X53.6231 Y13.0565
G01 X53.6278 Y13.0735
G01 X53.6421 Y13.1306
G01 X53.6476 Y13.1565
G01 X53.6576 Y13.2235
G01 X53.6605 Y13.2497
G01 X53.6640 Y13.3174
G01 X53.6644 Y13.3350
G01 X53.6644 Y14.0480
G01 X53.6842 Y14.0550
G01 X53.7085 Y14.0654
G01 X53.7320 Y14.0776
G01 X53.7545 Y14.0914
G01 X53.7759 Y14.1069
G01 X53.7962 Y14.1239
G01 X53.8151 Y14.1424
G01 X53.8326 Y14.1622
G01 X53.8486 Y14.1832
G01 X53.8584 Y14.1979
G01 X53.8717 Y14.2207
G01 X53.8833 Y14.2445
G01 X53.8931 Y14.2690
G01 X53.9011 Y14.2942
G01 X53.9072 Y14.3199
G01 X53.9114 Y14.3460
G01 X53.9137 Y14.3724
G01 X53.9141 Y14.3900
G01 X53.9141 Y16.0900
G01 X53.9137 Y16.1076
G01 X53.9124 Y16.1252
G01 X53.9088 Y16.1514
G01 X53.9033 Y16.1773
G01 X53.8986 Y16.1942
G01 X53.8900 Y16.2192
G01 X53.8796 Y16.2435
G01 X53.8717 Y16.2593
G01 X53.8630 Y16.2746
G01 X53.8486 Y16.2968
G01 X53.8381 Y16.3109
G01 X53.8211 Y16.3312
G01 X53.8026 Y16.3501
G01 X53.7896 Y16.3619
G01 X53.7689 Y16.3784
G01 X53.7545 Y16.3886
G01 X53.7320 Y16.4024
G01 X53.7165 Y16.4108
G01 X53.7005 Y16.4183
G01 X53.6842 Y16.4250
G01 X53.6592 Y16.4336
G01 X53.6423 Y16.4383
G01 X53.6251 Y16.4422
G01 X53.6077 Y16.4452
G01 X53.5814 Y16.4481
G01 X53.5638 Y16.4490
G01 X51.8550 Y16.4491
G01 X51.8286 Y16.4481
G01 X51.8023 Y16.4452
G01 X51.7763 Y16.4404
G01 X51.7508 Y16.4336
G01 X51.7340 Y16.4281
G01 X51.7095 Y16.4183
G01 X51.6935 Y16.4108
G01 X51.6780 Y16.4024
G01 X51.6555 Y16.3886
G01 X51.6411 Y16.3784
G01 X51.6204 Y16.3619
G01 X51.6011 Y16.3439
G01 X51.5889 Y16.3312
G01 X51.5719 Y16.3109
G01 X51.5564 Y16.2895
G01 X51.5426 Y16.2670
G01 X51.5342 Y16.2515
G01 X51.5267 Y16.2355
G01 X51.5169 Y16.2110
G01 X51.5114 Y16.1942
G01 X51.5067 Y16.1773
G01 X51.5028 Y16.1601
G01 X51.4986 Y16.1340
G01 X51.4969 Y16.1164
G01 X51.4960 Y16.0988
G01 X51.4959 Y14.3900
G01 X51.4969 Y14.3636
G01 X51.4998 Y14.3373
G01 X51.5046 Y14.3113
G01 X51.5114 Y14.2858
G01 X51.5200 Y14.2608
G01 X51.5304 Y14.2365
G01 X51.5426 Y14.2130
G01 X51.5564 Y14.1905
G01 X51.5719 Y14.1691
G01 X51.5889 Y14.1488
G01 X51.6074 Y14.1299
G01 X51.6272 Y14.1124
G01 X51.6482 Y14.0964
G01 X51.6704 Y14.0820
G01 X51.6935 Y14.0692
G01 X51.7176 Y14.0582
G01 X51.7340 Y14.0519
G01 X51.7456 Y14.0480
G01 X51.7456 Y13.7324
G01 X51.3916 Y13.3784
G01 X51.3794 Y13.3656
G01 X51.3399 Y13.3220
G01 X51.3229 Y13.3018
G01 X51.2824 Y13.2474
G01 X51.2723 Y13.2330
G01 X51.2629 Y13.2181
G01 X51.2326 Y13.1676
G01 X51.2239 Y13.1523
G01 X51.2160 Y13.1365
G01 X51.1908 Y13.0833
G01 X51.1836 Y13.0671
G01 X51.1773 Y13.0507
G01 X51.1574 Y12.9952
G01 X51.1519 Y12.9785
G01 X51.1472 Y12.9615
G01 X51.1329 Y12.9044
G01 X51.1290 Y12.8872
G01 X51.1260 Y12.8698
G01 X51.1174 Y12.8115
G01 X51.1152 Y12.7940
G01 X51.1139 Y12.7765
G01 X51.1107 Y12.7088
G01 X51.1106 Y11.1003
G01 X51.0676 Y11.0529
G01 X51.0561 Y11.0396
G01 X51.0453 Y11.0257
G01 X50.9844 Y10.9435
G01 X50.9700 Y10.9213
G01 X50.9220 Y10.8411
G01 X50.9133 Y10.8258
G01 X50.9053 Y10.8100
G01 X50.8654 Y10.7255
G01 X50.8550 Y10.7012
G01 X50.8175 Y10.5966
G01 X50.8124 Y10.5798
G01 X50.8000 Y10.5306
G01 X50.7876 Y10.5798
G01 X50.7825 Y10.5966
G01 X50.7450 Y10.7012
G01 X50.7346 Y10.7255
G01 X50.6947 Y10.8100
G01 X50.6867 Y10.8258
G01 X50.6819 Y10.8346
G01 X50.6818 Y11.6365
G01 X50.7002 Y11.6568
G01 X50.7113 Y11.6705
G01 X50.7365 Y11.7043
G01 X50.7463 Y11.7190
G01 X50.7679 Y11.7552
G01 X50.7762 Y11.7707
G01 X50.7943 Y11.8088
G01 X50.8010 Y11.8251
G01 X50.8123 Y11.8565
G01 X50.8179 Y11.8732
G01 X50.8226 Y11.8902
G01 X50.8285 Y11.9140
G01 X50.8324 Y11.9312
G01 X50.8354 Y11.9485
G01 X50.8390 Y11.9728
G01 X50.8412 Y11.9903
G01 X50.8425 Y12.0079
G01 X50.8437 Y12.0324
G01 X50.8441 Y12.0500
G01 X50.8441 Y13.3500
G01 X50.8437 Y13.3676
G01 X50.8425 Y13.3921
G01 X50.8402 Y13.4185
G01 X50.8354 Y13.4515
G01 X50.8324 Y13.4688
G01 X50.8285 Y13.4860
G01 X50.8226 Y13.5098
G01 X50.8179 Y13.5268
G01 X50.8123 Y13.5435
G01 X50.8041 Y13.5666
G01 X50.7977 Y13.5831
G01 X50.7906 Y13.5992
G01 X50.7762 Y13.6293
G01 X50.7679 Y13.6448
G01 X50.7463 Y13.6810
G01 X50.7365 Y13.6957
G01 X50.7113 Y13.7295
G01 X50.7002 Y13.7432
G01 X50.6719 Y13.7744
G01 X50.6594 Y13.7869
G01 X50.6423 Y13.8025
G01 X50.6398 Y14.6453
G01 X50.6484 Y14.6622
G01 X50.6861 Y14.7420
G01 X50.6933 Y14.7582
G01 X50.6996 Y14.7746
G01 X50.7294 Y14.8578
G01 X50.7349 Y14.8745
G01 X50.7396 Y14.8915
G01 X50.7610 Y14.9772
G01 X50.7649 Y14.9944
G01 X50.7679 Y15.0117
G01 X50.7809 Y15.0991
G01 X50.7830 Y15.1166
G01 X50.7843 Y15.1342
G01 X50.7890 Y15.2312
G01 X50.7887 Y15.2576
G01 X50.7843 Y15.3458
G01 X50.7830 Y15.3634
G01 X50.7809 Y15.3809
G01 X50.7679 Y15.4683
G01 X50.7649 Y15.4856
G01 X50.7610 Y15.5028
G01 X50.7396 Y15.5885
G01 X50.7349 Y15.6055
G01 X50.7294 Y15.6222
G01 X50.6965 Y15.7137
G01 X50.6861 Y15.7380
G01 X50.6484 Y15.8178
G01 X50.6404 Y15.8335
G01 X50.6317 Y15.8489
G01 X50.5863 Y15.9246
G01 X50.5769 Y15.9395
G01 X50.5668 Y15.9539
G01 X50.5141 Y16.0249
G01 X50.5033 Y16.0388
G01 X50.4918 Y16.0521
G01 X50.4325 Y16.1176
G01 X50.4203 Y16.1303
G01 X50.4076 Y16.1425
G01 X50.3421 Y16.2018
G01 X50.3288 Y16.2133
G01 X50.3149 Y16.2241
G01 X50.2439 Y16.2768
G01 X50.2295 Y16.2869
G01 X50.2146 Y16.2963
G01 X50.1389 Y16.3417
G01 X50.1235 Y16.3504
G01 X50.1078 Y16.3584
G01 X50.0280 Y16.3961
G01 X50.0118 Y16.4033
G01 X49.9954 Y16.4096
G01 X49.9122 Y16.4394
G01 X49.8955 Y16.4449
G01 X49.8785 Y16.4496
G01 X49.7928 Y16.4710
G01 X49.7756 Y16.4749
G01 X49.7583 Y16.4779
G01 X49.6709 Y16.4909
G01 X49.6534 Y16.4930
G01 X49.6358 Y16.4943
G01 X49.5476 Y16.4987
G01 X49.5300 Y16.4991
G01 X49.5124 Y16.4987
G01 X49.4242 Y16.4943
G01 X49.4066 Y16.4930
G01 X49.3891 Y16.4909
G01 X49.3017 Y16.4779
G01 X49.2844 Y16.4749
G01 X49.2672 Y16.4710
G01 X49.1815 Y16.4496
G01 X49.1645 Y16.4449
G01 X49.1478 Y16.4394
G01 X49.0646 Y16.4096
G01 X49.0482 Y16.4033
G01 X49.0320 Y16.3961
G01 X48.9522 Y16.3584
G01 X48.9365 Y16.3504
G01 X48.9211 Y16.3417
G01 X48.8454 Y16.2963
G01 X48.8305 Y16.2869
G01 X48.8161 Y16.2768
G01 X48.7451 Y16.2241
G01 X48.7312 Y16.2133
G01 X48.7179 Y16.2018
G01 X48.6524 Y16.1425
G01 X48.6335 Y16.1240
G01 X48.5682 Y16.0521
G01 X48.5567 Y16.0388
G01 X48.5459 Y16.0249
G01 X48.4932 Y15.9539
G01 X48.4831 Y15.9395
G01 X48.4737 Y15.9246
G01 X48.4283 Y15.8489
G01 X48.4196 Y15.8335
G01 X48.4116 Y15.8178
G01 X48.3739 Y15.7380
G01 X48.3667 Y15.7218
G01 X48.3604 Y15.7054
G01 X48.3278 Y15.6139
G01 X48.3204 Y15.5885
G01 X48.2990 Y15.5028
G01 X48.2935 Y15.4770
G01 X48.2791 Y15.3809
G01 X48.2770 Y15.3634
G01 X48.2757 Y15.3458
G01 X48.2713 Y15.2576
G01 X48.2709 Y15.2400
G01 X48.2713 Y15.2224
G01 X48.2757 Y15.1342
G01 X48.2770 Y15.1166
G01 X48.2791 Y15.0991
G01 X48.2921 Y15.0117
G01 X48.2951 Y14.9944
G01 X48.2990 Y14.9772
G01 X48.3204 Y14.8915
G01 X48.3251 Y14.8745
G01 X48.3306 Y14.8578
G01 X48.3604 Y14.7746
G01 X48.3667 Y14.7582
G01 X48.3739 Y14.7420
G01 X48.4116 Y14.6622
G01 X48.4205 Y14.6447
G01 X48.4205 Y10.9055
G01 X48.3820 Y10.8411
G01 X48.3692 Y10.8180
G01 X48.3217 Y10.7175
G01 X48.3150 Y10.7012
G01 X48.3016 Y10.6642
G01 X48.3016 Y11.1600
G01 X48.3012 Y11.1776
G01 X48.2999 Y11.1952
G01 X48.2977 Y11.2127
G01 X48.2929 Y11.2387
G01 X48.2886 Y11.2558
G01 X48.2835 Y11.2726
G01 X48.2743 Y11.2974
G01 X48.2633 Y11.3215
G01 X48.2505 Y11.3446
G01 X48.2361 Y11.3668
G01 X48.2201 Y11.3878
G01 X48.2026 Y11.4076
G01 X48.1837 Y11.4261
G01 X48.1634 Y11.4431
G01 X48.1420 Y11.4586
G01 X48.1195 Y11.4724
G01 X48.0960 Y11.4846
G01 X48.0717 Y11.4950
G01 X48.0467 Y11.5036
G01 X48.0212 Y11.5104
G01 X47.9952 Y11.5152
G01 X47.9689 Y11.5181
G01 X47.9494 Y11.5190
G01 X47.9494 Y15.4776
G01 X49.2924 Y16.8206
G01 X59.9671 Y16.8206
G01 X60.0377 Y16.7682
G01 X60.0521 Y16.7580
G01 X60.0670 Y16.7486
G01 X60.1403 Y16.7047
G01 X60.1556 Y16.6960
G01 X60.1713 Y16.6881
G01 X60.2485 Y16.6516
G01 X60.2646 Y16.6445
G01 X60.2811 Y16.6381
G01 X60.3615 Y16.6094
G01 X60.3867 Y16.6014
G01 X60.4780 Y16.5784
G01 X60.4952 Y16.5745
G01 X60.5126 Y16.5715
G01 X60.5970 Y16.5590
G01 X60.6145 Y16.5568
G01 X60.6321 Y16.5555
G01 X60.7174 Y16.5513
G01 X60.7350 Y16.5509
G01 X61.1850 Y16.5509
G01 X61.2026 Y16.5513
G01 X61.2879 Y16.5555
G01 X61.3142 Y16.5578
G01 X61.4074 Y16.5715
G01 X61.4248 Y16.5745
G01 X61.4420 Y16.5784
G01 X61.5333 Y16.6014
G01 X61.5585 Y16.6094
G01 X61.6472 Y16.6412
G01 X61.6635 Y16.6479
G01 X61.7115 Y16.6705
G01 X67.8285 Y16.6705
G01 X67.8765 Y16.6479
G01 X67.8928 Y16.6412
G01 X67.9898 Y16.6065
G01 X68.0152 Y16.5991
G01 X68.1066 Y16.5763
G01 X68.1326 Y16.5715
G01 X68.2170 Y16.5590
G01 X68.2345 Y16.5568
G01 X68.2521 Y16.5555
G01 X68.3462 Y16.5510
G01 X68.8050 Y16.5509
G01 X68.8226 Y16.5513
G01 X68.9079 Y16.5555
G01 X68.9342 Y16.5578
G01 X69.0274 Y16.5715
G01 X69.0448 Y16.5745
G01 X69.0620 Y16.5784
G01 X69.1533 Y16.6014
G01 X69.1785 Y16.6094
G01 X69.2672 Y16.6412
G01 X69.2835 Y16.6479
G01 X69.3315 Y16.6705
G01 X75.4485 Y16.6705
G01 X75.4965 Y16.6479
G01 X75.5128 Y16.6412
G01 X75.6015 Y16.6094
G01 X75.6267 Y16.6014
G01 X75.7180 Y16.5784
G01 X75.7352 Y16.5745
G01 X75.7526 Y16.5715
G01 X75.8458 Y16.5578
G01 X75.8721 Y16.5555
G01 X75.9574 Y16.5513
G01 X75.9750 Y16.5509
G01 X76.4250 Y16.5509
G01 X76.4426 Y16.5513
G01 X76.5279 Y16.5555
G01 X76.5455 Y16.5568
G01 X76.5630 Y16.5590
G01 X76.6474 Y16.5715
G01 X76.6648 Y16.5745
G01 X76.6820 Y16.5784
G01 X76.7648 Y16.5991
G01 X76.7818 Y16.6038
G01 X76.7985 Y16.6094
G01 X76.8789 Y16.6381
G01 X76.9035 Y16.6479
G01 X76.9887 Y16.6881
G01 X77.0044 Y16.6960
G01 X77.0197 Y16.7047
G01 X77.0930 Y16.7486
G01 X77.1151 Y16.7630
G01 X77.1908 Y16.8190
G01 X77.2115 Y16.8356
G01 X77.2878 Y16.9047
G01 X77.3003 Y16.9172
G01 X77.3355 Y16.9560
G01 X77.3355 Y16.0640
G01 X77.3003 Y16.1028
G01 X77.2878 Y16.1153
G01 X77.2115 Y16.1844
G01 X77.1908 Y16.2010
G01 X77.1151 Y16.2570
G01 X77.0930 Y16.2714
G01 X77.0197 Y16.3153
G01 X77.0044 Y16.3240
G01 X76.9887 Y16.3319
G01 X76.9035 Y16.3721
G01 X76.8789 Y16.3819
G01 X76.7985 Y16.4106
G01 X76.7818 Y16.4162
G01 X76.7648 Y16.4209
G01 X76.6820 Y16.4416
G01 X76.6648 Y16.4455
G01 X76.6474 Y16.4485
G01 X76.5630 Y16.4610
G01 X76.5455 Y16.4632
G01 X76.5279 Y16.4645
G01 X76.4338 Y16.4690
G01 X75.9750 Y16.4691
G01 X75.9574 Y16.4687
G01 X75.8721 Y16.4645
G01 X75.8458 Y16.4622
G01 X75.7526 Y16.4485
G01 X75.7352 Y16.4455
G01 X75.7180 Y16.4416
G01 X75.6267 Y16.4186
G01 X75.6015 Y16.4106
G01 X75.5128 Y16.3788
G01 X75.4965 Y16.3721
G01 X75.4485 Y16.3495
G01 X69.3315 Y16.3495
G01 X69.2835 Y16.3721
G01 X69.2672 Y16.3788
G01 X69.1785 Y16.4106
G01 X69.1533 Y16.4186
G01 X69.0620 Y16.4416
G01 X69.0448 Y16.4455
G01 X69.0274 Y16.4485
G01 X68.9342 Y16.4622
G01 X68.9079 Y16.4645
G01 X68.8226 Y16.4687
G01 X68.8050 Y16.4691
G01 X68.3550 Y16.4691
G01 X68.3374 Y16.4687
G01 X68.2521 Y16.4645
G01 X68.2345 Y16.4632
G01 X68.2170 Y16.4610
G01 X68.1326 Y16.4485
G01 X68.1066 Y16.4437
G01 X68.0152 Y16.4209
G01 X67.9898 Y16.4135
G01 X67.8928 Y16.3788
G01 X67.8765 Y16.3721
G01 X67.8285 Y16.3495
G01 X61.7115 Y16.3495
G01 X61.6635 Y16.3721
G01 X61.6472 Y16.3788
G01 X61.5585 Y16.4106
G01 X61.5333 Y16.4186
G01 X61.4420 Y16.4416
G01 X61.4248 Y16.4455
G01 X61.4074 Y16.4485
G01 X61.3142 Y16.4622
G01 X61.2879 Y16.4645
G01 X61.2026 Y16.4687
G01 X61.1850 Y16.4691
G01 X60.7262 Y16.4690
G01 X60.6321 Y16.4645
G01 X60.6145 Y16.4632
G01 X60.5970 Y16.4610
G01 X60.5126 Y16.4485
G01 X60.4952 Y16.4455
G01 X60.4780 Y16.4416
G01 X60.3867 Y16.4186
G01 X60.3615 Y16.4106
G01 X60.2811 Y16.3819
G01 X60.2646 Y16.3755
G01 X60.2485 Y16.3684
G01 X60.1713 Y16.3319
G01 X60.1556 Y16.3240
G01 X60.1403 Y16.3153
G01 X60.0670 Y16.2714
G01 X60.0521 Y16.2620
G01 X60.0377 Y16.2518
G01 X59.9671 Y16.1994
G01 X55.9794 Y16.1994
G01 X55.9312 Y16.2352
G01 X55.9167 Y16.2453
G01 X55.9018 Y16.2548
G01 X55.8303 Y16.2976
G01 X55.8071 Y16.3104
G01 X55.7158 Y16.3536
G01 X55.6913 Y16.3634
G01 X55.6127 Y16.3915
G01 X55.5960 Y16.3970
G01 X55.5790 Y16.4017
G01 X55.4981 Y16.4220
G01 X55.4722 Y16.4275
G01 X55.3723 Y16.4423
G01 X55.3459 Y16.4446
G01 X55.2626 Y16.4487
G01 X55.2450 Y16.4491
G01 X55.2274 Y16.4487
G01 X55.1441 Y16.4446
G01 X55.1265 Y16.4433
G01 X55.1090 Y16.4411
G01 X55.0265 Y16.4289
G01 X55.0091 Y16.4259
G01 X54.9919 Y16.4220
G01 X54.9110 Y16.4017
G01 X54.8856 Y16.3944
G01 X54.7987 Y16.3634
G01 X54.7823 Y16.3571
G01 X54.7662 Y16.3499
G01 X54.6908 Y16.3143
G01 X54.6750 Y16.3063
G01 X54.6597 Y16.2976
G01 X54.5882 Y16.2548
G01 X54.5733 Y16.2453
G01 X54.5588 Y16.2352
G01 X54.4919 Y16.1855
G01 X54.4780 Y16.1746
G01 X54.4646 Y16.1631
G01 X54.3963 Y16.1011
G01 X54.3779 Y16.0822
G01 X54.3219 Y16.0204
G01 X54.3104 Y16.0070
G01 X54.2995 Y15.9931
G01 X54.2498 Y15.9262
G01 X54.2397 Y15.9117
G01 X54.2302 Y15.8968
G01 X54.1874 Y15.8253
G01 X54.1787 Y15.8100
G01 X54.1707 Y15.7942
G01 X54.1351 Y15.7188
G01 X54.1247 Y15.6945
G01 X54.0935 Y15.6077
G01 X54.0880 Y15.5910
G01 X54.0833 Y15.5740
G01 X54.0630 Y15.4931
G01 X54.0591 Y15.4759
G01 X54.0561 Y15.4585
G01 X54.0439 Y15.3760
G01 X54.0417 Y15.3585
G01 X54.0404 Y15.3409
G01 X54.0363 Y15.2576
G01 X54.0359 Y15.2400
G01 X54.0363 Y15.2224
G01 X54.0404 Y15.1391
G01 X54.0417 Y15.1215
G01 X54.0439 Y15.1040
G01 X54.0561 Y15.0215
G01 X54.0591 Y15.0041
G01 X54.0630 Y14.9869
G01 X54.0833 Y14.9060
G01 X54.0880 Y14.8890
G01 X54.0935 Y14.8723
G01 X54.1216 Y14.7937
G01 X54.1279 Y14.7773
G01 X54.1351 Y14.7612
G01 X54.1707 Y14.6858
G01 X54.1829 Y14.6623
G01 X54.2302 Y14.5832
G01 X54.2397 Y14.5683
G01 X54.2498 Y14.5538
G01 X54.2995 Y14.4869
G01 X54.3104 Y14.4730
G01 X54.3219 Y14.4596
G01 X54.3779 Y14.3978
G01 X54.3900 Y14.3850
G01 X54.4028 Y14.3729
G01 X54.4646 Y14.3169
G01 X54.4780 Y14.3054
G01 X54.4919 Y14.2945
G01 X54.5588 Y14.2448
G01 X54.5733 Y14.2347
G01 X54.5882 Y14.2252
G01 X54.6673 Y14.1779
G01 X54.6908 Y14.1657
G01 X54.7662 Y14.1301
G01 X54.7823 Y14.1229
G01 X54.7987 Y14.1166
G01 X54.8773 Y14.0885
G01 X54.8940 Y14.0830
G01 X54.9110 Y14.0783
G01 X54.9919 Y14.0580
G01 X55.0091 Y14.0541
G01 X55.0265 Y14.0511
G01 X55.1177 Y14.0377
G01 X55.1441 Y14.0354
G01 X55.2274 Y14.0313
G01 X55.2450 Y14.0309
G01 X55.2626 Y14.0313
G01 X55.3459 Y14.0354
G01 X55.3635 Y14.0367
G01 X55.3810 Y14.0389
G01 X55.4635 Y14.0511
G01 X55.4809 Y14.0541
G01 X55.4981 Y14.0580
G01 X55.5875 Y14.0805
G01 X55.6127 Y14.0885
G01 X55.6913 Y14.1166
G01 X55.7077 Y14.1229
G01 X55.7238 Y14.1301
G01 X55.8071 Y14.1696
G01 X55.8303 Y14.1824
G01 X55.9094 Y14.2299
G01 X55.9312 Y14.2448
G01 X55.9784 Y14.2799
G01 X59.9672 Y14.2806
G01 X60.0377 Y14.2282
G01 X60.0521 Y14.2180
G01 X60.0670 Y14.2086
G01 X60.1403 Y14.1647
G01 X60.1556 Y14.1560
G01 X60.1713 Y14.1481
G01 X60.2485 Y14.1116
G01 X60.2646 Y14.1045
G01 X60.2811 Y14.0981
G01 X60.3615 Y14.0694
G01 X60.3867 Y14.0614
G01 X60.4780 Y14.0384
G01 X60.4952 Y14.0345
G01 X60.5126 Y14.0315
G01 X60.5970 Y14.0190
G01 X60.6145 Y14.0168
G01 X60.6321 Y14.0155
G01 X60.7262 Y14.0110
G01 X61.1850 Y14.0109
G01 X61.2026 Y14.0113
G01 X61.2879 Y14.0155
G01 X61.3142 Y14.0178
G01 X61.4074 Y14.0315
G01 X61.4248 Y14.0345
G01 X61.4420 Y14.0384
G01 X61.5333 Y14.0614
G01 X61.5585 Y14.0694
G01 X61.6472 Y14.1012
G01 X61.6635 Y14.1079
G01 X61.7115 Y14.1305
G01 X67.8285 Y14.1305
G01 X67.8765 Y14.1079
G01 X67.8928 Y14.1012
G01 X67.9815 Y14.0694
G01 X68.0067 Y14.0614
G01 X68.0980 Y14.0384
G01 X68.1152 Y14.0345
G01 X68.1326 Y14.0315
G01 X68.2258 Y14.0178
G01 X68.2521 Y14.0155
G01 X68.3374 Y14.0113
G01 X68.3550 Y14.0109
G01 X68.8050 Y14.0109
G01 X68.8226 Y14.0113
G01 X68.9079 Y14.0155
G01 X68.9255 Y14.0168
G01 X68.9430 Y14.0190
G01 X69.0274 Y14.0315
G01 X69.0534 Y14.0363
G01 X69.1448 Y14.0591
G01 X69.1702 Y14.0665
G01 X69.2672 Y14.1012
G01 X69.2835 Y14.1079
G01 X69.3315 Y14.1305
G01 X75.4485 Y14.1305
G01 X75.4965 Y14.1079
G01 X75.5128 Y14.1012
G01 X75.6015 Y14.0694
G01 X75.6267 Y14.0614
G01 X75.7180 Y14.0384
G01 X75.7352 Y14.0345
G01 X75.7526 Y14.0315
G01 X75.8458 Y14.0178
G01 X75.8721 Y14.0155
G01 X75.9574 Y14.0113
G01 X75.9750 Y14.0109
G01 X76.4338 Y14.0110
G01 X76.5279 Y14.0155
G01 X76.5455 Y14.0168
G01 X76.5630 Y14.0190
G01 X76.6474 Y14.0315
G01 X76.6648 Y14.0345
G01 X76.6820 Y14.0384
G01 X76.7648 Y14.0591
G01 X76.7818 Y14.0638
G01 X76.7985 Y14.0694
G01 X76.8789 Y14.0981
G01 X76.9035 Y14.1079
G01 X76.9887 Y14.1481
G01 X77.0044 Y14.1560
G01 X77.0197 Y14.1647
G01 X77.0930 Y14.2086
G01 X77.1151 Y14.2230
G01 X77.1908 Y14.2790
G01 X77.2115 Y14.2956
G01 X77.2878 Y14.3647
G01 X77.3003 Y14.3772
G01 X77.3355 Y14.4160
G01 X77.3355 Y13.5240
G01 X77.3003 Y13.5628
G01 X77.2878 Y13.5753
G01 X77.2115 Y13.6444
G01 X77.1908 Y13.6610
G01 X77.1151 Y13.7170
G01 X77.0930 Y13.7314
G01 X77.0197 Y13.7753
G01 X77.0044 Y13.7840
G01 X76.9887 Y13.7919
G01 X76.9035 Y13.8321
G01 X76.8789 Y13.8419
G01 X76.7985 Y13.8706
G01 X76.7818 Y13.8762
G01 X76.7648 Y13.8809
G01 X76.6820 Y13.9016
G01 X76.6648 Y13.9055
G01 X76.6474 Y13.9085
G01 X76.5630 Y13.9210
G01 X76.5455 Y13.9232
G01 X76.5279 Y13.9245
G01 X76.4338 Y13.9290
G01 X75.9750 Y13.9291
G01 X75.9574 Y13.9287
G01 X75.8721 Y13.9245
G01 X75.8458 Y13.9222
G01 X75.7526 Y13.9085
G01 X75.7352 Y13.9055
G01 X75.7180 Y13.9016
G01 X75.6267 Y13.8786
G01 X75.6015 Y13.8706
G01 X75.5128 Y13.8388
G01 X75.4965 Y13.8321
G01 X75.4485 Y13.8095
G01 X69.3315 Y13.8095
G01 X69.2835 Y13.8321
G01 X69.2672 Y13.8388
G01 X69.1785 Y13.8706
G01 X69.1533 Y13.8786
G01 X69.0620 Y13.9016
G01 X69.0448 Y13.9055
G01 X69.0274 Y13.9085
G01 X68.9342 Y13.9222
G01 X68.9079 Y13.9245
G01 X68.8226 Y13.9287
G01 X68.8050 Y13.9291
G01 X68.3550 Y13.9291
G01 X68.3374 Y13.9287
G01 X68.2521 Y13.9245
G01 X68.2345 Y13.9232
G01 X68.2170 Y13.9210
G01 X68.1326 Y13.9085
G01 X68.1066 Y13.9037
G01 X68.0152 Y13.8809
G01 X67.9898 Y13.8735
G01 X67.8928 Y13.8388
G01 X67.8765 Y13.8321
G01 X67.8285 Y13.8095
G01 X61.7115 Y13.8095
G01 X61.6635 Y13.8321
G01 X61.6472 Y13.8388
G01 X61.5585 Y13.8706
G01 X61.5333 Y13.8786
G01 X61.4420 Y13.9016
G01 X61.4248 Y13.9055
G01 X61.4074 Y13.9085
G01 X61.3142 Y13.9222
G01 X61.2879 Y13.9245
G01 X61.2026 Y13.9287
G01 X61.1850 Y13.9291
G01 X60.7350 Y13.9291
G01 X60.7174 Y13.9287
G01 X60.6321 Y13.9245
G01 X60.6145 Y13.9232
G01 X60.5970 Y13.9210
G01 X60.5126 Y13.9085
G01 X60.4866 Y13.9037
G01 X60.3952 Y13.8809
G01 X60.3698 Y13.8735
G01 X60.2728 Y13.8388
G01 X60.2565 Y13.8321
G01 X60.2085 Y13.8095
G01 X59.0462 Y13.8094
G01 X58.9550 Y13.8049
G01 X58.9288 Y13.8020
G01 X58.8559 Y13.7912
G01 X58.8386 Y13.7882
G01 X58.8214 Y13.7843
G01 X58.7499 Y13.7664
G01 X58.7329 Y13.7617
G01 X58.7162 Y13.7562
G01 X58.6469 Y13.7314
G01 X58.6304 Y13.7250
G01 X58.6143 Y13.7179
G01 X58.5477 Y13.6864
G01 X58.5320 Y13.6785
G01 X58.5167 Y13.6698
G01 X58.4535 Y13.6319
G01 X58.4386 Y13.6225
G01 X58.4242 Y13.6123
G01 X58.3651 Y13.5685
G01 X58.3512 Y13.5576
G01 X58.3378 Y13.5461
G01 X58.2832 Y13.4967
G01 X58.2705 Y13.4845
G01 X57.0005 Y12.2145
G01 X56.9883 Y12.2018
G01 X56.9389 Y12.1472
G01 X56.9274 Y12.1338
G01 X56.9165 Y12.1199
G01 X56.8727 Y12.0608
G01 X56.8625 Y12.0464
G01 X56.8531 Y12.0315
G01 X56.8152 Y11.9683
G01 X56.8065 Y11.9530
G01 X56.7986 Y11.9373
G01 X56.7671 Y11.8707
G01 X56.7600 Y11.8546
G01 X56.7536 Y11.8381
G01 X56.7288 Y11.7688
G01 X56.7208 Y11.7436
G01 X56.7007 Y11.6636
G01 X56.6968 Y11.6464
G01 X56.6938 Y11.6291
G01 X56.6830 Y11.5562
G01 X56.6809 Y11.5387
G01 X56.6796 Y11.5212
G01 X56.6760 Y11.4476
G01 X56.6755 Y11.4300
G01 X56.6755 Y4.9046
G01 X56.0554 Y4.2845
G01 X39.2148 Y4.2845
G01 X39.1977 Y4.2921
G01 X39.1813 Y4.2984
G01 X39.1027 Y4.3265
G01 X39.0860 Y4.3320
G01 X39.0690 Y4.3367
G01 X38.9881 Y4.3570
G01 X38.9622 Y4.3625
G01 X38.8623 Y4.3773
G01 X38.8359 Y4.3796
G01 X38.7526 Y4.3837
G01 X38.7350 Y4.3841
G01 X38.7174 Y4.3837
G01 X38.6341 Y4.3796
G01 X38.6077 Y4.3773
G01 X38.5078 Y4.3625
G01 X38.4819 Y4.3570
G01 X38.4010 Y4.3367
G01 X38.3840 Y4.3320
G01 X38.3673 Y4.3265
G01 X38.2805 Y4.2953
G01 X38.2562 Y4.2849
G01 X38.1808 Y4.2493
G01 X38.1650 Y4.2413
G01 X38.1497 Y4.2326
G01 X38.0782 Y4.1898
G01 X38.0633 Y4.1803
G01 X38.0488 Y4.1702
G01 X37.9819 Y4.1205
G01 X37.9680 Y4.1096
G01 X37.9546 Y4.0981
G01 X37.8928 Y4.0421
G01 X37.8800 Y4.0300
G01 X37.8679 Y4.0172
G01 X37.8119 Y3.9554
G01 X37.8004 Y3.9420
G01 X37.7895 Y3.9281
G01 X37.7398 Y3.8612
G01 X37.7297 Y3.8467
G01 X37.7202 Y3.8318
G01 X37.6774 Y3.7603
G01 X37.6687 Y3.7450
G01 X37.6607 Y3.7292
G01 X37.6251 Y3.6538
G01 X37.6147 Y3.6295
G01 X37.5835 Y3.5427
G01 X37.5780 Y3.5260
G01 X37.5733 Y3.5090
G01 X37.5530 Y3.4281
G01 X37.5491 Y3.4109
G01 X37.5461 Y3.3935
G01 X37.5339 Y3.3110
G01 X37.5310 Y3.2847
G01 X37.5263 Y3.1926
G01 X37.5259 Y3.1750
G01 X37.5263 Y3.1574
G01 X37.5304 Y3.0741
G01 X37.5317 Y3.0565
G01 X37.5339 Y3.0390
G01 X37.5461 Y2.9565
G01 X37.5491 Y2.9391
G01 X37.5530 Y2.9219
G01 X37.5733 Y2.8410
G01 X37.5780 Y2.8240
G01 X37.5835 Y2.8073
G01 X37.6116 Y2.7287
G01 X37.6179 Y2.7123
G01 X37.6251 Y2.6962
G01 X37.6607 Y2.6208
G01 X37.6687 Y2.6050
G01 X37.6774 Y2.5897
G01 X37.7202 Y2.5182
G01 X37.7297 Y2.5033
G01 X37.7398 Y2.4888
G01 X37.7895 Y2.4219
G01 X37.8004 Y2.4080
G01 X37.8119 Y2.3946
G01 X37.8679 Y2.3328
G01 X37.8800 Y2.3200
G01 X37.8928 Y2.3079
G01 X37.9546 Y2.2519
G01 X37.9680 Y2.2404
G01 X37.9819 Y2.2295
G01 X38.0488 Y2.1798
G01 X38.0633 Y2.1697
G01 X38.0782 Y2.1602
G01 X38.1497 Y2.1174
G01 X38.1650 Y2.1087
G01 X38.1808 Y2.1007
G01 X38.2562 Y2.0651
G01 X38.2723 Y2.0579
G01 X38.2887 Y2.0516
G01 X38.3673 Y2.0235
G01 X38.3840 Y2.0180
G01 X38.4010 Y2.0133
G01 X38.4819 Y1.9930
G01 X38.4991 Y1.9891
G01 X38.5165 Y1.9861
G01 X38.5990 Y1.9739
G01 X38.6253 Y1.9710
G01 X38.7262 Y1.9660
G01 X38.7526 Y1.9663
G01 X38.8359 Y1.9704
G01 X38.8535 Y1.9717
G01 X38.8710 Y1.9739
G01 X38.9535 Y1.9861
G01 X38.9709 Y1.9891
G01 X38.9881 Y1.9930
G01 X39.0690 Y2.0133
G01 X39.0860 Y2.0180
G01 X39.1027 Y2.0235
G01 X39.1813 Y2.0516
G01 X39.1977 Y2.0579
G01 X39.2148 Y2.0655
G01 X56.5150 Y2.0655
G01 X56.5326 Y2.0660
G01 X56.6062 Y2.0696
G01 X56.6237 Y2.0709
G01 X56.6412 Y2.0730
G01 X56.7141 Y2.0838
G01 X56.7314 Y2.0868
G01 X56.7486 Y2.0907
G01 X56.8201 Y2.1086
G01 X56.8455 Y2.1160
G01 X56.9231 Y2.1436
G01 X56.9396 Y2.1500
G01 X56.9557 Y2.1571
G01 X57.0223 Y2.1886
G01 X57.0380 Y2.1965
G01 X57.0533 Y2.2052
G01 X57.1165 Y2.2431
G01 X57.1314 Y2.2525
G01 X57.1458 Y2.2627
G01 X57.2049 Y2.3065
G01 X57.2188 Y2.3174
G01 X57.2322 Y2.3289
G01 X57.2868 Y2.3783
G01 X57.2995 Y2.3905
G01 X58.5695 Y3.6605
G01 X58.5817 Y3.6732
G01 X58.6311 Y3.7278
G01 X58.6426 Y3.7412
G01 X58.6535 Y3.7551
G01 X58.6973 Y3.8142
G01 X58.7075 Y3.8286
G01 X58.7169 Y3.8435
G01 X58.7548 Y3.9067
G01 X58.7635 Y3.9220
G01 X58.7714 Y3.9377
G01 X58.8029 Y4.0043
G01 X58.8100 Y4.0204
G01 X58.8164 Y4.0369
G01 X58.8412 Y4.1062
G01 X58.8467 Y4.1229
G01 X58.8514 Y4.1399
G01 X58.8693 Y4.2114
G01 X58.8732 Y4.2286
G01 X58.8762 Y4.2459
G01 X58.8870 Y4.3188
G01 X58.8891 Y4.3363
G01 X58.8904 Y4.3538
G01 X58.8940 Y4.4274
G01 X58.8945 Y4.4450
G01 X58.8945 Y10.9704
G01 X59.5146 Y11.5905
G01 X60.2085 Y11.5905
G01 X60.2565 Y11.5679
G01 X60.2728 Y11.5612
G01 X60.3615 Y11.5294
G01 X60.3867 Y11.5214
G01 X60.4780 Y11.4984
G01 X60.4952 Y11.4945
G01 X60.5126 Y11.4915
