(G-CODE GENERATED BY FLATCAM v8.994 - www.flatcam.org - Version Date: 2020/11/7)

(Name: zvire-vetrnik-power-supply-B_Cu.gbr_iso_combined_ncc_cnc)
(Type: G-code from Geometry)
(Units: MM)

(Created on Sobota, 04 února 2023 at 20:37)

(This preprocessor is the default preprocessor used by FlatCAM.)
(It is made to work with MACH3 compatible motion controllers.)

(TOOL DIAMETER: 1.0 mm)
(Feedrate_XY: 200.0 mm/min)
(Feedrate_Z: 80.0 mm/min)
(Feedrate rapids 1500.0 mm/min)

(Z_Cut: -0.08 mm)
(Z_Move: 2.0 mm)
(Z Start: None mm)
(Z End: 5.0 mm)
(X,Y End: None mm)
(Steps per circle: 64)
(Preprocessor Geometry: default)

(X range:   18.5000 ...   35.5000  mm)
(Y range:    1.5000 ...   17.5000  mm)

(Spindle Speed: 10000.0 RPM)
G21
G90
G94

G01 F200.00

M5
G00 Z15.0000
G00 X0.0000 Y0.0000
T1
M6    
(MSG, Change to Tool Dia = 1.0000)
M0
G00 Z15.0000

M03 S10000.0
G4 P1.0
G01 F200.00
G00 X19.0971 Y1.5000
G01 F80.00
G01 Z-0.0800
G01 F200.00
G01 X19.0244 Y1.5956
G01 X18.8648 Y1.8164
G01 X18.7107 Y2.0410
G01 X18.5621 Y2.2694
G01 X18.5000 Y2.3702
G01 X18.5000 Y3.6122
G01 X18.5611 Y3.4869
G01 X18.6798 Y3.2582
G01 X18.8041 Y3.0324
G01 X18.9338 Y2.8098
G01 X19.0690 Y2.5904
G01 X19.2096 Y2.3744
G01 X19.3554 Y2.1619
G01 X19.5063 Y1.9530
G01 X19.6624 Y1.7479
G01 X19.8234 Y1.5467
G01 X19.8627 Y1.5000
G01 X20.6598 Y1.5000
G01 X20.6046 Y1.5594
G01 X20.4436 Y1.7414
G01 X20.2872 Y1.9274
G01 X20.1354 Y2.1171
G01 X19.9882 Y2.3104
G01 X19.8459 Y2.5074
G01 X19.7085 Y2.7077
G01 X19.5759 Y2.9114
G01 X19.4485 Y3.1182
G01 X19.3261 Y3.3282
G01 X19.2090 Y3.5410
G01 X19.0971 Y3.7567
G01 X18.9905 Y3.9751
G01 X18.8893 Y4.1960
G01 X18.7936 Y4.4193
G01 X18.7034 Y4.6449
G01 X18.6187 Y4.8727
G01 X18.5397 Y5.1024
G01 X18.5000 Y5.2276
G01 X18.8061 Y6.4610
G01 X18.8187 Y6.3935
G01 X18.8660 Y6.1702
G01 X18.9187 Y5.9481
G01 X18.9769 Y5.7274
G01 X19.0405 Y5.5082
G01 X19.1094 Y5.2906
G01 X19.1836 Y5.0748
G01 X19.2632 Y4.8608
G01 X19.3479 Y4.6489
G01 X19.4378 Y4.4391
G01 X19.5329 Y4.2316
G01 X19.6330 Y4.0265
G01 X19.7381 Y3.8239
G01 X19.8482 Y3.6239
G01 X19.9631 Y3.4267
G01 X20.0829 Y3.2324
G01 X20.2073 Y3.0411
G01 X20.3365 Y2.8528
G01 X20.4702 Y2.6679
G01 X20.6084 Y2.4862
G01 X20.7510 Y2.3080
G01 X20.8980 Y2.1334
G01 X21.0492 Y1.9624
G01 X21.2045 Y1.7951
G01 X21.3639 Y1.6318
G01 X21.4989 Y1.5000
G01 X22.4002 Y1.5000
G01 X22.2574 Y1.6201
G01 X22.0974 Y1.7616
G01 X21.9410 Y1.9069
G01 X21.7882 Y2.0560
G01 X21.6391 Y2.2089
G01 X21.4937 Y2.3653
G01 X21.3523 Y2.5253
G01 X21.2148 Y2.6886
G01 X21.0814 Y2.8553
G01 X20.9521 Y3.0253
G01 X20.8270 Y3.1983
G01 X20.7062 Y3.3744
G01 X20.5898 Y3.5534
G01 X20.4778 Y3.7352
G01 X20.3702 Y3.9196
G01 X20.2673 Y4.1067
G01 X20.1689 Y4.2962
G01 X20.0753 Y4.4881
G01 X19.9864 Y4.6823
G01 X19.9022 Y4.8785
G01 X19.8230 Y5.0768
G01 X19.7486 Y5.2769
G01 X19.6791 Y5.4788
G01 X19.6146 Y5.6824
G01 X19.5551 Y5.8875
G01 X19.5007 Y6.0939
G01 X19.4514 Y6.3017
G01 X19.4072 Y6.5106
G01 X19.3745 Y6.6859
G00 Z2.0000
G00 X19.6532 Y7.2805
G01 F80.00
G01 Z-0.0800
G01 F200.00
G01 X20.6809 Y7.2805
G01 X20.6809 Y6.1900
G01 X20.6813 Y6.1628
G01 X20.6828 Y6.1329
G01 X20.6857 Y6.0997
G01 X20.6893 Y6.0700
G01 X20.6925 Y6.0492
G01 X20.6986 Y6.0164
G01 X20.7052 Y5.9872
G01 X20.7137 Y5.9550
G01 X20.7224 Y5.9264
G01 X20.7291 Y5.9064
G01 X20.7407 Y5.8751
G01 X20.7487 Y5.8556
G01 X20.7571 Y5.8363
G01 X20.7660 Y5.8172
G01 X20.7795 Y5.7905
G01 X20.7956 Y5.7612
G01 X20.8063 Y5.7431
G01 X20.8223 Y5.7178
G01 X20.8341 Y5.7004
G01 X20.8463 Y5.6832
G01 X20.8665 Y5.6566
G01 X20.8855 Y5.6335
G01 X20.8994 Y5.6176
G01 X20.9221 Y5.5932
G01 X20.9369 Y5.5782
G01 X20.9585 Y5.5576
G01 X20.9742 Y5.5435
G01 X20.9903 Y5.5298
G01 X21.0163 Y5.5090
G01 X21.0332 Y5.4963
G01 X21.0576 Y5.4791
G01 X21.0752 Y5.4675
G01 X21.1036 Y5.4500
G01 X21.1219 Y5.4395
G01 X21.1483 Y5.4254
G01 X21.1783 Y5.4108
G01 X21.1975 Y5.4022
G01 X21.2251 Y5.3907
G01 X21.2448 Y5.3832
G01 X21.2764 Y5.3724
G01 X21.2965 Y5.3661
G01 X21.3168 Y5.3604
G01 X21.3458 Y5.3532
G01 X21.3784 Y5.3462
G01 X21.4079 Y5.3411
G01 X21.4409 Y5.3366
G01 X21.4707 Y5.3337
G01 X21.5040 Y5.3317
G01 X21.5339 Y5.3309
G01 X24.4400 Y5.3309
G01 X24.4760 Y5.3317
G01 X24.5093 Y5.3337
G01 X24.5303 Y5.3357
G01 X24.5512 Y5.3381
G01 X24.5721 Y5.3411
G01 X24.5929 Y5.3446
G01 X24.6136 Y5.3486
G01 X24.6428 Y5.3552
G01 X24.6632 Y5.3604
G01 X24.6835 Y5.3661
G01 X24.7036 Y5.3724
G01 X24.7236 Y5.3791
G01 X24.7434 Y5.3863
G01 X24.7631 Y5.3940
G01 X24.7825 Y5.4022
G01 X24.8017 Y5.4108
G01 X24.8208 Y5.4199
G01 X24.8504 Y5.4353
G01 X24.8688 Y5.4456
G01 X24.8869 Y5.4563
G01 X24.9048 Y5.4675
G01 X24.9224 Y5.4791
G01 X24.9397 Y5.4912
G01 X24.9567 Y5.5036
G01 X24.9734 Y5.5165
G01 X24.9897 Y5.5298
G01 X25.0058 Y5.5435
G01 X25.0215 Y5.5576
G01 X25.0368 Y5.5721
G01 X25.0518 Y5.5869
G01 X25.0724 Y5.6085
G01 X25.0865 Y5.6242
G01 X25.1002 Y5.6403
G01 X25.1135 Y5.6566
G01 X25.1337 Y5.6832
G01 X25.1509 Y5.7076
G01 X25.1691 Y5.7356
G01 X25.1844 Y5.7612
G01 X25.1947 Y5.7796
G01 X25.2046 Y5.7983
G01 X25.2192 Y5.8283
G01 X25.2313 Y5.8556
G01 X25.2437 Y5.8866
G01 X25.2538 Y5.9147
G01 X25.2639 Y5.9465
G01 X25.2718 Y5.9753
G01 X25.2795 Y6.0078
G01 X25.2838 Y6.0284
G01 X25.2875 Y6.0492
G01 X25.2919 Y6.0788
G01 X25.2955 Y6.1119
G01 X25.2977 Y6.1417
G01 X25.2987 Y6.1628
G01 X25.2991 Y6.1900
G01 X25.2991 Y9.1352
G01 X25.5963 Y9.4324
G01 X25.6169 Y9.4541
G01 X25.6606 Y9.5022
G01 X25.6842 Y9.5294
G01 X25.6975 Y9.5458
G01 X25.7141 Y9.5674
G01 X25.7492 Y9.6147
G01 X25.7650 Y9.6369
G01 X25.7816 Y9.6617
G01 X25.7960 Y9.6848
G01 X25.8339 Y9.7483
G01 X25.8499 Y9.7775
G01 X25.8634 Y9.8042
G01 X25.8912 Y9.8630
G01 X25.9025 Y9.8878
G01 X25.9139 Y9.9154
G01 X25.9235 Y9.9409
G01 X25.9482 Y10.0104
G01 X25.9547 Y10.0305
G01 X25.9640 Y10.0625
G01 X25.9821 Y10.1341
G01 X25.9901 Y10.1693
G01 X25.9962 Y10.2021
G01 X26.0072 Y10.2751
G01 X26.0108 Y10.3021
G01 X26.0129 Y10.3231
G01 X26.0151 Y10.3529
G01 X26.0184 Y10.4178
G01 X26.0194 Y10.4600
G01 X26.0194 Y16.0410
G01 X26.0863 Y16.0312
G01 X26.1072 Y16.0287
G01 X26.1282 Y16.0268
G01 X26.1554 Y16.0250
G01 X26.2240 Y16.0217
G01 X26.2451 Y16.0210
G01 X26.2749 Y16.0210
G01 X26.3022 Y16.0219
G01 X26.3708 Y16.0253
G01 X26.3918 Y16.0268
G01 X26.4128 Y16.0287
G01 X26.4425 Y16.0324
G01 X26.5165 Y16.0434
G01 X26.5459 Y16.0485
G01 X26.5676 Y16.0530
G01 X26.5767 Y16.0263
G01 X26.5986 Y15.9651
G01 X26.6061 Y15.9454
G01 X26.6175 Y15.9178
G01 X26.6288 Y15.8930
G01 X26.6605 Y15.8263
G01 X26.6758 Y15.7967
G01 X26.6906 Y15.7706
G01 X26.7272 Y15.7096
G01 X26.7432 Y15.6843
G01 X26.7620 Y15.6568
G01 X26.8059 Y15.5974
G01 X26.8225 Y15.5758
G01 X26.8415 Y15.5527
G01 X26.8594 Y15.5322
G01 X26.9031 Y15.4841
G01 X26.9280 Y15.4580
G01 X28.1780 Y14.2080
G01 X28.1976 Y14.1891
G01 X28.2522 Y14.1394
G01 X28.2794 Y14.1158
G01 X28.3055 Y14.0949
G01 X28.3647 Y14.0508
G01 X28.3941 Y14.0300
G01 X28.4221 Y14.0118
G01 X28.4854 Y13.9737
G01 X28.5089 Y13.9601
G01 X28.5275 Y13.9501
G01 X28.5542 Y13.9366
G01 X28.6185 Y13.9062
G01 X28.6459 Y13.8941
G01 X28.6768 Y13.8817
G01 X28.7463 Y13.8567
G01 X28.7721 Y13.8479
G01 X28.7922 Y13.8417
G01 X28.8211 Y13.8337
G01 X28.8841 Y13.8179
G01 X28.9107 Y13.8117
G01 X28.9313 Y13.8075
G01 X28.9668 Y13.8014
G01 X29.0399 Y13.7907
G01 X29.0731 Y13.7871
G01 X29.0941 Y13.7854
G01 X29.1740 Y13.7814
G01 X29.2100 Y13.7806
G01 X31.1455 Y13.7806
G01 X31.8025 Y13.1236
G01 X31.7519 Y13.0731
G01 X31.7330 Y13.0535
G01 X31.6734 Y12.9880
G01 X31.6555 Y12.9675
G01 X31.6365 Y12.9444
G01 X31.6199 Y12.9228
G01 X31.5673 Y12.8516
G01 X31.5552 Y12.8343
G01 X31.5436 Y12.8167
G01 X31.5292 Y12.7936
G01 X31.4838 Y12.7175
G01 X31.4677 Y12.6883
G01 X31.4543 Y12.6616
G01 X31.4175 Y12.5839
G01 X31.4054 Y12.5566
G01 X31.3975 Y12.5371
G01 X31.3900 Y12.5173
G01 X31.3643 Y12.4457
G01 X31.3288 Y12.4419
G01 X31.3079 Y12.4389
G01 X31.2871 Y12.4354
G01 X31.2664 Y12.4314
G01 X31.2458 Y12.4268
G01 X31.2253 Y12.4218
G01 X31.2050 Y12.4163
G01 X31.1848 Y12.4103
G01 X31.1647 Y12.4038
G01 X31.1448 Y12.3968
G01 X31.1251 Y12.3893
G01 X31.1056 Y12.3813
G01 X31.0863 Y12.3729
G01 X31.0672 Y12.3640
G01 X31.0483 Y12.3546
G01 X31.0219 Y12.3405
G01 X31.0036 Y12.3300
G01 X30.9856 Y12.3191
G01 X30.9678 Y12.3077
G01 X30.9504 Y12.2959
G01 X30.9332 Y12.2837
G01 X30.9163 Y12.2710
G01 X30.8998 Y12.2580
G01 X30.8835 Y12.2445
G01 X30.8676 Y12.2306
G01 X30.8521 Y12.2164
G01 X30.8369 Y12.2018
G01 X30.8221 Y12.1868
G01 X30.8076 Y12.1715
G01 X30.7935 Y12.1558
G01 X30.7720 Y12.1302
G01 X30.7536 Y12.1067
G01 X30.7341 Y12.0796
G01 X30.7223 Y12.0622
G01 X30.7109 Y12.0444
G01 X30.6956 Y12.0188
G01 X30.6795 Y11.9895
G01 X30.6660 Y11.9628
G01 X30.6522 Y11.9325
G01 X30.6440 Y11.9131
G01 X30.6332 Y11.8852
G01 X30.6224 Y11.8536
G01 X30.6137 Y11.8250
G01 X30.6052 Y11.7928
G01 X30.5986 Y11.7636
G01 X30.5925 Y11.7308
G01 X30.5893 Y11.7100
G01 X30.5866 Y11.6891
G01 X30.5837 Y11.6593
G01 X30.5817 Y11.6260
G01 X30.5809 Y11.5900
G01 X30.5809 Y6.1900
G01 X30.5813 Y6.1628
G01 X30.5828 Y6.1329
G01 X30.5857 Y6.0997
G01 X30.5893 Y6.0700
G01 X30.5946 Y6.0371
G01 X30.5986 Y6.0164
G01 X30.6052 Y5.9872
G01 X30.6137 Y5.9550
G01 X30.6197 Y5.9348
G01 X30.6291 Y5.9064
G01 X30.6407 Y5.8751
G01 X30.6522 Y5.8475
G01 X30.6660 Y5.8172
G01 X30.6795 Y5.7905
G01 X30.6956 Y5.7612
G01 X30.7109 Y5.7356
G01 X30.7291 Y5.7076
G01 X30.7463 Y5.6832
G01 X30.7665 Y5.6566
G01 X30.7855 Y5.6335
G01 X30.8076 Y5.6085
G01 X30.8282 Y5.5869
G01 X30.8521 Y5.5636
G01 X30.8742 Y5.5435
G01 X30.8998 Y5.5220
G01 X30.9233 Y5.5036
G01 X30.9504 Y5.4841
G01 X30.9752 Y5.4675
G01 X31.0036 Y5.4500
G01 X31.0296 Y5.4353
G01 X31.0592 Y5.4199
G01 X31.0863 Y5.4071
G01 X31.1056 Y5.3987
G01 X31.1366 Y5.3863
G01 X31.1647 Y5.3762
G01 X31.1965 Y5.3661
G01 X31.2253 Y5.3582
G01 X31.2578 Y5.3505
G01 X31.2871 Y5.3446
G01 X31.3200 Y5.3393
G01 X31.3497 Y5.3357
G01 X31.3829 Y5.3328
G01 X31.4128 Y5.3313
G01 X31.4400 Y5.3309
G01 X34.3461 Y5.3309
G01 X34.3760 Y5.3317
G01 X34.4093 Y5.3337
G01 X34.4391 Y5.3366
G01 X34.4721 Y5.3411
G01 X34.5016 Y5.3462
G01 X34.5342 Y5.3532
G01 X34.5632 Y5.3604
G01 X34.5855 Y5.3668
G01 X34.5855 Y4.4265
G01 X34.5749 Y4.4058
G01 X34.5658 Y4.3867
G01 X34.5537 Y4.3594
G01 X34.5457 Y4.3399
G01 X34.5382 Y4.3202
G01 X34.5312 Y4.3003
G01 X34.5211 Y4.2685
G01 X34.5154 Y4.2482
G01 X34.5102 Y4.2278
G01 X34.5036 Y4.1986
G01 X34.4996 Y4.1779
G01 X34.4943 Y4.1450
G01 X34.4916 Y4.1241
G01 X34.4887 Y4.0943
G01 X34.4873 Y4.0733
G01 X34.4863 Y4.0522
G01 X34.4859 Y4.0250
G01 X34.4859 Y2.3250
G01 X34.4863 Y2.2978
G01 X34.4878 Y2.2679
G01 X34.4907 Y2.2347
G01 X34.4931 Y2.2138
G01 X34.4975 Y2.1842
G01 X34.5036 Y2.1514
G01 X34.5102 Y2.1222
G01 X34.5187 Y2.0900
G01 X34.5274 Y2.0614
G01 X34.5382 Y2.0298
G01 X34.5490 Y2.0019
G01 X34.5621 Y1.9713
G01 X34.5710 Y1.9522
G01 X34.5845 Y1.9255
G01 X34.6006 Y1.8962
G01 X34.6159 Y1.8706
G01 X34.6341 Y1.8426
G01 X34.6513 Y1.8182
G01 X34.6715 Y1.7916
G01 X34.6905 Y1.7685
G01 X34.7126 Y1.7435
G01 X34.7332 Y1.7219
G01 X34.7571 Y1.6986
G01 X34.7792 Y1.6785
G01 X34.8048 Y1.6570
G01 X34.8283 Y1.6386
G01 X34.8554 Y1.6191
G01 X34.8802 Y1.6025
G01 X34.9086 Y1.5850
G01 X34.9346 Y1.5703
G01 X34.9642 Y1.5549
G01 X34.9913 Y1.5421
G01 X35.0219 Y1.5290
G01 X35.0498 Y1.5182
G01 X35.0814 Y1.5074
G01 X35.1055 Y1.5000
G01 X18.5000 Y1.5000
G01 X18.5000 Y6.4609
G01 X18.7950 Y6.4609
G01 X18.8310 Y6.4617
G01 X18.8643 Y6.4637
G01 X18.8853 Y6.4657
G01 X18.9062 Y6.4681
G01 X18.9358 Y6.4725
G01 X18.9686 Y6.4786
G01 X18.9892 Y6.4832
G01 X19.0097 Y6.4882
G01 X19.0300 Y6.4937
G01 X19.0502 Y6.4997
G01 X19.0703 Y6.5062
G01 X19.0984 Y6.5163
G01 X19.1181 Y6.5240
G01 X19.1375 Y6.5322
G01 X19.1567 Y6.5408
G01 X19.1758 Y6.5499
G01 X19.1945 Y6.5595
G01 X19.2131 Y6.5695
G01 X19.2419 Y6.5863
G01 X19.2598 Y6.5975
G01 X19.2774 Y6.6091
G01 X19.2947 Y6.6212
G01 X19.3117 Y6.6336
G01 X19.3352 Y6.6520
G01 X19.3515 Y6.6655
G01 X19.3674 Y6.6794
G01 X19.3829 Y6.6936
G01 X19.3981 Y6.7082
G01 X19.4214 Y6.7321
G01 X19.4356 Y6.7476
G01 X19.4495 Y6.7635
G01 X19.4685 Y6.7866
G01 X19.4814 Y6.8033
G01 X19.4938 Y6.8203
G01 X19.5059 Y6.8376
G01 X19.5241 Y6.8656
G01 X19.5394 Y6.8912
G01 X19.5497 Y6.9096
G01 X19.5596 Y6.9283
G01 X19.5742 Y6.9583
G01 X19.5828 Y6.9775
G01 X19.5910 Y6.9969
G01 X19.5987 Y7.0166
G01 X19.6088 Y7.0447
G01 X19.6153 Y7.0648
G01 X19.6213 Y7.0850
G01 X19.6268 Y7.1053
G01 X19.6318 Y7.1258
G01 X19.6364 Y7.1464
G01 X19.6425 Y7.1792
G01 X19.6469 Y7.2088
G01 X19.6493 Y7.2297
G01 X19.6513 Y7.2507
G01 X19.6532 Y7.2805
G00 Z2.0000
G00 X19.8938 Y7.2805
G01 F80.00
G01 Z-0.0800
G01 F200.00
G01 X19.9009 Y7.2163
G01 X19.9277 Y7.0193
G01 X19.9593 Y6.8231
G01 X19.9956 Y6.6276
G01 X20.0368 Y6.4331
G01 X20.0827 Y6.2397
G01 X20.1334 Y6.0475
G01 X20.1888 Y5.8566
G01 X20.2488 Y5.6670
G01 X20.3135 Y5.4791
G01 X20.3828 Y5.2927
G01 X20.4566 Y5.1081
G01 X20.5349 Y4.9254
G01 X20.6177 Y4.7447
G01 X20.7049 Y4.5660
G01 X20.7964 Y4.3895
G01 X20.8923 Y4.2154
G01 X20.9924 Y4.0436
G01 X21.0967 Y3.8744
G01 X21.2051 Y3.7077
G01 X21.3176 Y3.5438
G01 X21.4340 Y3.3827
G01 X21.5544 Y3.2245
G01 X21.6786 Y3.0693
G01 X21.8066 Y2.9172
G01 X21.9383 Y2.7682
G01 X22.0736 Y2.6226
G01 X22.2124 Y2.4803
G01 X22.3547 Y2.3415
G01 X22.5004 Y2.2062
G01 X22.6493 Y2.0745
G01 X22.8014 Y1.9465
G01 X22.9566 Y1.8223
G01 X23.1148 Y1.7019
G01 X23.2760 Y1.5854
G01 X23.4005 Y1.5000
G01 X24.5857 Y1.5000
G01 X24.5679 Y1.5087
G01 X24.4045 Y1.5935
G01 X24.2433 Y1.6822
G01 X24.0842 Y1.7749
G01 X23.9275 Y1.8715
G01 X23.7732 Y1.9718
G01 X23.6214 Y2.0760
G01 X23.4723 Y2.1838
G01 X23.3258 Y2.2953
G01 X23.1821 Y2.4103
G01 X23.0412 Y2.5288
G01 X22.9033 Y2.6507
G01 X22.7684 Y2.7760
G01 X22.6367 Y2.9046
G01 X22.5081 Y3.0363
G01 X22.3829 Y3.1712
G01 X22.2609 Y3.3091
G01 X22.1424 Y3.4499
G01 X22.0274 Y3.5936
G01 X21.9159 Y3.7401
G01 X21.8081 Y3.8893
G01 X21.7040 Y4.0411
G01 X21.6036 Y4.1954
G01 X21.5070 Y4.3521
G01 X21.4143 Y4.5111
G01 X21.3256 Y4.6724
G01 X21.2408 Y4.8358
G01 X21.1601 Y5.0012
G01 X21.0834 Y5.1686
G01 X21.0109 Y5.3377
G01 X20.9426 Y5.5086
G01 X20.9039 Y5.6126
G00 Z2.0000
G00 X20.6809 Y6.3243
G01 F80.00
G01 Z-0.0800
G01 F200.00
G01 X20.6648 Y6.3855
G01 X20.6222 Y6.5646
G01 X20.5841 Y6.7447
G01 X20.5504 Y6.9256
G01 X20.5212 Y7.1074
G01 X20.4977 Y7.2805
G00 Z2.0000
G00 X21.6690 Y5.3309
G01 F80.00
G01 Z-0.0800
G01 F200.00
G01 X21.7025 Y5.2577
G01 X21.7768 Y5.1055
G01 X21.8547 Y4.9552
G01 X21.9364 Y4.8069
G01 X22.0217 Y4.6606
G01 X22.1105 Y4.5164
G01 X22.2029 Y4.3744
G01 X22.2987 Y4.2348
G01 X22.3979 Y4.0975
G01 X22.5004 Y3.9628
G01 X22.6062 Y3.8305
G01 X22.7153 Y3.7010
G01 X22.8274 Y3.5741
G01 X22.9427 Y3.4500
G01 X23.0610 Y3.3288
G01 X23.1822 Y3.2106
G01 X23.3062 Y3.0953
G01 X23.4331 Y2.9831
G01 X23.5627 Y2.8741
G01 X23.6949 Y2.7683
G01 X23.8297 Y2.6657
G01 X23.9669 Y2.5665
G01 X24.1066 Y2.4707
G01 X24.2485 Y2.3784
G01 X24.3927 Y2.2895
G01 X24.5390 Y2.2043
G01 X24.6874 Y2.1226
G01 X24.8377 Y2.0446
G01 X24.9899 Y1.9703
G01 X25.1438 Y1.8998
G01 X25.2995 Y1.8331
G01 X25.4567 Y1.7702
G01 X25.6155 Y1.7112
G01 X25.7756 Y1.6561
G01 X25.9370 Y1.6050
G01 X26.0997 Y1.5578
G01 X26.2634 Y1.5146
G01 X26.3251 Y1.5000
G01 X29.5549 Y1.5000
G01 X29.6166 Y1.5146
G01 X29.7803 Y1.5578
G01 X29.9430 Y1.6050
G01 X30.1044 Y1.6561
G01 X30.2645 Y1.7112
G01 X30.4233 Y1.7702
G01 X30.5805 Y1.8331
G01 X30.7362 Y1.8998
G01 X30.8901 Y1.9703
G01 X31.0423 Y2.0446
G01 X31.1926 Y2.1226
G01 X31.3410 Y2.2043
G01 X31.4873 Y2.2895
G01 X31.6315 Y2.3784
G01 X31.7734 Y2.4707
G01 X31.9131 Y2.5665
G01 X32.0503 Y2.6657
G01 X32.1851 Y2.7683
G01 X32.3173 Y2.8741
G01 X32.4469 Y2.9831
G01 X32.5738 Y3.0953
G01 X32.6978 Y3.2106
G01 X32.8190 Y3.3288
G01 X32.9373 Y3.4500
G01 X33.0526 Y3.5741
G01 X33.1647 Y3.7010
G01 X33.2738 Y3.8305
G01 X33.3796 Y3.9628
G01 X33.4821 Y4.0975
G01 X33.5813 Y4.2348
G01 X33.6771 Y4.3744
G01 X33.7695 Y4.5164
G01 X33.8583 Y4.6606
G01 X33.9436 Y4.8069
G01 X34.0253 Y4.9552
G01 X34.1032 Y5.1055
G01 X34.1775 Y5.2577
G01 X34.2110 Y5.3309
G00 Z2.0000
G00 X33.5443 Y5.3309
G01 F80.00
G01 Z-0.0800
G01 F200.00
G01 X33.4961 Y5.2381
G01 X33.4215 Y5.1026
G01 X33.3437 Y4.9690
G01 X33.2626 Y4.8374
G01 X33.1783 Y4.7078
G01 X33.0908 Y4.5803
G01 X33.0002 Y4.4550
G01 X32.9066 Y4.3319
G01 X32.8100 Y4.2112
G01 X32.7104 Y4.0929
G01 X32.6080 Y3.9770
G01 X32.5028 Y3.8638
G01 X32.3948 Y3.7531
G01 X32.2841 Y3.6451
G01 X32.1708 Y3.5399
G01 X32.0550 Y3.4374
G01 X31.9367 Y3.3379
G01 X31.8160 Y3.2413
G01 X31.6929 Y3.1477
G01 X31.5676 Y3.0571
G01 X31.4401 Y2.9696
G01 X31.3105 Y2.8853
G01 X31.1788 Y2.8042
G01 X31.0453 Y2.7263
G01 X30.9098 Y2.6518
G01 X30.7726 Y2.5805
G01 X30.6336 Y2.5127
G01 X30.4930 Y2.4483
G01 X30.3509 Y2.3874
G01 X30.2073 Y2.3300
G01 X30.0624 Y2.2761
G01 X29.9162 Y2.2258
G01 X29.7688 Y2.1791
G01 X29.6203 Y2.1361
G01 X29.4708 Y2.0967
G01 X29.3203 Y2.0609
G01 X29.1691 Y2.0289
G01 X29.0171 Y2.0006
G01 X28.8644 Y1.9760
G01 X28.7112 Y1.9552
G01 X28.5575 Y1.9382
G01 X28.4035 Y1.9249
G01 X28.2491 Y1.9154
G01 X28.0946 Y1.9098
G01 X27.9400 Y1.9079
G01 X27.7854 Y1.9098
G01 X27.6309 Y1.9154
G01 X27.4765 Y1.9249
G01 X27.3225 Y1.9382
G01 X27.1688 Y1.9552
G01 X27.0156 Y1.9760
G01 X26.8629 Y2.0006
G01 X26.7109 Y2.0289
G01 X26.5597 Y2.0609
G01 X26.4092 Y2.0967
G01 X26.2597 Y2.1361
G01 X26.1112 Y2.1791
G01 X25.9638 Y2.2258
G01 X25.8176 Y2.2761
G01 X25.6727 Y2.3300
G01 X25.5291 Y2.3874
G01 X25.3870 Y2.4483
G01 X25.2464 Y2.5127
G01 X25.1074 Y2.5805
G01 X24.9702 Y2.6518
G01 X24.8347 Y2.7263
G01 X24.7012 Y2.8042
G01 X24.5695 Y2.8853
G01 X24.4399 Y2.9696
G01 X24.3124 Y3.0571
G01 X24.1871 Y3.1477
G01 X24.0640 Y3.2413
G01 X23.9433 Y3.3379
G01 X23.8250 Y3.4374
G01 X23.7092 Y3.5399
G01 X23.5959 Y3.6451
G01 X23.4852 Y3.7531
G01 X23.3772 Y3.8638
G01 X23.2720 Y3.9770
G01 X23.1696 Y4.0929
G01 X23.0700 Y4.2112
G01 X22.9734 Y4.3319
G01 X22.8798 Y4.4550
G01 X22.7892 Y4.5803
G01 X22.7017 Y4.7078
G01 X22.6174 Y4.8374
G01 X22.5363 Y4.9690
G01 X22.4585 Y5.1026
G01 X22.3839 Y5.2381
G01 X22.3357 Y5.3309
G00 Z2.0000
G00 X23.0198 Y5.3309
G01 F80.00
G01 Z-0.0800
G01 F200.00
G01 X23.0509 Y5.2775
G01 X23.1243 Y5.1584
G01 X23.2006 Y5.0411
G01 X23.2798 Y4.9258
G01 X23.3617 Y4.8124
G01 X23.4464 Y4.7010
G01 X23.5338 Y4.5918
G01 X23.6239 Y4.4848
G01 X23.7166 Y4.3800
G01 X23.8118 Y4.2775
G01 X23.9095 Y4.1774
G01 X24.0096 Y4.0797
G01 X24.1121 Y3.9844
G01 X24.2169 Y3.8918
G01 X24.3240 Y3.8017
G01 X24.4332 Y3.7143
G01 X24.5445 Y3.6296
G01 X24.6579 Y3.5476
G01 X24.7732 Y3.4685
G01 X24.8905 Y3.3922
G01 X25.0096 Y3.3188
G01 X25.1305 Y3.2484
G01 X25.2530 Y3.1809
G01 X25.3772 Y3.1165
G01 X25.5029 Y3.0551
G01 X25.6301 Y2.9969
G01 X25.7587 Y2.9417
G01 X25.8886 Y2.8898
G01 X26.0197 Y2.8411
G01 X26.1520 Y2.7956
G01 X26.2854 Y2.7533
G01 X26.4197 Y2.7143
G01 X26.5550 Y2.6787
G01 X26.6911 Y2.6464
G01 X26.8280 Y2.6174
G01 X26.9655 Y2.5918
G01 X27.1036 Y2.5696
G01 X27.2423 Y2.5507
G01 X27.3813 Y2.5353
G01 X27.5207 Y2.5233
G01 X27.6603 Y2.5147
G01 X27.8001 Y2.5096
G01 X27.9400 Y2.5079
G01 X28.0799 Y2.5096
G01 X28.2197 Y2.5147
G01 X28.3593 Y2.5233
G01 X28.4987 Y2.5353
G01 X28.6377 Y2.5507
G01 X28.7764 Y2.5696
G01 X28.9145 Y2.5918
G01 X29.0520 Y2.6174
G01 X29.1889 Y2.6464
G01 X29.3250 Y2.6787
G01 X29.4603 Y2.7143
G01 X29.5946 Y2.7533
G01 X29.7280 Y2.7956
G01 X29.8603 Y2.8411
G01 X29.9914 Y2.8898
G01 X30.1213 Y2.9417
G01 X30.2499 Y2.9969
G01 X30.3771 Y3.0551
G01 X30.5028 Y3.1165
G01 X30.6270 Y3.1809
G01 X30.7495 Y3.2484
G01 X30.8704 Y3.3188
G01 X30.9895 Y3.3922
G01 X31.1068 Y3.4685
G01 X31.2221 Y3.5476
G01 X31.3355 Y3.6296
G01 X31.4468 Y3.7143
G01 X31.5560 Y3.8017
G01 X31.6631 Y3.8918
G01 X31.7679 Y3.9844
G01 X31.8704 Y4.0797
G01 X31.9705 Y4.1774
G01 X32.0682 Y4.2775
G01 X32.1634 Y4.3800
G01 X32.2561 Y4.4848
G01 X32.3462 Y4.5918
G01 X32.4336 Y4.7010
G01 X32.5183 Y4.8124
G01 X32.6002 Y4.9258
G01 X32.6794 Y5.0411
G01 X32.7557 Y5.1584
G01 X32.8291 Y5.2775
G01 X32.8602 Y5.3309
G00 Z2.0000
G00 X32.1506 Y5.3309
G01 F80.00
G01 Z-0.0800
G01 F200.00
G01 X32.1097 Y5.2712
G01 X32.0364 Y5.1698
G01 X31.9606 Y5.0702
G01 X31.8824 Y4.9725
G01 X31.8018 Y4.8767
G01 X31.7189 Y4.7829
G01 X31.6337 Y4.6912
G01 X31.5462 Y4.6016
G01 X31.4567 Y4.5142
G01 X31.3650 Y4.4290
G01 X31.2712 Y4.3461
G01 X31.1754 Y4.2655
G01 X31.0777 Y4.1873
G01 X30.9781 Y4.1115
G01 X30.8766 Y4.0382
G01 X30.7734 Y3.9674
G01 X30.6685 Y3.8991
G01 X30.5619 Y3.8334
G01 X30.4538 Y3.7704
G01 X30.3441 Y3.7101
G01 X30.2330 Y3.6524
G01 X30.1205 Y3.5975
G01 X30.0067 Y3.5454
G01 X29.8917 Y3.4961
G01 X29.7755 Y3.4496
G01 X29.6581 Y3.4060
G01 X29.5398 Y3.3653
G01 X29.4205 Y3.3275
G01 X29.3002 Y3.2926
G01 X29.1792 Y3.2607
G01 X29.0574 Y3.2318
G01 X28.9350 Y3.2059
G01 X28.8119 Y3.1829
G01 X28.6883 Y3.1631
G01 X28.5643 Y3.1462
G01 X28.4399 Y3.1324
G01 X28.3152 Y3.1217
G01 X28.1902 Y3.1140
G01 X28.0652 Y3.1094
G01 X27.9400 Y3.1079
G01 X27.8148 Y3.1094
G01 X27.6898 Y3.1140
G01 X27.5648 Y3.1217
G01 X27.4401 Y3.1324
G01 X27.3157 Y3.1462
G01 X27.1917 Y3.1631
G01 X27.0681 Y3.1829
G01 X26.9450 Y3.2059
G01 X26.8226 Y3.2318
G01 X26.7008 Y3.2607
G01 X26.5798 Y3.2926
G01 X26.4595 Y3.3275
G01 X26.3402 Y3.3653
G01 X26.2219 Y3.4060
G01 X26.1045 Y3.4496
G01 X25.9883 Y3.4961
G01 X25.8733 Y3.5454
G01 X25.7595 Y3.5975
G01 X25.6470 Y3.6524
G01 X25.5359 Y3.7101
G01 X25.4262 Y3.7704
G01 X25.3181 Y3.8334
G01 X25.2115 Y3.8991
G01 X25.1066 Y3.9674
G01 X25.0034 Y4.0382
G01 X24.9019 Y4.1115
G01 X24.8023 Y4.1873
G01 X24.7046 Y4.2655
G01 X24.6088 Y4.3461
G01 X24.5150 Y4.4290
G01 X24.4233 Y4.5142
G01 X24.3338 Y4.6016
G01 X24.2463 Y4.6912
G01 X24.1611 Y4.7829
G01 X24.0782 Y4.8767
G01 X23.9976 Y4.9725
G01 X23.9194 Y5.0702
G01 X23.8436 Y5.1698
G01 X23.7703 Y5.2712
G01 X23.7294 Y5.3309
G00 Z2.0000
G00 X24.4793 Y5.3318
G01 F80.00
G01 Z-0.0800
G01 F200.00
G01 X24.5326 Y5.2686
G01 X24.6057 Y5.1858
G01 X24.6809 Y5.1049
G01 X24.7580 Y5.0259
G01 X24.8371 Y4.9487
G01 X24.9180 Y4.8736
G01 X25.0007 Y4.8004
G01 X25.0852 Y4.7293
G01 X25.1715 Y4.6603
G01 X25.2594 Y4.5934
G01 X25.3489 Y4.5287
G01 X25.4399 Y4.4662
G01 X25.5325 Y4.4060
G01 X25.6265 Y4.3481
G01 X25.7220 Y4.2925
G01 X25.8187 Y4.2392
G01 X25.9167 Y4.1884
G01 X26.0160 Y4.1399
G01 X26.1164 Y4.0939
G01 X26.2179 Y4.0504
G01 X26.3205 Y4.0094
G01 X26.4240 Y3.9709
G01 X26.5284 Y3.9350
G01 X26.6337 Y3.9016
G01 X26.7398 Y3.8709
G01 X26.8466 Y3.8427
G01 X26.9540 Y3.8172
G01 X27.0621 Y3.7943
G01 X27.1707 Y3.7741
G01 X27.2797 Y3.7566
G01 X27.3892 Y3.7417
G01 X27.4989 Y3.7295
G01 X27.6090 Y3.7201
G01 X27.7192 Y3.7133
G01 X27.8296 Y3.7092
G01 X27.9400 Y3.7079
G01 X28.0504 Y3.7092
G01 X28.1608 Y3.7133
G01 X28.2710 Y3.7201
G01 X28.3811 Y3.7295
G01 X28.4908 Y3.7417
G01 X28.6003 Y3.7566
G01 X28.7093 Y3.7741
G01 X28.8179 Y3.7943
G01 X28.9260 Y3.8172
G01 X29.0334 Y3.8427
G01 X29.1402 Y3.8709
G01 X29.2463 Y3.9016
G01 X29.3516 Y3.9350
G01 X29.4560 Y3.9709
G01 X29.5595 Y4.0094
G01 X29.6621 Y4.0504
G01 X29.7636 Y4.0939
G01 X29.8640 Y4.1399
G01 X29.9633 Y4.1884
G01 X30.0613 Y4.2392
G01 X30.1580 Y4.2925
G01 X30.2535 Y4.3481
G01 X30.3475 Y4.4060
G01 X30.4401 Y4.4662
G01 X30.5311 Y4.5287
G01 X30.6206 Y4.5934
G01 X30.7085 Y4.6603
G01 X30.7948 Y4.7293
G01 X30.8793 Y4.8004
G01 X30.9620 Y4.8736
G01 X31.0429 Y4.9487
G01 X31.1220 Y5.0259
G01 X31.1991 Y5.1049
G01 X31.2743 Y5.1858
G01 X31.3474 Y5.2686
G01 X31.4007 Y5.3318
G00 Z2.0000
G00 X30.8281 Y5.5870
G01 F80.00
G01 Z-0.0800
G01 F200.00
G01 X30.7646 Y5.5187
G01 X30.6977 Y5.4501
G01 X30.6292 Y5.3833
G01 X30.5591 Y5.3182
G01 X30.4874 Y5.2547
G01 X30.4141 Y5.1931
G01 X30.3394 Y5.1333
G01 X30.2632 Y5.0754
G01 X30.1857 Y5.0193
G01 X30.1067 Y4.9651
G01 X30.0265 Y4.9129
G01 X29.9450 Y4.8627
G01 X29.8623 Y4.8145
G01 X29.7784 Y4.7684
G01 X29.6935 Y4.7243
G01 X29.6075 Y4.6823
G01 X29.5204 Y4.6424
G01 X29.4325 Y4.6047
G01 X29.3436 Y4.5692
G01 X29.2539 Y4.5358
G01 X29.1634 Y4.5047
G01 X29.0721 Y4.4758
G01 X28.9802 Y4.4491
G01 X28.8876 Y4.4247
G01 X28.7945 Y4.4026
G01 X28.7009 Y4.3828
G01 X28.6068 Y4.3653
G01 X28.5122 Y4.3501
G01 X28.4174 Y4.3372
G01 X28.3223 Y4.3266
G01 X28.2269 Y4.3184
G01 X28.1314 Y4.3126
G01 X28.0357 Y4.3090
G01 X27.9400 Y4.3079
G01 X27.8443 Y4.3090
G01 X27.7486 Y4.3126
G01 X27.6531 Y4.3184
G01 X27.5577 Y4.3266
G01 X27.4626 Y4.3372
G01 X27.3678 Y4.3501
G01 X27.2732 Y4.3653
G01 X27.1791 Y4.3828
G01 X27.0855 Y4.4026
G01 X26.9924 Y4.4247
G01 X26.8998 Y4.4491
G01 X26.8079 Y4.4758
G01 X26.7166 Y4.5047
G01 X26.6261 Y4.5358
G01 X26.5364 Y4.5692
G01 X26.4475 Y4.6047
G01 X26.3596 Y4.6424
G01 X26.2725 Y4.6823
G01 X26.1865 Y4.7243
G01 X26.1016 Y4.7684
G01 X26.0177 Y4.8145
G01 X25.9350 Y4.8627
G01 X25.8535 Y4.9129
G01 X25.7733 Y4.9651
G01 X25.6943 Y5.0193
G01 X25.6168 Y5.0754
G01 X25.5406 Y5.1333
G01 X25.4659 Y5.1931
G01 X25.3926 Y5.2547
G01 X25.3209 Y5.3182
G01 X25.2508 Y5.3833
G01 X25.1823 Y5.4501
G01 X25.1154 Y5.5187
G01 X25.0519 Y5.5870
G00 Z2.0000
G00 X25.2991 Y6.2293
G01 F80.00
G01 Z-0.0800
G01 F200.00
G01 X25.3385 Y6.1776
G01 X25.3891 Y6.1144
G01 X25.4412 Y6.0524
G01 X25.4949 Y5.9917
G01 X25.5500 Y5.9324
G01 X25.6065 Y5.8744
G01 X25.6645 Y5.8178
G01 X25.7239 Y5.7627
G01 X25.7845 Y5.7091
G01 X25.8465 Y5.6569
G01 X25.9097 Y5.6063
G01 X25.9742 Y5.5573
G01 X26.0398 Y5.5098
G01 X26.1066 Y5.4640
G01 X26.1745 Y5.4198
G01 X26.2435 Y5.3774
G01 X26.3134 Y5.3366
G01 X26.3844 Y5.2975
G01 X26.4563 Y5.2602
G01 X26.5291 Y5.2247
G01 X26.6027 Y5.1910
G01 X26.6771 Y5.1591
G01 X26.7523 Y5.1290
G01 X26.8283 Y5.1008
G01 X26.9049 Y5.0744
G01 X26.9821 Y5.0500
G01 X27.0598 Y5.0274
G01 X27.1382 Y5.0068
G01 X27.2170 Y4.9880
G01 X27.2962 Y4.9713
G01 X27.3758 Y4.9564
G01 X27.4558 Y4.9436
G01 X27.5360 Y4.9327
G01 X27.6165 Y4.9238
G01 X27.6972 Y4.9168
G01 X27.7781 Y4.9118
G01 X27.8590 Y4.9089
G01 X27.9400 Y4.9079
G01 X28.0210 Y4.9089
G01 X28.1019 Y4.9118
G01 X28.1828 Y4.9168
G01 X28.2635 Y4.9238
G01 X28.3440 Y4.9327
G01 X28.4242 Y4.9436
G01 X28.5042 Y4.9564
G01 X28.5838 Y4.9713
G01 X28.6630 Y4.9880
G01 X28.7418 Y5.0068
G01 X28.8202 Y5.0274
G01 X28.8979 Y5.0500
G01 X28.9751 Y5.0744
G01 X29.0517 Y5.1008
G01 X29.1277 Y5.1290
G01 X29.2029 Y5.1591
G01 X29.2773 Y5.1910
G01 X29.3509 Y5.2247
G01 X29.4237 Y5.2602
G01 X29.4956 Y5.2975
G01 X29.5666 Y5.3366
G01 X29.6365 Y5.3774
G01 X29.7055 Y5.4198
G01 X29.7734 Y5.4640
G01 X29.8402 Y5.5098
G01 X29.9058 Y5.5573
G01 X29.9703 Y5.6063
G01 X30.0335 Y5.6569
G01 X30.0955 Y5.7091
G01 X30.1561 Y5.7627
G01 X30.2155 Y5.8178
G01 X30.2735 Y5.8744
G01 X30.3300 Y5.9324
G01 X30.3851 Y5.9917
G01 X30.4388 Y6.0524
G01 X30.4909 Y6.1144
G01 X30.5415 Y6.1776
G01 X30.5809 Y6.2293
G01 X30.5809 Y7.6470
G01 X30.5744 Y7.6163
G01 X30.5591 Y7.5518
G01 X30.5422 Y7.4877
G01 X30.5237 Y7.4241
G01 X30.5037 Y7.3609
G01 X30.4822 Y7.2983
G01 X30.4591 Y7.2361
G01 X30.4345 Y7.1746
G01 X30.4084 Y7.1137
G01 X30.3808 Y7.0535
G01 X30.3517 Y6.9939
G01 X30.3212 Y6.9351
G01 X30.2892 Y6.8770
G01 X30.2559 Y6.8198
G01 X30.2211 Y6.7634
G01 X30.1850 Y6.7078
G01 X30.1475 Y6.6532
G01 X30.1087 Y6.5995
G01 X30.0685 Y6.5467
G01 X30.0271 Y6.4950
G01 X29.9845 Y6.4443
G01 X29.9406 Y6.3947
G01 X29.8955 Y6.3461
G01 X29.8492 Y6.2987
G01 X29.8018 Y6.2524
G01 X29.7532 Y6.2073
G01 X29.7036 Y6.1634
G01 X29.6529 Y6.1207
G01 X29.6011 Y6.0793
G01 X29.5484 Y6.0392
G01 X29.4947 Y6.0004
G01 X29.4400 Y5.9629
G01 X29.3845 Y5.9268
G01 X29.3281 Y5.8920
G01 X29.2708 Y5.8586
G01 X29.2128 Y5.8267
G01 X29.1540 Y5.7962
G01 X29.0944 Y5.7671
G01 X29.0342 Y5.7395
G01 X28.9732 Y5.7134
G01 X28.9117 Y5.6888
G01 X28.8496 Y5.6657
G01 X28.7869 Y5.6441
G01 X28.7238 Y5.6241
G01 X28.6601 Y5.6057
G01 X28.5960 Y5.5888
G01 X28.5316 Y5.5735
G01 X28.4667 Y5.5597
G01 X28.4016 Y5.5476
G01 X28.3362 Y5.5371
G01 X28.2705 Y5.5282
G01 X28.2046 Y5.5209
G01 X28.1386 Y5.5152
G01 X28.0725 Y5.5111
G01 X28.0063 Y5.5087
G01 X27.9400 Y5.5079
G01 X27.8737 Y5.5087
G01 X27.8075 Y5.5111
G01 X27.7414 Y5.5152
G01 X27.6754 Y5.5209
G01 X27.6095 Y5.5282
G01 X27.5438 Y5.5371
G01 X27.4784 Y5.5476
G01 X27.4133 Y5.5597
G01 X27.3484 Y5.5735
G01 X27.2840 Y5.5888
G01 X27.2199 Y5.6057
G01 X27.1562 Y5.6241
G01 X27.0931 Y5.6441
G01 X27.0304 Y5.6657
G01 X26.9683 Y5.6888
G01 X26.9068 Y5.7134
G01 X26.8458 Y5.7395
G01 X26.7856 Y5.7671
G01 X26.7260 Y5.7962
G01 X26.6672 Y5.8267
G01 X26.6092 Y5.8586
G01 X26.5519 Y5.8920
G01 X26.4955 Y5.9268
G01 X26.4400 Y5.9629
G01 X26.3853 Y6.0004
G01 X26.3316 Y6.0392
G01 X26.2789 Y6.0793
G01 X26.2271 Y6.1207
G01 X26.1764 Y6.1634
G01 X26.1268 Y6.2073
G01 X26.0782 Y6.2524
G01 X26.0308 Y6.2987
G01 X25.9845 Y6.3461
G01 X25.9394 Y6.3947
G01 X25.8955 Y6.4443
G01 X25.8529 Y6.4950
G01 X25.8115 Y6.5467
G01 X25.7713 Y6.5995
G01 X25.7325 Y6.6532
G01 X25.6950 Y6.7078
G01 X25.6589 Y6.7634
G01 X25.6241 Y6.8198
G01 X25.5908 Y6.8770
G01 X25.5588 Y6.9351
G01 X25.5283 Y6.9939
G01 X25.4992 Y7.0535
G01 X25.4716 Y7.1137
G01 X25.4455 Y7.1746
G01 X25.4209 Y7.2361
G01 X25.3978 Y7.2983
G01 X25.3763 Y7.3609
G01 X25.3563 Y7.4241
G01 X25.3378 Y7.4877
G01 X25.3209 Y7.5518
G01 X25.3056 Y7.6163
G01 X25.2991 Y7.6470
G00 Z2.0000
G00 X25.2991 Y8.7687
G01 F80.00
G01 Z-0.0800
G01 F200.00
G01 X25.3056 Y8.7994
G01 X25.3209 Y8.8639
G01 X25.3378 Y8.9280
G01 X25.3563 Y8.9916
G01 X25.3763 Y9.0548
G01 X25.3978 Y9.1175
G01 X25.4209 Y9.1796
G01 X25.4455 Y9.2411
G01 X25.4765 Y9.3126
G00 Z2.0000
G00 X25.9579 Y10.0410
G01 F80.00
G01 Z-0.0800
G01 F200.00
G01 X25.9845 Y10.0696
G01 X26.0308 Y10.1170
G01 X26.0782 Y10.1633
G01 X26.1268 Y10.2084
G01 X26.1764 Y10.2523
G01 X26.2271 Y10.2950
G01 X26.2789 Y10.3364
G01 X26.3316 Y10.3765
G01 X26.3853 Y10.4153
G01 X26.4400 Y10.4528
G01 X26.4955 Y10.4890
G01 X26.5519 Y10.5237
G01 X26.6092 Y10.5571
G01 X26.6672 Y10.5890
G01 X26.7260 Y10.6196
G01 X26.7856 Y10.6486
G01 X26.8458 Y10.6762
G01 X26.9068 Y10.7023
G01 X26.9683 Y10.7269
G01 X27.0304 Y10.7500
G01 X27.0931 Y10.7716
G01 X27.1562 Y10.7916
G01 X27.2199 Y10.8101
G01 X27.2840 Y10.8269
G01 X27.3484 Y10.8423
G01 X27.4133 Y10.8560
G01 X27.4784 Y10.8681
G01 X27.5438 Y10.8786
G01 X27.6095 Y10.8876
G01 X27.6754 Y10.8949
G01 X27.7414 Y10.9005
G01 X27.8075 Y10.9046
G01 X27.8737 Y10.9070
G01 X27.9400 Y10.9079
G01 X28.0063 Y10.9070
G01 X28.0725 Y10.9046
G01 X28.1386 Y10.9005
G01 X28.2046 Y10.8949
G01 X28.2705 Y10.8876
G01 X28.3362 Y10.8786
G01 X28.4016 Y10.8681
G01 X28.4667 Y10.8560
G01 X28.5316 Y10.8423
G01 X28.5960 Y10.8269
G01 X28.6601 Y10.8101
G01 X28.7238 Y10.7916
G01 X28.7869 Y10.7716
G01 X28.8496 Y10.7500
G01 X28.9117 Y10.7269
G01 X28.9732 Y10.7023
G01 X29.0342 Y10.6762
G01 X29.0944 Y10.6486
G01 X29.1540 Y10.6196
G01 X29.2128 Y10.5890
G01 X29.2708 Y10.5571
G01 X29.3281 Y10.5237
G01 X29.3845 Y10.4890
G01 X29.4400 Y10.4528
G01 X29.4947 Y10.4153
G01 X29.5484 Y10.3765
G01 X29.6011 Y10.3364
G01 X29.6529 Y10.2950
G01 X29.7036 Y10.2523
G01 X29.7532 Y10.2084
G01 X29.8018 Y10.1633
G01 X29.8492 Y10.1170
G01 X29.8955 Y10.0696
G01 X29.9406 Y10.0211
G01 X29.9845 Y9.9714
G01 X30.0271 Y9.9207
G01 X30.0685 Y9.8690
G01 X30.1087 Y9.8162
G01 X30.1475 Y9.7625
G01 X30.1850 Y9.7079
G01 X30.2211 Y9.6524
G01 X30.2559 Y9.5959
G01 X30.2892 Y9.5387
G01 X30.3212 Y9.4806
G01 X30.3517 Y9.4218
G01 X30.3808 Y9.3623
G01 X30.4084 Y9.3020
G01 X30.4345 Y9.2411
G01 X30.4591 Y9.1796
G01 X30.4822 Y9.1175
G01 X30.5037 Y9.0548
G01 X30.5237 Y8.9916
G01 X30.5422 Y8.9280
G01 X30.5591 Y8.8639
G01 X30.5744 Y8.7994
G01 X30.5809 Y8.7687
G01 X30.0400 Y8.2079
G01 X30.0394 Y8.1563
G01 X30.0375 Y8.1048
G01 X30.0343 Y8.0534
G01 X30.0299 Y8.0020
G01 X30.0242 Y7.9508
G01 X30.0173 Y7.8997
G01 X30.0091 Y7.8488
G01 X29.9996 Y7.7982
G01 X29.9890 Y7.7477
G01 X29.9771 Y7.6976
G01 X29.9639 Y7.6478
G01 X29.9496 Y7.5983
G01 X29.9340 Y7.5491
G01 X29.9172 Y7.5004
G01 X29.8993 Y7.4521
G01 X29.8801 Y7.4042
G01 X29.8598 Y7.3569
G01 X29.8384 Y7.3100
G01 X29.8158 Y7.2637
G01 X29.7920 Y7.2179
G01 X29.7672 Y7.1728
G01 X29.7412 Y7.1282
G01 X29.7142 Y7.0844
G01 X29.6861 Y7.0412
G01 X29.6569 Y6.9987
G01 X29.6267 Y6.9569
G01 X29.5955 Y6.9159
G01 X29.5633 Y6.8756
G01 X29.5301 Y6.8362
G01 X29.4960 Y6.7976
G01 X29.4609 Y6.7598
G01 X29.4249 Y6.7229
G01 X29.3880 Y6.6869
G01 X29.3503 Y6.6519
G01 X29.3117 Y6.6177
G01 X29.2722 Y6.5845
G01 X29.2320 Y6.5523
G01 X29.1910 Y6.5211
G01 X29.1492 Y6.4909
G01 X29.1067 Y6.4618
G01 X29.0635 Y6.4337
G01 X29.0196 Y6.4066
G01 X28.9751 Y6.3807
G01 X28.9299 Y6.3558
G01 X28.8842 Y6.3321
G01 X28.8379 Y6.3095
G01 X28.7910 Y6.2880
G01 X28.7436 Y6.2677
G01 X28.6958 Y6.2486
G01 X28.6475 Y6.2306
G01 X28.5987 Y6.2139
G01 X28.5496 Y6.1983
G01 X28.5001 Y6.1839
G01 X28.4503 Y6.1708
G01 X28.4001 Y6.1589
G01 X28.3497 Y6.1482
G01 X28.2990 Y6.1388
G01 X28.2481 Y6.1306
G01 X28.1971 Y6.1237
G01 X28.1458 Y6.1180
G01 X28.0945 Y6.1136
G01 X28.0430 Y6.1104
G01 X27.9915 Y6.1085
G01 X27.9400 Y6.1079
G01 X27.8885 Y6.1085
G01 X27.8370 Y6.1104
G01 X27.7855 Y6.1136
G01 X27.7342 Y6.1180
G01 X27.6829 Y6.1237
G01 X27.6319 Y6.1306
G01 X27.5810 Y6.1388
G01 X27.5303 Y6.1482
G01 X27.4799 Y6.1589
G01 X27.4297 Y6.1708
G01 X27.3799 Y6.1839
G01 X27.3304 Y6.1983
G01 X27.2813 Y6.2139
G01 X27.2325 Y6.2306
G01 X27.1842 Y6.2486
G01 X27.1364 Y6.2677
G01 X27.0890 Y6.2880
G01 X27.0421 Y6.3095
G01 X26.9958 Y6.3321
G01 X26.9501 Y6.3558
G01 X26.9049 Y6.3807
G01 X26.8604 Y6.4066
G01 X26.8165 Y6.4337
G01 X26.7733 Y6.4618
G01 X26.7308 Y6.4909
G01 X26.6890 Y6.5211
G01 X26.6480 Y6.5523
G01 X26.6078 Y6.5845
G01 X26.5683 Y6.6177
G01 X26.5297 Y6.6519
G01 X26.4920 Y6.6869
G01 X26.4551 Y6.7229
G01 X26.4191 Y6.7598
G01 X26.3840 Y6.7976
G01 X26.3499 Y6.8362
G01 X26.3167 Y6.8756
G01 X26.2845 Y6.9159
G01 X26.2533 Y6.9569
G01 X26.2231 Y6.9987
G01 X26.1939 Y7.0412
G01 X26.1658 Y7.0844
G01 X26.1388 Y7.1282
G01 X26.1128 Y7.1728
G01 X26.0880 Y7.2179
G01 X26.0642 Y7.2637
G01 X26.0416 Y7.3100
G01 X26.0202 Y7.3569
G01 X25.9999 Y7.4042
G01 X25.9807 Y7.4521
G01 X25.9628 Y7.5004
G01 X25.9460 Y7.5491
G01 X25.9304 Y7.5983
G01 X25.9161 Y7.6478
G01 X25.9029 Y7.6976
G01 X25.8910 Y7.7477
G01 X25.8804 Y7.7982
G01 X25.8709 Y7.8488
G01 X25.8627 Y7.8997
G01 X25.8558 Y7.9508
G01 X25.8501 Y8.0020
G01 X25.8457 Y8.0534
G01 X25.8425 Y8.1048
G01 X25.8406 Y8.1563
G01 X25.8400 Y8.2079
G01 X25.8406 Y8.2594
G01 X25.8425 Y8.3109
G01 X25.8457 Y8.3623
G01 X25.8501 Y8.4137
G01 X25.8558 Y8.4649
G01 X25.8627 Y8.5160
G01 X25.8709 Y8.5669
G01 X25.8804 Y8.6176
G01 X25.8910 Y8.6680
G01 X25.9029 Y8.7181
G01 X25.9161 Y8.7680
G01 X25.9304 Y8.8175
G01 X25.9460 Y8.8666
G01 X25.9628 Y8.9153
G01 X25.9807 Y8.9636
G01 X25.9999 Y9.0115
G01 X26.0202 Y9.0589
G01 X26.0416 Y9.1057
G01 X26.0642 Y9.1520
G01 X26.0880 Y9.1978
G01 X26.1128 Y9.2429
G01 X26.1388 Y9.2875
G01 X26.1658 Y9.3314
G01 X26.1939 Y9.3746
G01 X26.2231 Y9.4171
G01 X26.2533 Y9.4588
G01 X26.2845 Y9.4998
G01 X26.3167 Y9.5401
G01 X26.3499 Y9.5795
G01 X26.3840 Y9.6181
G01 X26.4191 Y9.6559
G01 X26.4551 Y9.6928
G01 X26.4920 Y9.7288
G01 X26.5297 Y9.7639
G01 X26.5683 Y9.7980
G01 X26.6078 Y9.8312
G01 X26.6480 Y9.8634
G01 X26.6890 Y9.8946
G01 X26.7308 Y9.9248
G01 X26.7733 Y9.9539
G01 X26.8165 Y9.9821
G01 X26.8604 Y10.0091
G01 X26.9049 Y10.0350
G01 X26.9501 Y10.0599
G01 X26.9958 Y10.0836
G01 X27.0421 Y10.1062
G01 X27.0890 Y10.1277
G01 X27.1364 Y10.1480
G01 X27.1842 Y10.1671
G01 X27.2325 Y10.1851
G01 X27.2813 Y10.2019
G01 X27.3304 Y10.2174
G01 X27.3799 Y10.2318
G01 X27.4297 Y10.2449
G01 X27.4799 Y10.2568
G01 X27.5303 Y10.2675
G01 X27.5810 Y10.2769
G01 X27.6319 Y10.2851
G01 X27.6829 Y10.2921
G01 X27.7342 Y10.2977
G01 X27.7855 Y10.3022
G01 X27.8370 Y10.3053
G01 X27.8885 Y10.3072
G01 X27.9400 Y10.3079
G01 X27.9915 Y10.3072
G01 X28.0430 Y10.3053
G01 X28.0945 Y10.3022
G01 X28.1458 Y10.2977
G01 X28.1971 Y10.2921
G01 X28.2481 Y10.2851
G01 X28.2990 Y10.2769
G01 X28.3497 Y10.2675
G01 X28.4001 Y10.2568
G01 X28.4503 Y10.2449
G01 X28.5001 Y10.2318
G01 X28.5496 Y10.2174
G01 X28.5987 Y10.2019
G01 X28.6475 Y10.1851
G01 X28.6958 Y10.1671
G01 X28.7436 Y10.1480
G01 X28.7910 Y10.1277
G01 X28.8379 Y10.1062
G01 X28.8842 Y10.0836
G01 X28.9299 Y10.0599
G01 X28.9751 Y10.0350
G01 X29.0196 Y10.0091
G01 X29.0635 Y9.9821
G01 X29.1067 Y9.9539
G01 X29.1492 Y9.9248
G01 X29.1910 Y9.8946
G01 X29.2320 Y9.8634
G01 X29.2722 Y9.8312
G01 X29.3117 Y9.7980
G01 X29.3503 Y9.7639
G01 X29.3880 Y9.7288
G01 X29.4249 Y9.6928
G01 X29.4609 Y9.6559
G01 X29.4960 Y9.6181
G01 X29.5301 Y9.5795
G01 X29.5633 Y9.5401
G01 X29.5955 Y9.4998
G01 X29.6267 Y9.4588
G01 X29.6569 Y9.4171
G01 X29.6861 Y9.3746
G01 X29.7142 Y9.3314
G01 X29.7412 Y9.2875
G01 X29.7672 Y9.2429
G01 X29.7920 Y9.1978
G01 X29.8158 Y9.1520
G01 X29.8384 Y9.1057
G01 X29.8598 Y9.0589
G01 X29.8801 Y9.0115
G01 X29.8993 Y8.9636
G01 X29.9172 Y8.9153
G01 X29.9340 Y8.8666
G01 X29.9496 Y8.8175
G01 X29.9639 Y8.7680
G01 X29.9771 Y8.7181
G01 X29.9890 Y8.6680
G01 X29.9996 Y8.6176
G01 X30.0091 Y8.5669
G01 X30.0173 Y8.5160
G01 X30.0242 Y8.4649
G01 X30.0299 Y8.4137
G01 X30.0343 Y8.3623
G01 X30.0375 Y8.3109
G01 X30.0394 Y8.2594
G01 X30.0400 Y8.2079
G01 X29.4400 Y8.2079
G01 X29.4395 Y8.1710
G01 X29.4382 Y8.1343
G01 X29.4359 Y8.0975
G01 X29.4328 Y8.0608
G01 X29.4287 Y8.0242
G01 X29.4238 Y7.9878
G01 X29.4179 Y7.9514
G01 X29.4112 Y7.9152
G01 X29.4036 Y7.8792
G01 X29.3950 Y7.8434
G01 X29.3857 Y7.8078
G01 X29.3754 Y7.7724
G01 X29.3643 Y7.7373
G01 X29.3523 Y7.7025
G01 X29.3395 Y7.6680
G01 X29.3258 Y7.6338
G01 X29.3113 Y7.6000
G01 X29.2960 Y7.5665
G01 X29.2798 Y7.5334
G01 X29.2629 Y7.5008
G01 X29.2451 Y7.4685
G01 X29.2266 Y7.4367
G01 X29.2073 Y7.4054
G01 X29.1872 Y7.3745
G01 X29.1664 Y7.3441
G01 X29.1448 Y7.3143
G01 X29.1225 Y7.2850
G01 X29.0995 Y7.2563
G01 X29.0758 Y7.2281
G01 X29.0514 Y7.2005
G01 X29.0264 Y7.1735
G01 X29.0007 Y7.1472
G01 X28.9743 Y7.1215
G01 X28.9473 Y7.0964
G01 X28.9198 Y7.0720
G01 X28.8916 Y7.0483
G01 X28.8628 Y7.0253
G01 X28.8335 Y7.0030
G01 X28.8037 Y6.9815
G01 X28.7734 Y6.9607
G01 X28.7425 Y6.9406
G01 X28.7112 Y6.9213
G01 X28.6793 Y6.9027
G01 X28.6471 Y6.8850
G01 X28.6144 Y6.8680
G01 X28.5813 Y6.8519
G01 X28.5479 Y6.8365
G01 X28.5140 Y6.8220
G01 X28.4798 Y6.8084
G01 X28.4453 Y6.7955
G01 X28.4105 Y6.7836
G01 X28.3754 Y6.7725
G01 X28.3401 Y6.7622
G01 X28.3045 Y6.7528
G01 X28.2687 Y6.7443
G01 X28.2326 Y6.7367
G01 X28.1964 Y6.7299
G01 X28.1601 Y6.7241
G01 X28.1236 Y6.7191
G01 X28.0870 Y6.7151
G01 X28.0503 Y6.7119
G01 X28.0136 Y6.7097
G01 X27.9768 Y6.7083
G01 X27.9400 Y6.7079
G01 X27.9032 Y6.7083
G01 X27.8664 Y6.7097
G01 X27.8297 Y6.7119
G01 X27.7930 Y6.7151
G01 X27.7564 Y6.7191
G01 X27.7199 Y6.7241
G01 X27.6836 Y6.7299
G01 X27.6474 Y6.7367
G01 X27.6113 Y6.7443
G01 X27.5755 Y6.7528
G01 X27.5399 Y6.7622
G01 X27.5046 Y6.7725
G01 X27.4695 Y6.7836
G01 X27.4347 Y6.7955
G01 X27.4002 Y6.8084
G01 X27.3660 Y6.8220
G01 X27.3321 Y6.8365
G01 X27.2987 Y6.8519
G01 X27.2656 Y6.8680
G01 X27.2329 Y6.8850
G01 X27.2007 Y6.9027
G01 X27.1688 Y6.9213
G01 X27.1375 Y6.9406
G01 X27.1066 Y6.9607
G01 X27.0763 Y6.9815
G01 X27.0465 Y7.0030
G01 X27.0172 Y7.0253
G01 X26.9884 Y7.0483
G01 X26.9602 Y7.0720
G01 X26.9327 Y7.0964
G01 X26.9057 Y7.1215
G01 X26.8793 Y7.1472
G01 X26.8536 Y7.1735
G01 X26.8286 Y7.2005
G01 X26.8042 Y7.2281
G01 X26.7805 Y7.2563
G01 X26.7575 Y7.2850
G01 X26.7352 Y7.3143
G01 X26.7136 Y7.3441
G01 X26.6928 Y7.3745
G01 X26.6727 Y7.4054
G01 X26.6534 Y7.4367
G01 X26.6349 Y7.4685
G01 X26.6171 Y7.5008
G01 X26.6002 Y7.5334
G01 X26.5840 Y7.5665
G01 X26.5687 Y7.6000
G01 X26.5542 Y7.6338
G01 X26.5405 Y7.6680
G01 X26.5277 Y7.7025
G01 X26.5157 Y7.7373
G01 X26.5046 Y7.7724
G01 X26.4943 Y7.8078
G01 X26.4850 Y7.8434
G01 X26.4764 Y7.8792
G01 X26.4688 Y7.9152
G01 X26.4621 Y7.9514
G01 X26.4562 Y7.9878
G01 X26.4513 Y8.0242
G01 X26.4472 Y8.0608
G01 X26.4441 Y8.0975
G01 X26.4418 Y8.1343
G01 X26.4405 Y8.1710
G01 X26.4400 Y8.2079
G01 X26.4405 Y8.2447
G01 X26.4418 Y8.2815
G01 X26.4441 Y8.3182
G01 X26.4472 Y8.3549
G01 X26.4513 Y8.3915
G01 X26.4562 Y8.4280
G01 X26.4621 Y8.4643
G01 X26.4688 Y8.5005
G01 X26.4764 Y8.5365
G01 X26.4850 Y8.5723
G01 X26.4943 Y8.6079
G01 X26.5046 Y8.6433
G01 X26.5157 Y8.6784
G01 X26.5277 Y8.7132
G01 X26.5405 Y8.7477
G01 X26.5542 Y8.7819
G01 X26.5687 Y8.8157
G01 X26.5840 Y8.8492
G01 X26.6002 Y8.8823
G01 X26.6171 Y8.9150
G01 X26.6349 Y8.9472
G01 X26.6534 Y8.9790
G01 X26.6727 Y9.0104
G01 X26.6928 Y9.0412
G01 X26.7136 Y9.0716
G01 X26.7352 Y9.1014
G01 X26.7575 Y9.1307
G01 X26.7805 Y9.1595
G01 X26.8042 Y9.1876
G01 X26.8286 Y9.2152
G01 X26.8536 Y9.2422
G01 X26.8793 Y9.2685
G01 X26.9057 Y9.2942
G01 X26.9327 Y9.3193
G01 X26.9602 Y9.3437
G01 X26.9884 Y9.3674
G01 X27.0172 Y9.3904
G01 X27.0465 Y9.4127
G01 X27.0763 Y9.4342
G01 X27.1066 Y9.4551
G01 X27.1375 Y9.4751
G01 X27.1688 Y9.4945
G01 X27.2007 Y9.5130
G01 X27.2329 Y9.5307
G01 X27.2656 Y9.5477
G01 X27.2987 Y9.5638
G01 X27.3321 Y9.5792
G01 X27.3660 Y9.5937
G01 X27.4002 Y9.6073
G01 X27.4347 Y9.6202
G01 X27.4695 Y9.6322
G01 X27.5046 Y9.6433
G01 X27.5399 Y9.6535
G01 X27.5755 Y9.6629
G01 X27.6113 Y9.6714
G01 X27.6474 Y9.6790
G01 X27.6836 Y9.6858
G01 X27.7199 Y9.6916
G01 X27.7564 Y9.6966
G01 X27.7930 Y9.7006
G01 X27.8297 Y9.7038
G01 X27.8664 Y9.7061
G01 X27.9032 Y9.7074
G01 X27.9400 Y9.7079
G01 X27.9768 Y9.7074
G01 X28.0136 Y9.7061
G01 X28.0503 Y9.7038
G01 X28.0870 Y9.7006
G01 X28.1236 Y9.6966
G01 X28.1601 Y9.6916
G01 X28.1964 Y9.6858
G01 X28.2326 Y9.6790
G01 X28.2687 Y9.6714
G01 X28.3045 Y9.6629
G01 X28.3401 Y9.6535
G01 X28.3754 Y9.6433
G01 X28.4105 Y9.6322
G01 X28.4453 Y9.6202
G01 X28.4798 Y9.6073
G01 X28.5140 Y9.5937
G01 X28.5479 Y9.5792
G01 X28.5813 Y9.5638
G01 X28.6144 Y9.5477
G01 X28.6471 Y9.5307
G01 X28.6793 Y9.5130
G01 X28.7112 Y9.4945
G01 X28.7425 Y9.4751
G01 X28.7734 Y9.4551
G01 X28.8037 Y9.4342
G01 X28.8335 Y9.4127
G01 X28.8628 Y9.3904
G01 X28.8916 Y9.3674
G01 X28.9198 Y9.3437
G01 X28.9473 Y9.3193
G01 X28.9743 Y9.2942
G01 X29.0007 Y9.2685
G01 X29.0264 Y9.2422
G01 X29.0514 Y9.2152
G01 X29.0758 Y9.1876
G01 X29.0995 Y9.1595
G01 X29.1225 Y9.1307
G01 X29.1448 Y9.1014
G01 X29.1664 Y9.0716
G01 X29.1872 Y9.0412
G01 X29.2073 Y9.0104
G01 X29.2266 Y8.9790
G01 X29.2451 Y8.9472
G01 X29.2629 Y8.9150
G01 X29.2798 Y8.8823
G01 X29.2960 Y8.8492
G01 X29.3113 Y8.8157
G01 X29.3258 Y8.7819
G01 X29.3395 Y8.7477
G01 X29.3523 Y8.7132
G01 X29.3643 Y8.6784
G01 X29.3754 Y8.6433
G01 X29.3857 Y8.6079
G01 X29.3950 Y8.5723
G01 X29.4036 Y8.5365
G01 X29.4112 Y8.5005
G01 X29.4179 Y8.4643
G01 X29.4238 Y8.4280
G01 X29.4287 Y8.3915
G01 X29.4328 Y8.3549
G01 X29.4359 Y8.3182
G01 X29.4382 Y8.2815
G01 X29.4395 Y8.2447
G01 X29.4400 Y8.2079
G01 X28.8400 Y8.2079
G01 X28.8397 Y8.1858
G01 X28.8389 Y8.1637
G01 X28.8376 Y8.1417
G01 X28.8357 Y8.1196
G01 X28.8332 Y8.0977
G01 X28.8303 Y8.0758
G01 X28.8267 Y8.0540
G01 X28.8227 Y8.0323
G01 X28.8181 Y8.0107
G01 X28.8130 Y7.9892
G01 X28.8074 Y7.9678
G01 X28.8012 Y7.9466
G01 X28.7946 Y7.9255
G01 X28.7874 Y7.9047
G01 X28.7797 Y7.8840
G01 X28.7715 Y7.8634
G01 X28.7628 Y7.8431
G01 X28.7536 Y7.8231
G01 X28.7439 Y7.8032
G01 X28.7337 Y7.7836
G01 X28.7231 Y7.7643
G01 X28.7120 Y7.7452
G01 X28.7004 Y7.7264
G01 X28.6883 Y7.7078
G01 X28.6758 Y7.6896
G01 X28.6629 Y7.6717
G01 X28.6495 Y7.6542
G01 X28.6357 Y7.6369
G01 X28.6215 Y7.6200
G01 X28.6069 Y7.6035
G01 X28.5918 Y7.5873
G01 X28.5764 Y7.5715
G01 X28.5606 Y7.5560
G01 X28.5444 Y7.5410
G01 X28.5279 Y7.5264
G01 X28.5110 Y7.5122
G01 X28.4937 Y7.4983
G01 X28.4761 Y7.4850
G01 X28.4582 Y7.4720
G01 X28.4400 Y7.4595
G01 X28.4215 Y7.4475
G01 X28.4027 Y7.4359
G01 X28.3836 Y7.4248
G01 X28.3643 Y7.4141
G01 X28.3447 Y7.4040
G01 X28.3248 Y7.3943
G01 X28.3047 Y7.3851
G01 X28.2844 Y7.3764
G01 X28.2639 Y7.3682
G01 X28.2432 Y7.3605
G01 X28.2223 Y7.3533
G01 X28.2013 Y7.3466
G01 X28.1800 Y7.3405
G01 X28.1587 Y7.3348
G01 X28.1372 Y7.3297
G01 X28.1156 Y7.3252
G01 X28.0939 Y7.3211
G01 X28.0721 Y7.3176
G01 X28.0502 Y7.3146
G01 X28.0282 Y7.3122
G01 X28.0062 Y7.3103
G01 X27.9842 Y7.3089
G01 X27.9621 Y7.3081
G01 X27.9400 Y7.3079
G01 X27.9179 Y7.3081
G01 X27.8958 Y7.3089
G01 X27.8738 Y7.3103
G01 X27.8518 Y7.3122
G01 X27.8298 Y7.3146
G01 X27.8079 Y7.3176
G01 X27.7861 Y7.3211
G01 X27.7644 Y7.3252
G01 X27.7428 Y7.3297
G01 X27.7213 Y7.3348
G01 X27.7000 Y7.3405
G01 X27.6787 Y7.3466
G01 X27.6577 Y7.3533
G01 X27.6368 Y7.3605
G01 X27.6161 Y7.3682
G01 X27.5956 Y7.3764
G01 X27.5753 Y7.3851
G01 X27.5552 Y7.3943
G01 X27.5353 Y7.4040
G01 X27.5157 Y7.4141
G01 X27.4964 Y7.4248
G01 X27.4773 Y7.4359
G01 X27.4585 Y7.4475
G01 X27.4400 Y7.4595
G01 X27.4218 Y7.4720
G01 X27.4039 Y7.4850
G01 X27.3863 Y7.4983
G01 X27.3690 Y7.5122
G01 X27.3521 Y7.5264
G01 X27.3356 Y7.5410
G01 X27.3194 Y7.5560
G01 X27.3036 Y7.5715
G01 X27.2882 Y7.5873
G01 X27.2731 Y7.6035
G01 X27.2585 Y7.6200
G01 X27.2443 Y7.6369
G01 X27.2305 Y7.6542
G01 X27.2171 Y7.6717
G01 X27.2042 Y7.6896
G01 X27.1917 Y7.7078
G01 X27.1796 Y7.7264
G01 X27.1680 Y7.7452
G01 X27.1569 Y7.7643
G01 X27.1463 Y7.7836
G01 X27.1361 Y7.8032
G01 X27.1264 Y7.8231
G01 X27.1172 Y7.8431
G01 X27.1085 Y7.8634
G01 X27.1003 Y7.8840
G01 X27.0926 Y7.9047
G01 X27.0854 Y7.9255
G01 X27.0788 Y7.9466
G01 X27.0726 Y7.9678
G01 X27.0670 Y7.9892
G01 X27.0619 Y8.0107
G01 X27.0573 Y8.0323
G01 X27.0533 Y8.0540
G01 X27.0497 Y8.0758
G01 X27.0468 Y8.0977
G01 X27.0443 Y8.1196
G01 X27.0424 Y8.1417
G01 X27.0411 Y8.1637
G01 X27.0403 Y8.1858
G01 X27.0400 Y8.2079
G01 X27.0403 Y8.2299
G01 X27.0411 Y8.2520
G01 X27.0424 Y8.2741
G01 X27.0443 Y8.2961
G01 X27.0468 Y8.3180
G01 X27.0497 Y8.3399
G01 X27.0533 Y8.3617
G01 X27.0573 Y8.3834
G01 X27.0619 Y8.4051
G01 X27.0670 Y8.4265
G01 X27.0726 Y8.4479
G01 X27.0788 Y8.4691
G01 X27.0854 Y8.4902
G01 X27.0926 Y8.5111
G01 X27.1003 Y8.5318
G01 X27.1085 Y8.5523
G01 X27.1172 Y8.5726
G01 X27.1264 Y8.5927
G01 X27.1361 Y8.6125
G01 X27.1463 Y8.6321
G01 X27.1569 Y8.6515
G01 X27.1680 Y8.6706
G01 X27.1796 Y8.6894
G01 X27.1917 Y8.7079
G01 X27.2042 Y8.7261
G01 X27.2171 Y8.7440
G01 X27.2305 Y8.7616
G01 X27.2443 Y8.7788
G01 X27.2585 Y8.7957
G01 X27.2731 Y8.8123
G01 X27.2882 Y8.8284
G01 X27.3036 Y8.8443
G01 X27.3194 Y8.8597
G01 X27.3356 Y8.8747
G01 X27.3521 Y8.8893
G01 X27.3690 Y8.9036
G01 X27.3863 Y8.9174
G01 X27.4039 Y8.9307
G01 X27.4218 Y8.9437
G01 X27.4400 Y8.9562
G01 X27.4585 Y8.9682
G01 X27.4773 Y8.9798
G01 X27.4964 Y8.9909
G01 X27.5157 Y9.0016
G01 X27.5353 Y9.0118
G01 X27.5552 Y9.0215
G01 X27.5753 Y9.0306
G01 X27.5956 Y9.0394
G01 X27.6161 Y9.0476
G01 X27.6368 Y9.0553
G01 X27.6577 Y9.0624
G01 X27.6787 Y9.0691
G01 X27.7000 Y9.0753
G01 X27.7213 Y9.0809
G01 X27.7428 Y9.0860
G01 X27.7644 Y9.0906
G01 X27.7861 Y9.0946
G01 X27.8079 Y9.0981
G01 X27.8298 Y9.1011
G01 X27.8518 Y9.1035
G01 X27.8738 Y9.1054
G01 X27.8958 Y9.1068
G01 X27.9179 Y9.1076
G01 X27.9400 Y9.1079
G01 X27.9621 Y9.1076
G01 X27.9842 Y9.1068
G01 X28.0062 Y9.1054
G01 X28.0282 Y9.1035
G01 X28.0502 Y9.1011
G01 X28.0721 Y9.0981
G01 X28.0939 Y9.0946
G01 X28.1156 Y9.0906
G01 X28.1372 Y9.0860
G01 X28.1587 Y9.0809
G01 X28.1800 Y9.0753
G01 X28.2013 Y9.0691
G01 X28.2223 Y9.0624
G01 X28.2432 Y9.0553
G01 X28.2639 Y9.0476
G01 X28.2844 Y9.0394
G01 X28.3047 Y9.0306
G01 X28.3248 Y9.0215
G01 X28.3447 Y9.0118
G01 X28.3643 Y9.0016
G01 X28.3836 Y8.9909
G01 X28.4027 Y8.9798
G01 X28.4215 Y8.9682
G01 X28.4400 Y8.9562
G01 X28.4582 Y8.9437
G01 X28.4761 Y8.9307
G01 X28.4937 Y8.9174
G01 X28.5110 Y8.9036
G01 X28.5279 Y8.8893
G01 X28.5444 Y8.8747
G01 X28.5606 Y8.8597
G01 X28.5764 Y8.8443
G01 X28.5918 Y8.8284
G01 X28.6069 Y8.8123
G01 X28.6215 Y8.7957
G01 X28.6357 Y8.7788
G01 X28.6495 Y8.7616
G01 X28.6629 Y8.7440
G01 X28.6758 Y8.7261
G01 X28.6883 Y8.7079
G01 X28.7004 Y8.6894
G01 X28.7120 Y8.6706
G01 X28.7231 Y8.6515
G01 X28.7337 Y8.6321
G01 X28.7439 Y8.6125
G01 X28.7536 Y8.5927
G01 X28.7628 Y8.5726
G01 X28.7715 Y8.5523
G01 X28.7797 Y8.5318
G01 X28.7874 Y8.5111
G01 X28.7946 Y8.4902
G01 X28.8012 Y8.4691
G01 X28.8074 Y8.4479
G01 X28.8130 Y8.4265
G01 X28.8181 Y8.4051
G01 X28.8227 Y8.3834
G01 X28.8267 Y8.3617
G01 X28.8303 Y8.3399
G01 X28.8332 Y8.3180
G01 X28.8357 Y8.2961
G01 X28.8376 Y8.2741
G01 X28.8389 Y8.2520
G01 X28.8397 Y8.2299
G01 X28.8400 Y8.2079
G01 X28.2400 Y8.2079
G01 X28.2396 Y8.1931
G01 X28.2386 Y8.1785
G01 X28.2368 Y8.1638
G01 X28.2342 Y8.1493
G01 X28.2310 Y8.1350
G01 X28.2271 Y8.1208
G01 X28.2225 Y8.1068
G01 X28.2172 Y8.0931
G01 X28.2112 Y8.0796
G01 X28.2046 Y8.0664
G01 X28.1973 Y8.0536
G01 X28.1894 Y8.0412
G01 X28.1810 Y8.0292
G01 X28.1719 Y8.0175
G01 X28.1623 Y8.0064
G01 X28.1521 Y7.9957
G01 X28.1415 Y7.9856
G01 X28.1303 Y7.9760
G01 X28.1187 Y7.9669
G01 X28.1067 Y7.9584
G01 X28.0942 Y7.9505
G01 X28.0814 Y7.9433
G01 X28.0683 Y7.9367
G01 X28.0548 Y7.9307
G01 X28.0411 Y7.9254
G01 X28.0271 Y7.9208
G01 X28.0129 Y7.9169
G01 X27.9985 Y7.9136
G01 X27.9840 Y7.9111
G01 X27.9694 Y7.9093
G01 X27.9547 Y7.9082
G01 X27.9400 Y7.9079
G01 X27.9253 Y7.9082
G01 X27.9106 Y7.9093
G01 X27.8960 Y7.9111
G01 X27.8815 Y7.9136
G01 X27.8671 Y7.9169
G01 X27.8529 Y7.9208
G01 X27.8389 Y7.9254
G01 X27.8252 Y7.9307
G01 X27.8117 Y7.9367
G01 X27.7986 Y7.9433
G01 X27.7858 Y7.9505
G01 X27.7733 Y7.9584
G01 X27.7613 Y7.9669
G01 X27.7497 Y7.9760
G01 X27.7385 Y7.9856
G01 X27.7279 Y7.9957
G01 X27.7177 Y8.0064
G01 X27.7081 Y8.0175
G01 X27.6990 Y8.0292
G01 X27.6906 Y8.0412
G01 X27.6827 Y8.0536
G01 X27.6754 Y8.0664
G01 X27.6688 Y8.0796
G01 X27.6628 Y8.0931
G01 X27.6575 Y8.1068
G01 X27.6529 Y8.1208
G01 X27.6490 Y8.1350
G01 X27.6458 Y8.1493
G01 X27.6432 Y8.1638
G01 X27.6414 Y8.1785
G01 X27.6404 Y8.1931
G01 X27.6400 Y8.2079
G01 X27.6404 Y8.2226
G01 X27.6414 Y8.2373
G01 X27.6432 Y8.2519
G01 X27.6458 Y8.2664
G01 X27.6490 Y8.2808
G01 X27.6529 Y8.2949
G01 X27.6575 Y8.3089
G01 X27.6628 Y8.3227
G01 X27.6688 Y8.3361
G01 X27.6754 Y8.3493
G01 X27.6827 Y8.3621
G01 X27.6906 Y8.3745
G01 X27.6990 Y8.3866
G01 X27.7081 Y8.3982
G01 X27.7177 Y8.4093
G01 X27.7279 Y8.4200
G01 X27.7385 Y8.4301
G01 X27.7497 Y8.4398
G01 X27.7613 Y8.4488
G01 X27.7733 Y8.4573
G01 X27.7858 Y8.4652
G01 X27.7986 Y8.4724
G01 X27.8117 Y8.4791
G01 X27.8252 Y8.4850
G01 X27.8389 Y8.4903
G01 X27.8529 Y8.4949
G01 X27.8671 Y8.4989
G01 X27.8815 Y8.5021
G01 X27.8960 Y8.5046
G01 X27.9106 Y8.5064
G01 X27.9253 Y8.5075
G01 X27.9400 Y8.5079
G01 X27.9547 Y8.5075
G01 X27.9694 Y8.5064
G01 X27.9840 Y8.5046
G01 X27.9985 Y8.5021
G01 X28.0129 Y8.4989
G01 X28.0271 Y8.4949
G01 X28.0411 Y8.4903
G01 X28.0548 Y8.4850
G01 X28.0683 Y8.4791
G01 X28.0814 Y8.4724
G01 X28.0942 Y8.4652
G01 X28.1067 Y8.4573
G01 X28.1187 Y8.4488
G01 X28.1303 Y8.4398
G01 X28.1415 Y8.4301
G01 X28.1521 Y8.4200
G01 X28.1623 Y8.4093
G01 X28.1719 Y8.3982
G01 X28.1810 Y8.3866
G01 X28.1894 Y8.3745
G01 X28.1973 Y8.3621
G01 X28.2046 Y8.3493
G01 X28.2112 Y8.3361
G01 X28.2172 Y8.3227
G01 X28.2225 Y8.3089
G01 X28.2271 Y8.2949
G01 X28.2310 Y8.2808
G01 X28.2342 Y8.2664
G01 X28.2368 Y8.2519
G01 X28.2386 Y8.2373
G01 X28.2396 Y8.2226
G01 X28.2400 Y8.2079
G01 X30.5809 Y10.1864
G01 X30.5415 Y10.2381
G01 X30.4909 Y10.3014
G01 X30.4388 Y10.3633
G01 X30.3851 Y10.4240
G01 X30.3300 Y10.4833
G01 X30.2735 Y10.5413
G01 X30.2155 Y10.5979
G01 X30.1561 Y10.6530
G01 X30.0955 Y10.7066
G01 X30.0335 Y10.7588
G01 X29.9703 Y10.8094
G01 X29.9058 Y10.8584
G01 X29.8402 Y10.9059
G01 X29.7734 Y10.9517
G01 X29.7055 Y10.9959
G01 X29.6365 Y11.0384
G01 X29.5666 Y11.0791
G01 X29.4956 Y11.1182
G01 X29.4237 Y11.1555
G01 X29.3509 Y11.1910
G01 X29.2773 Y11.2248
G01 X29.2029 Y11.2567
G01 X29.1277 Y11.2867
G01 X29.0517 Y11.3150
G01 X28.9751 Y11.3413
G01 X28.8979 Y11.3658
G01 X28.8202 Y11.3883
G01 X28.7418 Y11.4090
G01 X28.6630 Y11.4277
G01 X28.5838 Y11.4445
G01 X28.5042 Y11.4593
G01 X28.4242 Y11.4721
G01 X28.3440 Y11.4830
G01 X28.2635 Y11.4920
G01 X28.1828 Y11.4989
G01 X28.1019 Y11.5039
G01 X28.0210 Y11.5069
G01 X27.9400 Y11.5079
G01 X27.8590 Y11.5069
G01 X27.7781 Y11.5039
G01 X27.6972 Y11.4989
G01 X27.6165 Y11.4920
G01 X27.5360 Y11.4830
G01 X27.4558 Y11.4721
G01 X27.3758 Y11.4593
G01 X27.2962 Y11.4445
G01 X27.2170 Y11.4277
G01 X27.1382 Y11.4090
G01 X27.0598 Y11.3883
G01 X26.9821 Y11.3658
G01 X26.9049 Y11.3413
G01 X26.8283 Y11.3150
G01 X26.7523 Y11.2867
G01 X26.6771 Y11.2567
G01 X26.6027 Y11.2248
G01 X26.5291 Y11.1910
G01 X26.4563 Y11.1555
G01 X26.3844 Y11.1182
G01 X26.3134 Y11.0791
G01 X26.2435 Y11.0384
G01 X26.1745 Y10.9959
G01 X26.1066 Y10.9517
G01 X26.0398 Y10.9059
G01 X26.0194 Y10.8911
G01 X26.0194 Y11.6021
G01 X26.1016 Y11.6474
G01 X26.1865 Y11.6914
G01 X26.2725 Y11.7334
G01 X26.3596 Y11.7733
G01 X26.4475 Y11.8110
G01 X26.5364 Y11.8465
G01 X26.6261 Y11.8799
G01 X26.7166 Y11.9110
G01 X26.8079 Y11.9399
G01 X26.8998 Y11.9666
G01 X26.9924 Y11.9910
G01 X27.0855 Y12.0131
G01 X27.1791 Y12.0329
G01 X27.2732 Y12.0504
G01 X27.3678 Y12.0656
G01 X27.4626 Y12.0785
G01 X27.5577 Y12.0891
G01 X27.6531 Y12.0973
G01 X27.7486 Y12.1032
G01 X27.8443 Y12.1067
G01 X27.9400 Y12.1079
G01 X28.0357 Y12.1067
G01 X28.1314 Y12.1032
G01 X28.2269 Y12.0973
G01 X28.3223 Y12.0891
G01 X28.4174 Y12.0785
G01 X28.5122 Y12.0656
G01 X28.6068 Y12.0504
G01 X28.7009 Y12.0329
G01 X28.7945 Y12.0131
G01 X28.8876 Y11.9910
G01 X28.9802 Y11.9666
G01 X29.0721 Y11.9399
G01 X29.1634 Y11.9110
G01 X29.2539 Y11.8799
G01 X29.3436 Y11.8465
G01 X29.4325 Y11.8110
G01 X29.5204 Y11.7733
G01 X29.6075 Y11.7334
G01 X29.6935 Y11.6914
G01 X29.7784 Y11.6474
G01 X29.8623 Y11.6012
G01 X29.9450 Y11.5530
G01 X30.0265 Y11.5028
G01 X30.1067 Y11.4506
G01 X30.1857 Y11.3964
G01 X30.2632 Y11.3404
G01 X30.3394 Y11.2824
G01 X30.4141 Y11.2226
G01 X30.4874 Y11.1610
G01 X30.5591 Y11.0976
G01 X30.5809 Y11.0773
G00 Z2.0000
G00 X30.6142 Y11.8269
G01 F80.00
G01 Z-0.0800
G01 F200.00
G01 X30.5311 Y11.8870
G01 X30.4401 Y11.9495
G01 X30.3475 Y12.0097
G01 X30.2535 Y12.0676
G01 X30.1580 Y12.1233
G01 X30.0613 Y12.1765
G01 X29.9633 Y12.2274
G01 X29.8640 Y12.2758
G01 X29.7636 Y12.3218
G01 X29.6621 Y12.3653
G01 X29.5595 Y12.4063
G01 X29.4560 Y12.4448
G01 X29.3516 Y12.4807
G01 X29.2463 Y12.5141
G01 X29.1402 Y12.5449
G01 X29.0334 Y12.5730
G01 X28.9260 Y12.5985
G01 X28.8179 Y12.6214
G01 X28.7093 Y12.6416
G01 X28.6003 Y12.6592
G01 X28.4908 Y12.6740
G01 X28.3811 Y12.6862
G01 X28.2710 Y12.6957
G01 X28.1608 Y12.7024
G01 X28.0504 Y12.7065
G01 X27.9400 Y12.7079
G01 X27.8296 Y12.7065
G01 X27.7192 Y12.7024
G01 X27.6090 Y12.6957
G01 X27.4989 Y12.6862
G01 X27.3892 Y12.6740
G01 X27.2797 Y12.6592
G01 X27.1707 Y12.6416
G01 X27.0621 Y12.6214
G01 X26.9540 Y12.5985
G01 X26.8466 Y12.5730
G01 X26.7398 Y12.5449
G01 X26.6337 Y12.5141
G01 X26.5284 Y12.4807
G01 X26.4240 Y12.4448
G01 X26.3205 Y12.4063
G01 X26.2179 Y12.3653
G01 X26.1164 Y12.3218
G01 X26.0194 Y12.2774
G01 X26.0194 Y12.9321
G01 X26.1045 Y12.9661
G01 X26.2219 Y13.0097
G01 X26.3402 Y13.0505
G01 X26.4595 Y13.0883
G01 X26.5798 Y13.1231
G01 X26.7008 Y13.1550
G01 X26.8226 Y13.1839
G01 X26.9450 Y13.2099
G01 X27.0681 Y13.2328
G01 X27.1917 Y13.2527
G01 X27.3157 Y13.2695
G01 X27.4401 Y13.2833
G01 X27.5648 Y13.2940
G01 X27.6898 Y13.3017
G01 X27.8148 Y13.3063
G01 X27.9400 Y13.3079
G01 X28.0652 Y13.3063
G01 X28.1902 Y13.3017
G01 X28.3152 Y13.2940
G01 X28.4399 Y13.2833
G01 X28.5643 Y13.2695
G01 X28.6883 Y13.2527
G01 X28.8119 Y13.2328
G01 X28.9350 Y13.2099
G01 X29.0574 Y13.1839
G01 X29.1792 Y13.1550
G01 X29.3002 Y13.1231
G01 X29.4205 Y13.0883
G01 X29.5398 Y13.0505
G01 X29.6581 Y13.0097
G01 X29.7755 Y12.9661
G01 X29.8917 Y12.9196
G01 X30.0067 Y12.8703
G01 X30.1205 Y12.8182
G01 X30.2330 Y12.7633
G01 X30.3441 Y12.7057
G01 X30.4538 Y12.6453
G01 X30.5619 Y12.5823
G01 X30.6685 Y12.5166
G01 X30.7734 Y12.4484
G01 X30.8766 Y12.3775
G01 X30.9707 Y12.3096
G01 X31.4664 Y12.6858
G01 X31.4468 Y12.7014
G01 X31.3355 Y12.7861
G01 X31.2221 Y12.8681
G01 X31.1068 Y12.9472
G01 X30.9895 Y13.0235
G01 X30.8704 Y13.0969
G01 X30.7495 Y13.1674
G01 X30.6270 Y13.2348
G01 X30.5028 Y13.2992
G01 X30.3771 Y13.3606
G01 X30.2499 Y13.4189
G01 X30.1213 Y13.4740
G01 X29.9914 Y13.5259
G01 X29.8603 Y13.5747
G01 X29.7280 Y13.6202
G01 X29.5946 Y13.6624
G01 X29.4603 Y13.7014
G01 X29.3250 Y13.7370
G01 X29.1889 Y13.7694
G01 X29.1197 Y13.7840
G00 Z2.0000
G00 X28.7789 Y13.8458
G01 F80.00
G01 Z-0.0800
G01 F200.00
G01 X28.6377 Y13.8650
G01 X28.4987 Y13.8804
G01 X28.3593 Y13.8924
G01 X28.2197 Y13.9010
G01 X28.0799 Y13.9061
G01 X27.9400 Y13.9079
G01 X27.8001 Y13.9061
G01 X27.6603 Y13.9010
G01 X27.5207 Y13.8924
G01 X27.3813 Y13.8804
G01 X27.2423 Y13.8650
G01 X27.1036 Y13.8462
G01 X26.9655 Y13.8239
G01 X26.8280 Y13.7983
G01 X26.6911 Y13.7694
G01 X26.5550 Y13.7370
G01 X26.4197 Y13.7014
G01 X26.2854 Y13.6624
G01 X26.1520 Y13.6202
G01 X26.0194 Y13.5745
G01 X26.0194 Y14.2075
G01 X26.1112 Y14.2366
G01 X26.2597 Y14.2796
G01 X26.4092 Y14.3191
G01 X26.5597 Y14.3548
G01 X26.7109 Y14.3868
G01 X26.8629 Y14.4151
G01 X27.0156 Y14.4397
G01 X27.1688 Y14.4605
G01 X27.3225 Y14.4775
G01 X27.4765 Y14.4908
G01 X27.6309 Y14.5003
G01 X27.7854 Y14.5060
G01 X27.8790 Y14.5071
G00 Z2.0000
G00 X27.3077 Y15.0784
G01 F80.00
G01 Z-0.0800
G01 F200.00
G01 X27.2637 Y15.0746
G01 X27.0954 Y15.0560
G01 X26.9276 Y15.0332
G01 X26.7604 Y15.0063
G01 X26.5939 Y14.9753
G01 X26.4282 Y14.9402
G01 X26.2634 Y14.9011
G01 X26.0997 Y14.8579
G01 X26.0194 Y14.8346
G01 X26.0194 Y15.4572
G01 X26.1176 Y15.4831
G01 X26.2967 Y15.5256
G01 X26.4768 Y15.5638
G01 X26.6578 Y15.5974
G01 X26.7901 Y15.6187
G00 Z2.0000
G00 X23.1006 Y15.5995
G01 F80.00
G01 Z-0.0800
G01 F200.00
G01 X23.0796 Y15.6111
G01 X23.0469 Y15.6280
G01 X23.0046 Y15.6484
G01 X22.5303 Y15.1742
G01 X22.5697 Y15.1663
G01 X22.5911 Y15.1612
G01 X22.6125 Y15.1556
G01 X22.6337 Y15.1494
G01 X22.6548 Y15.1428
G01 X22.6757 Y15.1356
G01 X22.6964 Y15.1279
G01 X22.7169 Y15.1197
G01 X22.7372 Y15.1110
G01 X22.7573 Y15.1018
G01 X22.7771 Y15.0921
G01 X22.7967 Y15.0819
G01 X22.8161 Y15.0713
G01 X22.8352 Y15.0601
G01 X22.8540 Y15.0486
G01 X22.8725 Y15.0365
G01 X22.8907 Y15.0240
G01 X22.9086 Y15.0111
G01 X22.9262 Y14.9977
G01 X22.9434 Y14.9839
G01 X22.9603 Y14.9697
G01 X22.9769 Y14.9550
G01 X22.9931 Y14.9400
G01 X23.0089 Y14.9246
G01 X23.0243 Y14.9088
G01 X23.0393 Y14.8926
G01 X23.0540 Y14.8760
G01 X23.0682 Y14.8591
G01 X23.0820 Y14.8419
G01 X23.1006 Y14.8171
G01 X22.6725 Y14.2882
G01 X22.6721 Y14.3029
G01 X22.6710 Y14.3176
G01 X22.6681 Y14.3395
G01 X22.6652 Y14.3539
G01 X22.6616 Y14.3682
G01 X22.6549 Y14.3893
G01 X22.6467 Y14.4098
G01 X22.6404 Y14.4231
G01 X22.6335 Y14.4361
G01 X22.6259 Y14.4487
G01 X22.6177 Y14.4609
G01 X22.6090 Y14.4728
G01 X22.5996 Y14.4841
G01 X22.5897 Y14.4951
G01 X22.5793 Y14.5055
G01 X22.5628 Y14.5201
G01 X22.5512 Y14.5292
G01 X22.5391 Y14.5376
G01 X22.5203 Y14.5492
G01 X22.5074 Y14.5562
G01 X22.4940 Y14.5625
G01 X22.4735 Y14.5707
G01 X22.4596 Y14.5753
G01 X22.4454 Y14.5792
G01 X22.4238 Y14.5838
G01 X22.4092 Y14.5859
G01 X22.3945 Y14.5874
G01 X22.3798 Y14.5881
G01 X22.3651 Y14.5881
G01 X22.3431 Y14.5867
G01 X22.3284 Y14.5849
G01 X22.3139 Y14.5824
G01 X22.2925 Y14.5773
G01 X22.2784 Y14.5731
G01 X22.2645 Y14.5681
G01 X22.2509 Y14.5625
G01 X22.2376 Y14.5562
G01 X22.2182 Y14.5455
G01 X22.1997 Y14.5335
G01 X22.1879 Y14.5247
G01 X22.1765 Y14.5154
G01 X22.1603 Y14.5003
G01 X22.1502 Y14.4897
G01 X22.1406 Y14.4785
G01 X22.1315 Y14.4669
G01 X22.1230 Y14.4549
G01 X22.1151 Y14.4424
G01 X22.1079 Y14.4296
G01 X22.0982 Y14.4098
G01 X22.0926 Y14.3962
G01 X22.0876 Y14.3823
G01 X22.0833 Y14.3682
G01 X22.0798 Y14.3539
G01 X22.0757 Y14.3322
G01 X22.0733 Y14.3103
G01 X22.0725 Y14.2882
G01 X22.0728 Y14.2735
G01 X22.0739 Y14.2588
G01 X22.0769 Y14.2369
G01 X22.0815 Y14.2153
G01 X22.0833 Y14.2082
G01 X22.0876 Y14.1941
G01 X22.0926 Y14.1802
G01 X22.0982 Y14.1666
G01 X22.1079 Y14.1468
G01 X22.1190 Y14.1277
G01 X22.1272 Y14.1155
G01 X22.1360 Y14.1036
G01 X22.1502 Y14.0867
G01 X22.1603 Y14.0761
G01 X22.1710 Y14.0659
G01 X22.1879 Y14.0517
G01 X22.2058 Y14.0388
G01 X22.2182 Y14.0309
G01 X22.2310 Y14.0236
G01 X22.2509 Y14.0139
G01 X22.2714 Y14.0057
G01 X22.2925 Y13.9991
G01 X22.3139 Y13.9940
G01 X22.3284 Y13.9914
G01 X22.3431 Y13.9896
G01 X22.3577 Y13.9886
G01 X22.3725 Y13.9882
G01 X22.3945 Y13.9890
G01 X22.4165 Y13.9914
G01 X22.4310 Y13.9940
G01 X22.4454 Y13.9972
G01 X22.4666 Y14.0033
G01 X22.4873 Y14.0110
G01 X22.5074 Y14.0202
G01 X22.5203 Y14.0272
G01 X22.5330 Y14.0347
G01 X22.5452 Y14.0429
G01 X22.5570 Y14.0517
G01 X22.5739 Y14.0659
G01 X22.5846 Y14.0761
G01 X22.5996 Y14.0922
G01 X22.6090 Y14.1036
G01 X22.6177 Y14.1155
G01 X22.6259 Y14.1277
G01 X22.6335 Y14.1403
G01 X22.6404 Y14.1533
G01 X22.6467 Y14.1666
G01 X22.6524 Y14.1802
G01 X22.6573 Y14.1941
G01 X22.6616 Y14.2082
G01 X22.6652 Y14.2225
G01 X22.6681 Y14.2369
G01 X22.6710 Y14.2588
G01 X22.6721 Y14.2735
G01 X22.6725 Y14.2882
G01 X21.4865 Y14.1303
G01 X21.4943 Y14.0910
G01 X21.4994 Y14.0695
G01 X21.5051 Y14.0482
G01 X21.5112 Y14.0269
G01 X21.5179 Y14.0059
G01 X21.5251 Y13.9850
G01 X21.5328 Y13.9643
G01 X21.5410 Y13.9438
G01 X21.5497 Y13.9235
G01 X21.5589 Y13.9034
G01 X21.5686 Y13.8835
G01 X21.5787 Y13.8639
G01 X21.5894 Y13.8446
G01 X21.6005 Y13.8255
G01 X21.6121 Y13.8067
G01 X21.6241 Y13.7882
G01 X21.6366 Y13.7700
G01 X21.6496 Y13.7521
G01 X21.6630 Y13.7345
G01 X21.6768 Y13.7172
G01 X21.6910 Y13.7003
G01 X21.7056 Y13.6838
G01 X21.7206 Y13.6676
G01 X21.7361 Y13.6518
G01 X21.7519 Y13.6364
G01 X21.7681 Y13.6213
G01 X21.7846 Y13.6067
G01 X21.8015 Y13.5925
G01 X21.8188 Y13.5787
G01 X21.8363 Y13.5653
G01 X21.8542 Y13.5524
G01 X21.8725 Y13.5399
G01 X21.8910 Y13.5278
G01 X21.9098 Y13.5162
G01 X21.9289 Y13.5051
G01 X21.9482 Y13.4945
G01 X21.9678 Y13.4843
G01 X21.9877 Y13.4746
G01 X22.0078 Y13.4654
G01 X22.0281 Y13.4567
G01 X22.0486 Y13.4485
G01 X22.0693 Y13.4408
G01 X22.0902 Y13.4336
G01 X22.1112 Y13.4269
G01 X22.1324 Y13.4208
G01 X22.1538 Y13.4152
G01 X22.1753 Y13.4101
G01 X22.1969 Y13.4055
G01 X22.2186 Y13.4014
G01 X22.2404 Y13.3979
G01 X22.2623 Y13.3950
G01 X22.2843 Y13.3925
G01 X22.3063 Y13.3906
G01 X22.3283 Y13.3893
G01 X22.3504 Y13.3885
G01 X22.3725 Y13.3882
G01 X22.3946 Y13.3885
G01 X22.4166 Y13.3893
G01 X22.4387 Y13.3906
G01 X22.4607 Y13.3925
G01 X22.4826 Y13.3950
G01 X22.5045 Y13.3979
G01 X22.5263 Y13.4014
G01 X22.5480 Y13.4055
G01 X22.5697 Y13.4101
G01 X22.5911 Y13.4152
G01 X22.6125 Y13.4208
G01 X22.6337 Y13.4269
G01 X22.6548 Y13.4336
G01 X22.6757 Y13.4408
G01 X22.6964 Y13.4485
G01 X22.7169 Y13.4567
G01 X22.7372 Y13.4654
G01 X22.7573 Y13.4746
G01 X22.7771 Y13.4843
G01 X22.7967 Y13.4945
G01 X22.8161 Y13.5051
G01 X22.8352 Y13.5162
G01 X22.8540 Y13.5278
G01 X22.8725 Y13.5399
G01 X22.8907 Y13.5524
G01 X22.9086 Y13.5653
G01 X22.9262 Y13.5787
G01 X22.9434 Y13.5925
G01 X22.9603 Y13.6067
G01 X22.9769 Y13.6213
G01 X22.9931 Y13.6364
G01 X23.0089 Y13.6518
G01 X23.0243 Y13.6676
G01 X23.0393 Y13.6838
G01 X23.0540 Y13.7003
G01 X23.0682 Y13.7172
G01 X23.0820 Y13.7345
G01 X23.1006 Y13.7593
G00 Z2.0000
G00 X23.1006 Y12.9769
G01 F80.00
G01 Z-0.0800
G01 F200.00
G01 X23.0796 Y12.9653
G01 X23.0469 Y12.9484
G01 X23.0138 Y12.9322
G01 X22.9803 Y12.9169
G01 X22.9465 Y12.9024
G01 X22.9123 Y12.8887
G01 X22.8778 Y12.8759
G01 X22.8430 Y12.8639
G01 X22.8079 Y12.8528
G01 X22.7725 Y12.8425
G01 X22.7369 Y12.8331
G01 X22.7011 Y12.8246
G01 X22.6651 Y12.8170
G01 X22.6289 Y12.8103
G01 X22.5926 Y12.8044
G01 X22.5561 Y12.7995
G01 X22.5195 Y12.7954
G01 X22.4828 Y12.7923
G01 X22.4461 Y12.7900
G01 X22.4093 Y12.7886
G01 X22.3725 Y12.7882
G01 X22.3357 Y12.7886
G01 X22.2989 Y12.7900
G01 X22.2621 Y12.7923
G01 X22.2254 Y12.7954
G01 X22.1889 Y12.7995
G01 X22.1524 Y12.8044
G01 X22.1160 Y12.8103
G01 X22.0798 Y12.8170
G01 X22.0438 Y12.8246
G01 X22.0080 Y12.8331
G01 X21.9724 Y12.8425
G01 X21.9370 Y12.8528
G01 X21.9019 Y12.8639
G01 X21.8671 Y12.8759
G01 X21.8326 Y12.8887
G01 X21.7984 Y12.9024
G01 X21.7646 Y12.9169
G01 X21.7311 Y12.9322
G01 X21.6981 Y12.9484
G01 X21.6654 Y12.9653
G01 X21.6331 Y12.9831
G01 X21.6013 Y13.0016
G01 X21.5700 Y13.0209
G01 X21.5391 Y13.0410
G01 X21.5088 Y13.0618
G01 X21.4789 Y13.0834
G01 X21.4496 Y13.1057
G01 X21.4209 Y13.1287
G01 X21.3927 Y13.1524
G01 X21.3651 Y13.1768
G01 X21.3382 Y13.2018
G01 X21.3118 Y13.2275
G01 X21.2861 Y13.2539
G01 X21.2610 Y13.2809
G01 X21.2367 Y13.3084
G01 X21.2130 Y13.3366
G01 X21.1899 Y13.3653
G01 X21.1677 Y13.3946
G01 X21.1461 Y13.4245
G01 X21.1253 Y13.4548
G01 X21.1052 Y13.4857
G01 X21.0859 Y13.5170
G01 X21.0673 Y13.5488
G01 X21.0496 Y13.5811
G01 X21.0326 Y13.6138
G01 X21.0122 Y13.6561
G00 Z2.0000
G00 X21.3849 Y12.4350
G01 F80.00
G01 Z-0.0800
G01 F200.00
G01 X21.3374 Y12.4610
G01 X21.2929 Y12.4870
G01 X21.2490 Y12.5140
G01 X21.2058 Y12.5421
G01 X21.1633 Y12.5713
G01 X21.1215 Y12.6015
G01 X21.0805 Y12.6327
G01 X21.0402 Y12.6649
G01 X21.0008 Y12.6981
G01 X20.9622 Y12.7322
G01 X20.9244 Y12.7673
G01 X20.8875 Y12.8033
G01 X20.8515 Y12.8402
G01 X20.8165 Y12.8779
G01 X20.7823 Y12.9165
G01 X20.7491 Y12.9560
G01 X20.7169 Y12.9962
G01 X20.6857 Y13.0372
G01 X20.6555 Y13.0790
G01 X20.6264 Y13.1215
G01 X20.5983 Y13.1647
G01 X20.5688 Y13.2127
G00 Z2.0000
G00 X20.1328 Y12.7804
G01 F80.00
G01 Z-0.0800
G01 F200.00
G01 X20.1650 Y12.7335
G01 X20.2038 Y12.6798
G01 X20.2439 Y12.6271
G01 X20.2853 Y12.5753
G01 X20.3280 Y12.5246
G01 X20.3719 Y12.4750
G01 X20.4170 Y12.4264
G01 X20.4633 Y12.3790
G01 X20.5107 Y12.3327
G01 X20.5593 Y12.2876
G01 X20.6089 Y12.2437
G01 X20.6596 Y12.2011
G01 X20.7113 Y12.1597
G01 X20.7641 Y12.1195
G01 X20.8178 Y12.0807
G01 X20.8294 Y12.0728
G00 Z2.0000
G00 X20.6809 Y11.4548
G01 F80.00
G01 Z-0.0800
G01 F200.00
G01 X20.6070 Y11.5002
G01 X20.5391 Y11.5443
G01 X20.4723 Y11.5902
G01 X20.4067 Y11.6376
G01 X20.3422 Y11.6867
G01 X20.2790 Y11.7373
G01 X20.2170 Y11.7894
G01 X20.1563 Y11.8431
G01 X20.0970 Y11.8982
G01 X20.0390 Y11.9547
G01 X19.9825 Y12.0127
G01 X19.9273 Y12.0720
G01 X19.8737 Y12.1327
G01 X19.8215 Y12.1947
G01 X19.7709 Y12.2579
G01 X19.7219 Y12.3224
G01 X19.6744 Y12.3880
G01 X19.6286 Y12.4548
G01 X19.6213 Y12.4660
G00 Z2.0000
G00 X19.4238 Y12.4054
G01 F80.00
G01 Z-0.0800
G01 F200.00
G01 X19.4910 Y12.4224
G01 X19.5231 Y12.4316
G01 X19.5572 Y12.4431
G01 X19.6406 Y12.4730
G01 X19.6716 Y12.4854
G01 X19.6989 Y12.4975
G01 X19.7766 Y12.5343
G01 X19.7954 Y12.5437
G01 X19.8141 Y12.5535
G01 X19.8454 Y12.5714
G01 X19.9213 Y12.6170
G01 X19.9493 Y12.6352
G01 X19.9737 Y12.6524
G01 X20.0427 Y12.7036
G01 X20.0663 Y12.7220
G01 X20.0825 Y12.7355
G01 X20.0984 Y12.7493
G01 X20.1575 Y12.8029
G01 X20.1881 Y12.8319
G01 X23.1006 Y15.7445
G01 X23.1006 Y12.4491
G01 X21.5400 Y12.4491
G01 X21.5040 Y12.4483
G01 X21.4829 Y12.4472
G01 X21.4619 Y12.4455
G01 X21.4288 Y12.4419
G01 X21.3992 Y12.4375
G01 X21.3664 Y12.4314
G01 X21.3372 Y12.4248
G01 X21.3050 Y12.4163
G01 X21.2764 Y12.4076
G01 X21.2448 Y12.3968
G01 X21.2169 Y12.3860
G01 X21.1863 Y12.3729
G01 X21.1592 Y12.3601
G01 X21.1296 Y12.3447
G01 X21.1036 Y12.3300
G01 X21.0752 Y12.3125
G01 X21.0504 Y12.2959
G01 X21.0233 Y12.2764
G01 X20.9998 Y12.2580
G01 X20.9742 Y12.2365
G01 X20.9585 Y12.2224
G01 X20.9432 Y12.2079
G01 X20.9282 Y12.1931
G01 X20.9136 Y12.1779
G01 X20.8935 Y12.1558
G01 X20.8798 Y12.1397
G01 X20.8665 Y12.1234
G01 X20.8536 Y12.1067
G01 X20.8412 Y12.0897
G01 X20.8291 Y12.0724
G01 X20.8175 Y12.0548
G01 X20.8000 Y12.0264
G01 X20.7895 Y12.0081
G01 X20.7795 Y11.9895
G01 X20.7660 Y11.9628
G01 X20.7571 Y11.9437
G01 X20.7487 Y11.9244
G01 X20.7407 Y11.9049
G01 X20.7332 Y11.8852
G01 X20.7224 Y11.8536
G01 X20.7161 Y11.8335
G01 X20.7104 Y11.8132
G01 X20.7052 Y11.7928
G01 X20.7005 Y11.7722
G01 X20.6946 Y11.7429
G01 X20.6893 Y11.7100
G01 X20.6866 Y11.6891
G01 X20.6845 Y11.6681
G01 X20.6828 Y11.6471
G01 X20.6817 Y11.6260
G01 X20.6809 Y11.5961
G01 X20.6809 Y10.4995
G01 X19.6541 Y10.4995
G01 X19.6541 Y11.8200
G01 X19.6537 Y11.8472
G01 X19.6527 Y11.8683
G01 X19.6513 Y11.8893
G01 X19.6484 Y11.9191
G01 X19.6439 Y11.9521
G01 X19.6388 Y11.9816
G01 X19.6345 Y12.0022
G01 X19.6298 Y12.0228
G01 X19.6213 Y12.0550
G01 X19.6126 Y12.0836
G01 X19.6059 Y12.1036
G01 X19.5987 Y12.1234
G01 X19.5863 Y12.1544
G01 X19.5742 Y12.1817
G01 X19.5596 Y12.2117
G01 X19.5497 Y12.2304
G01 X19.5394 Y12.2488
G01 X19.5241 Y12.2744
G01 X19.5059 Y12.3024
G01 X19.4887 Y12.3268
G01 X19.4685 Y12.3534
G01 X19.4495 Y12.3765
G01 X19.4238 Y12.4054
G00 Z2.0000
G00 X19.6541 Y11.4921
G01 F80.00
G01 Z-0.0800
G01 F200.00
G01 X19.6833 Y11.4636
G01 X19.7534 Y11.3985
G01 X19.8251 Y11.3351
G01 X19.8983 Y11.2735
G01 X19.9731 Y11.2136
G01 X20.0492 Y11.1557
G01 X20.1268 Y11.0996
G01 X20.2057 Y11.0455
G01 X20.2860 Y10.9933
G01 X20.3675 Y10.9431
G01 X20.4502 Y10.8949
G01 X20.5340 Y10.8487
G01 X20.6190 Y10.8046
G01 X20.6809 Y10.7744
G00 Z2.0000
G00 X19.9448 Y10.4995
G01 F80.00
G01 Z-0.0800
G01 F200.00
G01 X19.8724 Y10.5466
G01 X19.7813 Y10.6091
G01 X19.6918 Y10.6738
G01 X19.6541 Y10.7025
G00 Z2.0000
G00 X19.6541 Y16.8502
G01 F80.00
G01 Z-0.0800
G01 F200.00
G01 X19.6541 Y17.5000
G01 X20.3039 Y17.5000
G01 X19.6541 Y16.8502
G00 Z2.0000
G00 X19.7018 Y16.8979
G01 F80.00
G01 Z-0.0800
G01 F200.00
G01 X19.6883 Y16.9039
G01 X19.6751 Y16.9105
G01 X19.6541 Y16.9229
G00 Z2.0000
G00 X19.6541 Y17.4273
G01 F80.00
G01 Z-0.0800
G01 F200.00
G01 X19.6687 Y17.4361
G01 X19.6817 Y17.4431
G01 X19.6950 Y17.4494
G01 X19.7086 Y17.4550
G01 X19.7224 Y17.4600
G01 X19.7436 Y17.4661
G01 X19.7580 Y17.4694
G01 X19.7725 Y17.4719
G01 X19.7871 Y17.4737
G01 X19.8018 Y17.4748
G01 X19.8165 Y17.4751
G01 X19.8386 Y17.4743
G01 X19.8533 Y17.4729
G01 X19.8678 Y17.4707
G01 X19.8823 Y17.4678
G01 X19.9036 Y17.4622
G01 X19.9245 Y17.4550
G01 X19.9381 Y17.4494
G01 X19.9514 Y17.4431
G01 X19.9644 Y17.4361
G01 X19.9770 Y17.4286
G01 X19.9893 Y17.4204
G01 X20.0069 Y17.4070
G01 X20.0180 Y17.3974
G01 X20.0287 Y17.3873
G01 X20.0388 Y17.3766
G01 X20.0530 Y17.3597
G01 X20.0618 Y17.3479
G01 X20.0739 Y17.3294
G01 X20.0811 Y17.3165
G01 X20.0877 Y17.3034
G01 X20.0937 Y17.2899
G00 Z2.0000
G00 X30.9131 Y16.6994
G01 F80.00
G01 Z-0.0800
G01 F200.00
G01 X30.9269 Y16.7217
G01 X30.9591 Y16.7753
G01 X30.9770 Y16.8066
G01 X30.9923 Y16.8362
G01 X31.0256 Y16.9062
G01 X31.0403 Y16.9391
G01 X31.0527 Y16.9701
G01 X31.0789 Y17.0430
G01 X31.0903 Y17.0772
G01 X31.0964 Y17.0974
G01 X31.1019 Y17.1178
G01 X31.1201 Y17.1903
G01 X31.1248 Y17.2109
G01 X31.1290 Y17.2316
G01 X31.1341 Y17.2610
G01 X31.1451 Y17.3350
G01 X31.1478 Y17.3559
G01 X31.1500 Y17.3769
G01 X31.1525 Y17.4129
G01 X31.1556 Y17.4753
G01 X31.1564 Y17.5000
G01 X31.2862 Y17.5000
G01 X31.2811 Y17.4754
G01 X31.2773 Y17.4546
G01 X31.2714 Y17.4156
G01 X31.2679 Y17.3886
G01 X31.2657 Y17.3676
G01 X31.2640 Y17.3466
G01 X31.2613 Y17.2922
G01 X31.2609 Y17.2650
G01 X31.2609 Y16.6994
G01 X30.9131 Y16.6994
G00 Z2.0000
G00 X30.8777 Y13.7806
G01 F80.00
G01 Z-0.0800
G01 F200.00
G01 X30.9098 Y13.7640
G01 X31.0453 Y13.6894
G01 X31.1788 Y13.6116
G01 X31.3105 Y13.5304
G01 X31.4401 Y13.4461
G01 X31.5671 Y13.3590
G00 Z2.0000
G00 X35.1606 Y16.4042
G01 F80.00
G01 Z-0.0800
G01 F200.00
G01 X35.1812 Y16.4025
G01 X35.2033 Y16.4022
G01 X35.2180 Y16.4029
G01 X35.2399 Y16.4054
G01 X35.2616 Y16.4094
G01 X35.2759 Y16.4130
G01 X35.2970 Y16.4197
G01 X35.3107 Y16.4250
G01 X35.3308 Y16.4342
G01 X35.3501 Y16.4448
G01 X35.3626 Y16.4527
G01 X35.3805 Y16.4656
G01 X35.3918 Y16.4750
G01 X35.4080 Y16.4900
G01 X35.4182 Y16.5007
G01 X35.4324 Y16.5176
G01 X35.4453 Y16.5355
G01 X35.4532 Y16.5479
G01 X35.4605 Y16.5607
G01 X35.4702 Y16.5806
G01 X35.4758 Y16.5942
G01 X35.4830 Y16.6150
G01 X35.4886 Y16.6364
G01 X35.4926 Y16.6581
G01 X35.4944 Y16.6727
G01 X35.4958 Y16.6948
G01 X35.4955 Y16.7168
G01 X35.4936 Y16.7389
G01 X35.4901 Y16.7607
G01 X35.4869 Y16.7750
G01 X35.4807 Y16.7962
G01 X35.4758 Y16.8101
G01 X35.4702 Y16.8237
G01 X35.4639 Y16.8370
G01 X35.4532 Y16.8564
G01 X35.4453 Y16.8688
G01 X35.4369 Y16.8808
G01 X35.4278 Y16.8924
G01 X35.4182 Y16.9036
G01 X35.4080 Y16.9143
G01 X35.3974 Y16.9244
G01 X35.3805 Y16.9386
G01 X35.3626 Y16.9516
G01 X35.3501 Y16.9594
G01 X35.3373 Y16.9667
G01 X35.3175 Y16.9764
G01 X35.3039 Y16.9820
G01 X35.2900 Y16.9870
G01 X35.2688 Y16.9931
G01 X35.2544 Y16.9964
G01 X35.2399 Y16.9989
G01 X35.2253 Y17.0007
G01 X35.2106 Y17.0018
G01 X35.1885 Y17.0020
G01 X35.1665 Y17.0007
G01 X35.1519 Y16.9989
G01 X35.1374 Y16.9964
G01 X35.1230 Y16.9931
G01 X35.1088 Y16.9892
G01 X35.0879 Y16.9820
G01 X35.0676 Y16.9733
G01 X35.0545 Y16.9667
G01 X35.0417 Y16.9594
G01 X35.0292 Y16.9516
G01 X35.0172 Y16.9431
G01 X34.9999 Y16.9293
G01 X34.9838 Y16.9143
G01 X34.9736 Y16.9036
G01 X34.9640 Y16.8924
G01 X34.9549 Y16.8808
G01 X34.9464 Y16.8688
G01 X34.9349 Y16.8500
G01 X34.9247 Y16.8304
G01 X34.9187 Y16.8169
G01 X34.9134 Y16.8032
G01 X34.9068 Y16.7821
G01 X34.9032 Y16.7679
G01 X34.9003 Y16.7534
G01 X34.8981 Y16.7389
G01 X34.8967 Y16.7242
G01 X34.8960 Y16.7095
G01 X34.8959 Y16.6980
G01 X34.7796 Y17.5000
G01 X34.7565 Y17.4875
G00 Z2.0000
G00 X34.7538 Y17.5000
G01 F80.00
G01 Z-0.0800
G01 F200.00
G01 X35.5000 Y17.5000
G01 X35.5000 Y15.8895
G01 X35.3931 Y15.8895
G01 X35.3765 Y15.9550
G01 X35.3708 Y15.9753
G01 X35.3646 Y15.9954
G01 X35.3558 Y16.0212
G01 X35.3339 Y16.0824
G01 X35.3231 Y16.1103
G01 X35.3150 Y16.1297
G01 X35.3037 Y16.1545
G01 X35.2759 Y16.2133
G01 X35.2665 Y16.2322
G01 X35.2567 Y16.2508
G01 X35.2388 Y16.2821
G01 X35.2053 Y16.3379
G01 X35.1893 Y16.3632
G01 X35.1775 Y16.3806
G01 X35.1653 Y16.3978
G01 X35.1266 Y16.4501
G01 X35.1100 Y16.4717
G01 X35.0967 Y16.4881
G01 X35.0830 Y16.5041
G01 X35.0335 Y16.5589
G01 X35.0045 Y16.5895
G01 X34.7791 Y16.8148
G01 X34.7791 Y17.2650
G01 X34.7783 Y17.3010
G01 X34.7760 Y17.3466
G01 X34.7743 Y17.3676
G01 X34.7721 Y17.3886
G01 X34.7686 Y17.4156
G01 X34.7627 Y17.4546
G01 X34.7589 Y17.4754
G01 X34.7538 Y17.5000
G00 Z2.0000
G00 X34.5855 Y4.7324
G01 F80.00
G01 Z-0.0800
G01 F200.00
G01 X34.5544 Y4.6724
G01 X34.4657 Y4.5111
G01 X34.3730 Y4.3521
G01 X34.2764 Y4.1954
G01 X34.1760 Y4.0411
G01 X34.0719 Y3.8893
G01 X33.9641 Y3.7401
G01 X33.8526 Y3.5936
G01 X33.7376 Y3.4499
G01 X33.6191 Y3.3091
G01 X33.4971 Y3.1712
G01 X33.3719 Y3.0363
G01 X33.2433 Y2.9046
G01 X33.1116 Y2.7760
G01 X32.9767 Y2.6507
G01 X32.8388 Y2.5288
G01 X32.6979 Y2.4103
G01 X32.5542 Y2.2953
G01 X32.4077 Y2.1838
G01 X32.2586 Y2.0760
G01 X32.1068 Y1.9718
G01 X31.9525 Y1.8715
G01 X31.7958 Y1.7749
G01 X31.6367 Y1.6822
G01 X31.4755 Y1.5935
G01 X31.3121 Y1.5087
G01 X31.2943 Y1.5000
G01 X32.4795 Y1.5000
G01 X32.6040 Y1.5854
G01 X32.7652 Y1.7019
G01 X32.9234 Y1.8223
G01 X33.0786 Y1.9465
G01 X33.2307 Y2.0745
G01 X33.3796 Y2.2062
G01 X33.5253 Y2.3415
G01 X33.6676 Y2.4803
G01 X33.8064 Y2.6226
G01 X33.9417 Y2.7682
G01 X34.0734 Y2.9172
G01 X34.2014 Y3.0693
G01 X34.3256 Y3.2245
G01 X34.4460 Y3.3827
G01 X34.4859 Y3.4379
G00 Z2.0000
G00 X34.4859 Y2.4780
G01 F80.00
G01 Z-0.0800
G01 F200.00
G01 X34.3863 Y2.3653
G01 X34.2409 Y2.2089
G01 X34.0918 Y2.0560
G01 X33.9390 Y1.9069
G01 X33.7826 Y1.7616
G01 X33.6226 Y1.6201
G01 X33.4798 Y1.5000
G01 X34.3811 Y1.5000
G01 X34.5161 Y1.6318
G01 X34.6718 Y1.7913
G00 Z2.0000
M05
G00 Z2.0000
G00 Z5.00


