(G-CODE GENERATED BY FLATCAM v8.994 - www.flatcam.org - Version Date: 2020/11/7)

(Name: zvire-vetrnik-relays.drl_mill_cnc)
(Type: G-code from Geometry)
(Units: MM)

(Created on Sobota, 04 února 2023 at 20:48)

(This preprocessor is the default preprocessor used by FlatCAM.)
(It is made to work with MACH3 compatible motion controllers.)

(TOOL DIAMETER: 1.0 mm)
(Feedrate_XY: 60.0 mm/min)
(Feedrate_Z: 25.0 mm/min)
(Feedrate rapids 1500.0 mm/min)

(Z_Cut: -1.6 mm)
(Z_Move: 2.0 mm)
(Z Start: None mm)
(Z End: 5.0 mm)
(X,Y End: None mm)
(Steps per circle: 64)
(Preprocessor Geometry: default)

(X range:    2.7100 ...   43.0100  mm)
(Y range:    2.7100 ...   70.9500  mm)

(Spindle Speed: 10000.0 RPM)
G21
G90
G94

G01 F60.00

M5
G00 Z15.0000
G00 X0.0000 Y0.0000
T1
M6    
(MSG, Change to Tool Dia = 1.0000)
M0
G00 Z15.0000

M03 S10000.0
G4 P1.0
G01 F60.00
G00 X4.9100 Y3.8100
G01 F25.00
G01 Z-1.6000
G01 F60.00
G01 X4.9047 Y3.7022
G01 X4.8889 Y3.5954
G01 X4.8626 Y3.4907
G01 X4.8263 Y3.3890
G01 X4.7801 Y3.2915
G01 X4.7246 Y3.1989
G01 X4.6603 Y3.1122
G01 X4.5878 Y3.0322
G01 X4.5078 Y2.9597
G01 X4.4211 Y2.8954
G01 X4.3285 Y2.8399
G01 X4.2310 Y2.7937
G01 X4.1293 Y2.7574
G01 X4.0246 Y2.7311
G01 X3.9178 Y2.7153
G01 X3.8100 Y2.7100
G01 X3.7022 Y2.7153
G01 X3.5954 Y2.7311
G01 X3.4907 Y2.7574
G01 X3.3890 Y2.7937
G01 X3.2915 Y2.8399
G01 X3.1989 Y2.8954
G01 X3.1122 Y2.9597
G01 X3.0322 Y3.0322
G01 X2.9597 Y3.1122
G01 X2.8954 Y3.1989
G01 X2.8399 Y3.2915
G01 X2.7937 Y3.3890
G01 X2.7574 Y3.4907
G01 X2.7311 Y3.5954
G01 X2.7153 Y3.7022
G01 X2.7100 Y3.8100
G01 X2.7153 Y3.9178
G01 X2.7311 Y4.0246
G01 X2.7574 Y4.1293
G01 X2.7937 Y4.2310
G01 X2.8399 Y4.3285
G01 X2.8954 Y4.4211
G01 X2.9597 Y4.5078
G01 X3.0322 Y4.5878
G01 X3.1122 Y4.6603
G01 X3.1989 Y4.7246
G01 X3.2915 Y4.7801
G01 X3.3890 Y4.8263
G01 X3.4907 Y4.8626
G01 X3.5954 Y4.8889
G01 X3.7022 Y4.9047
G01 X3.8100 Y4.9100
G01 X3.9178 Y4.9047
G01 X4.0246 Y4.8889
G01 X4.1293 Y4.8626
G01 X4.2310 Y4.8263
G01 X4.3285 Y4.7801
G01 X4.4211 Y4.7246
G01 X4.5078 Y4.6603
G01 X4.5878 Y4.5878
G01 X4.6603 Y4.5078
G01 X4.7246 Y4.4211
G01 X4.7801 Y4.3285
G01 X4.8263 Y4.2310
G01 X4.8626 Y4.1293
G01 X4.8889 Y4.0246
G01 X4.9047 Y3.9178
G01 X4.9100 Y3.8100
G00 Z2.0000
G00 X43.0100 Y3.8100
G01 F25.00
G01 Z-1.6000
G01 F60.00
G01 X43.0047 Y3.7022
G01 X42.9889 Y3.5954
G01 X42.9626 Y3.4907
G01 X42.9263 Y3.3890
G01 X42.8801 Y3.2915
G01 X42.8246 Y3.1989
G01 X42.7603 Y3.1122
G01 X42.6878 Y3.0322
G01 X42.6078 Y2.9597
G01 X42.5211 Y2.8954
G01 X42.4285 Y2.8399
G01 X42.3310 Y2.7937
G01 X42.2293 Y2.7574
G01 X42.1246 Y2.7311
G01 X42.0178 Y2.7153
G01 X41.9100 Y2.7100
G01 X41.8022 Y2.7153
G01 X41.6954 Y2.7311
G01 X41.5907 Y2.7574
G01 X41.4890 Y2.7937
G01 X41.3915 Y2.8399
G01 X41.2989 Y2.8954
G01 X41.2122 Y2.9597
G01 X41.1322 Y3.0322
G01 X41.0597 Y3.1122
G01 X40.9954 Y3.1989
G01 X40.9399 Y3.2915
G01 X40.8937 Y3.3890
G01 X40.8574 Y3.4907
G01 X40.8311 Y3.5954
G01 X40.8153 Y3.7022
G01 X40.8100 Y3.8100
G01 X40.8153 Y3.9178
G01 X40.8311 Y4.0246
G01 X40.8574 Y4.1293
G01 X40.8937 Y4.2310
G01 X40.9399 Y4.3285
G01 X40.9954 Y4.4211
G01 X41.0597 Y4.5078
G01 X41.1322 Y4.5878
G01 X41.2122 Y4.6603
G01 X41.2989 Y4.7246
G01 X41.3915 Y4.7801
G01 X41.4890 Y4.8263
G01 X41.5907 Y4.8626
G01 X41.6954 Y4.8889
G01 X41.8022 Y4.9047
G01 X41.9100 Y4.9100
G01 X42.0178 Y4.9047
G01 X42.1246 Y4.8889
G01 X42.2293 Y4.8626
G01 X42.3310 Y4.8263
G01 X42.4285 Y4.7801
G01 X42.5211 Y4.7246
G01 X42.6078 Y4.6603
G01 X42.6878 Y4.5878
G01 X42.7603 Y4.5078
G01 X42.8246 Y4.4211
G01 X42.8801 Y4.3285
G01 X42.9263 Y4.2310
G01 X42.9626 Y4.1293
G01 X42.9889 Y4.0246
G01 X43.0047 Y3.9178
G01 X43.0100 Y3.8100
G00 Z2.0000
G00 X43.0100 Y69.8500
G01 F25.00
G01 Z-1.6000
G01 F60.00
G01 X43.0047 Y69.7422
G01 X42.9889 Y69.6354
G01 X42.9626 Y69.5307
G01 X42.9263 Y69.4290
G01 X42.8801 Y69.3315
G01 X42.8246 Y69.2389
G01 X42.7603 Y69.1522
G01 X42.6878 Y69.0722
G01 X42.6078 Y68.9997
G01 X42.5211 Y68.9354
G01 X42.4285 Y68.8799
G01 X42.3310 Y68.8337
G01 X42.2293 Y68.7974
G01 X42.1246 Y68.7711
G01 X42.0178 Y68.7553
G01 X41.9100 Y68.7500
G01 X41.8022 Y68.7553
G01 X41.6954 Y68.7711
G01 X41.5907 Y68.7974
G01 X41.4890 Y68.8337
G01 X41.3915 Y68.8799
G01 X41.2989 Y68.9354
G01 X41.2122 Y68.9997
G01 X41.1322 Y69.0722
G01 X41.0597 Y69.1522
G01 X40.9954 Y69.2389
G01 X40.9399 Y69.3315
G01 X40.8937 Y69.4290
G01 X40.8574 Y69.5307
G01 X40.8311 Y69.6354
G01 X40.8153 Y69.7422
G01 X40.8100 Y69.8500
G01 X40.8153 Y69.9578
G01 X40.8311 Y70.0646
G01 X40.8574 Y70.1693
G01 X40.8937 Y70.2710
G01 X40.9399 Y70.3685
G01 X40.9954 Y70.4611
G01 X41.0597 Y70.5478
G01 X41.1322 Y70.6278
G01 X41.2122 Y70.7003
G01 X41.2989 Y70.7646
G01 X41.3915 Y70.8201
G01 X41.4890 Y70.8663
G01 X41.5907 Y70.9026
G01 X41.6954 Y70.9289
G01 X41.8022 Y70.9447
G01 X41.9100 Y70.9500
G01 X42.0178 Y70.9447
G01 X42.1246 Y70.9289
G01 X42.2293 Y70.9026
G01 X42.3310 Y70.8663
G01 X42.4285 Y70.8201
G01 X42.5211 Y70.7646
G01 X42.6078 Y70.7003
G01 X42.6878 Y70.6278
G01 X42.7603 Y70.5478
G01 X42.8246 Y70.4611
G01 X42.8801 Y70.3685
G01 X42.9263 Y70.2710
G01 X42.9626 Y70.1693
G01 X42.9889 Y70.0646
G01 X43.0047 Y69.9578
G01 X43.0100 Y69.8500
G00 Z2.0000
G00 X4.9100 Y69.8500
G01 F25.00
G01 Z-1.6000
G01 F60.00
G01 X4.9047 Y69.7422
G01 X4.8889 Y69.6354
G01 X4.8626 Y69.5307
G01 X4.8263 Y69.4290
G01 X4.7801 Y69.3315
G01 X4.7246 Y69.2389
G01 X4.6603 Y69.1522
G01 X4.5878 Y69.0722
G01 X4.5078 Y68.9997
G01 X4.4211 Y68.9354
G01 X4.3285 Y68.8799
G01 X4.2310 Y68.8337
G01 X4.1293 Y68.7974
G01 X4.0246 Y68.7711
G01 X3.9178 Y68.7553
G01 X3.8100 Y68.7500
G01 X3.7022 Y68.7553
G01 X3.5954 Y68.7711
G01 X3.4907 Y68.7974
G01 X3.3890 Y68.8337
G01 X3.2915 Y68.8799
G01 X3.1989 Y68.9354
G01 X3.1122 Y68.9997
G01 X3.0322 Y69.0722
G01 X2.9597 Y69.1522
G01 X2.8954 Y69.2389
G01 X2.8399 Y69.3315
G01 X2.7937 Y69.4290
G01 X2.7574 Y69.5307
G01 X2.7311 Y69.6354
G01 X2.7153 Y69.7422
G01 X2.7100 Y69.8500
G01 X2.7153 Y69.9578
G01 X2.7311 Y70.0646
G01 X2.7574 Y70.1693
G01 X2.7937 Y70.2710
G01 X2.8399 Y70.3685
G01 X2.8954 Y70.4611
G01 X2.9597 Y70.5478
G01 X3.0322 Y70.6278
G01 X3.1122 Y70.7003
G01 X3.1989 Y70.7646
G01 X3.2915 Y70.8201
G01 X3.3890 Y70.8663
G01 X3.4907 Y70.9026
G01 X3.5954 Y70.9289
G01 X3.7022 Y70.9447
G01 X3.8100 Y70.9500
G01 X3.9178 Y70.9447
G01 X4.0246 Y70.9289
G01 X4.1293 Y70.9026
G01 X4.2310 Y70.8663
G01 X4.3285 Y70.8201
G01 X4.4211 Y70.7646
G01 X4.5078 Y70.7003
G01 X4.5878 Y70.6278
G01 X4.6603 Y70.5478
G01 X4.7246 Y70.4611
G01 X4.7801 Y70.3685
G01 X4.8263 Y70.2710
G01 X4.8626 Y70.1693
G01 X4.8889 Y70.0646
G01 X4.9047 Y69.9578
G01 X4.9100 Y69.8500
G00 Z2.0000
M05
G00 Z2.0000
G00 Z5.00


