(G-CODE GENERATED BY FLATCAM v8.994 - www.flatcam.org - Version Date: 2020/11/7)

(Name: zvire-vetrnik-relays.drl_cnc)
(Type: G-code from Geometry)
(Units: MM)

(Created on Sobota, 04 února 2023 at 20:47)

(This preprocessor is the default preprocessor used by FlatCAM.)
(It is made to work with MACH3 compatible motion controllers.)


(TOOLS DIAMETER: )
(Tool: 1 -> Dia: 0.8)
(Tool: 2 -> Dia: 1.19)
(Tool: 3 -> Dia: 1.3)
(Tool: 4 -> Dia: 3.2)

(FEEDRATE Z: )
(Tool: 1 -> Feedrate: 120.0)
(Tool: 2 -> Feedrate: 120.0)
(Tool: 3 -> Feedrate: 120.0)
(Tool: 4 -> Feedrate: 120.0)

(FEEDRATE RAPIDS: )
(Tool: 1 -> Feedrate Rapids: 1500)
(Tool: 2 -> Feedrate Rapids: 1500)
(Tool: 3 -> Feedrate Rapids: 1500)
(Tool: 4 -> Feedrate Rapids: 1500)

(Z_CUT: )
(Tool: 1 -> Z_Cut: -1.65)
(Tool: 2 -> Z_Cut: -1.65)
(Tool: 3 -> Z_Cut: -1.65)
(Tool: 4 -> Z_Cut: -1.65)

(Tools Offset: )
(Tool: 2 -> Offset Z: 0.0)
(Tool: 3 -> Offset Z: 0.0)

(Z_MOVE: )
(Tool: 1 -> Z_Move: 2)
(Tool: 2 -> Z_Move: 2)
(Tool: 3 -> Z_Move: 2)
(Tool: 4 -> Z_Move: 2)

(Z Toolchange: 5.0 mm)
(X,Y Toolchange: 0.0000, 0.0000 mm)
(Z Start: None mm)
(Z End: 5.0 mm)
(X,Y End: None mm)
(Steps per circle: 64)
(Preprocessor Excellon: default)

(X range:    2.2100 ...   43.5100  mm)
(Y range:    2.2100 ...   71.4500  mm)

(Spindle Speed: 10000 RPM)
G21
G90
G94

G01 F120.00

M5
G00 Z5.0000
T2
G00 X0.0000 Y0.0000                
M6
(MSG, Change to Tool Dia = 1.1900 ||| Total drills for tool T2 = 28)
M0
G00 Z5.0000

G01 F120.00
M03 S10000
G4 P1
G00 X6.3500 Y33.0200
G01 Z-1.6500
G01 Z0
G00 Z2.0000
G00 X6.3500 Y35.5600
G01 Z-1.6500
G01 Z0
G00 Z2.0000
G00 X6.3500 Y38.1000
G01 Z-1.6500
G01 Z0
G00 Z2.0000
G00 X6.3500 Y40.6400
G01 Z-1.6500
G01 Z0
G00 Z2.0000
G00 X17.7800 Y36.8300
G01 Z-1.6500
G01 Z0
G00 Z2.0000
G00 X19.7800 Y42.8300
G01 Z-1.6500
G01 Z0
G00 Z2.0000
G00 X19.7800 Y51.1500
G01 Z-1.6500
G01 Z0
G00 Z2.0000
G00 X17.7800 Y57.1500
G01 Z-1.6500
G01 Z0
G00 Z2.0000
G00 X19.7800 Y63.1500
G01 Z-1.6500
G01 Z0
G00 Z2.0000
G00 X31.9800 Y63.1500
G01 Z-1.6500
G01 Z0
G00 Z2.0000
G00 X41.9100 Y62.1500
G01 Z-1.6500
G01 Z0
G00 Z2.0000
G00 X41.9100 Y57.1500
G01 Z-1.6500
G01 Z0
G00 Z2.0000
G00 X41.9100 Y52.1500
G01 Z-1.6500
G01 Z0
G00 Z2.0000
G00 X31.9800 Y51.1500
G01 Z-1.6500
G01 Z0
G00 Z2.0000
G00 X31.9800 Y42.8300
G01 Z-1.6500
G01 Z0
G00 Z2.0000
G00 X41.9100 Y41.7500
G01 Z-1.6500
G01 Z0
G00 Z2.0000
G00 X41.9100 Y36.7500
G01 Z-1.6500
G01 Z0
G00 Z2.0000
G00 X41.9100 Y31.7500
G01 Z-1.6500
G01 Z0
G00 Z2.0000
G00 X31.9800 Y30.8300
G01 Z-1.6500
G01 Z0
G00 Z2.0000
G00 X31.9800 Y22.5100
G01 Z-1.6500
G01 Z0
G00 Z2.0000
G00 X41.9100 Y21.4300
G01 Z-1.6500
G01 Z0
G00 Z2.0000
G00 X41.9100 Y16.4300
G01 Z-1.6500
G01 Z0
G00 Z2.0000
G00 X41.9100 Y11.4300
G01 Z-1.6500
G01 Z0
G00 Z2.0000
G00 X31.9800 Y10.5100
G01 Z-1.6500
G01 Z0
G00 Z2.0000
G00 X19.7800 Y10.5100
G01 Z-1.6500
G01 Z0
G00 Z2.0000
G00 X17.7800 Y16.5100
G01 Z-1.6500
G01 Z0
G00 Z2.0000
G00 X19.7800 Y22.5100
G01 Z-1.6500
G01 Z0
G00 Z2.0000
G00 X19.7800 Y30.8300
G01 Z-1.6500
G01 Z0
G00 Z2.0000
M05
G00 Z5.00


